Huisouan/Genesis/recorddata/algo_obs.csv
base_ang_vel_x,base_ang_vel_y,base_ang_vel_z,projected_gravity_x,projected_gravity_y,projected_gravity_z,velocity_command_x,velocity_command_y,velocity_command_z,joint_pos_0,joint_pos_1,joint_pos_2,joint_pos_3,joint_pos_4,joint_pos_5,joint_pos_6,joint_pos_7,joint_pos_8,joint_pos_9,joint_pos_10,joint_pos_11,joint_vel_0,joint_vel_1,joint_vel_2,joint_vel_3,joint_vel_4,joint_vel_5,joint_vel_6,joint_vel_7,joint_vel_8,joint_vel_9,joint_vel_10,joint_vel_11,action_0,action_1,action_2,action_3,action_4,action_5,action_6,action_7,action_8,action_9,action_10,action_11
1.0792188323560659e-11,8.852781702151091e-11,-1.6781340856850124e-13,3.118691165582277e-05,-4.320099833421409e-11,1.0,0.031341552734375,-0.031982421875,-0.031982421875,-0.11258890479803085,0.9039967656135559,0.6628004908561707,0.11258901655673981,0.9039967656135559,-2.3371994495391846,-0.11274701356887817,0.7039905786514282,-2.3371996879577637,0.11274688690900803,0.7039906978607178,-2.3371996879577637,2.3658441872242975e-10,-1.140272498645345e-08,2.890596761062625e-06,-2.404030863267792e-10,-1.140355276874061e-08,2.8907259093102766e-06,-1.6637108357642205e-09,-1.0407042339011241e-08,2.88616456600721e-06,1.6596127805357241e-09,-1.0407858574978945e-08,2.8861766168120084e-06,0.0,0.0,0.0,0.0,0.0,0.0,0.0,0.0,0.0,0.0,0.0,0.0
4.288231824755434e-13,2.6757145388245362e-09,6.584670146376342e-14,3.1186315027298406e-05,-4.274625098332763e-11,1.0,0.031341552734375,-0.031982421875,-0.031982421875,-0.11258890479803085,0.9039967656135559,0.6628017425537109,0.11258901655673981,0.9039967656135559,-2.337198257446289,-0.11274701356887817,0.7039905786514282,-2.337198495864868,0.11274688690900803,0.7039905786514282,-2.337198495864868,3.7525187818188144e-11,-1.3684015032211505e-09,4.0296603742717707e-07,-3.887505248267864e-11,-1.3682036614781623e-09,4.0298388626069936e-07,-1.1823873824479136e-10,-1.2655004821837679e-09,4.0266110090669827e-07,1.1661603627199923e-10,-1.2652775494004231e-09,4.026626072572981e-07,0.0,0.0,0.0,0.0,0.0,0.0,0.0,0.0,0.0,0.0,0.0,0.0
1.0429048033153143e-12,7.06997793642472e-11,9.739890914194776e-14,3.118588210782036e-05,-4.274625098332763e-11,1.0,0.031341552734375,-0.031982421875,-0.031982421875,-0.11258890479803085,0.9039967656135559,0.66280198097229,0.11258901655673981,0.9039967656135559,-2.33719801902771,-0.11274701356887817,0.7039905786514282,-2.337198257446289,0.11274688690900803,0.7039905786514282,-2.337198257446289,4.063100550455445e-12,2.2259187548723247e-10,5.591141327698779e-09,-4.985358046522004e-12,2.2287656442632198e-10,5.591383356318147e-09,1.313684577786134e-10,2.218904227024865e-10,5.5953059963087526e-09,-1.3253202701957179e-10,2.2222738926824803e-10,5.595322427609517e-09,0.0,0.0,0.0,0.0,0.0,0.0,0.0,0.0,0.0,0.0,0.0,0.0
1.0972991178886948e-12,7.373265409685303e-13,9.649393914110127e-14,3.118588210782036e-05,-4.229150363244116e-11,1.0,0.031341552734375,-0.031982421875,-0.031982421875,-0.11258890479803085,0.9039967656135559,0.66280198097229,0.11258901655673981,0.9039967656135559,-2.33719801902771,-0.11274701356887817,0.7039905786514282,-2.337198257446289,0.11274688690900803,0.7039905786514282,-2.337198257446289,3.2066558609822327e-12,2.1858828636034389e-10,2.744554583600234e-09,-4.1240335799108685e-12,2.1886140122440167e-10,2.744673155419264e-09,1.3101873752585647e-10,2.2277871214448908e-10,2.7471822594549167e-09,-1.3217248129304693e-10,2.2310740754871716e-10,2.747190031016089e-09,0.0,0.0,0.0,0.0,0.0,0.0,0.0,0.0,0.0,0.0,0.0,0.0
1.1329786935021513e-12,-3.805035453385841e-11,9.549467065630285e-14,3.118588210782036e-05,-4.18367562815547e-11,1.0,0.031341552734375,-0.031982421875,-0.031982421875,-0.11258890479803085,0.9039967656135559,0.66280198097229,0.11258901655673981,0.9039967656135559,-2.33719801902771,-0.11274701356887817,0.7039905786514282,-2.337198257446289,0.11274688690900803,0.7039905786514282,-2.337198257446289,2.4988743713150185e-12,2.0938487055310873e-10,1.3456730174610243e-09,-3.4128756678381e-12,2.0964656399780068e-10,1.3457309711029097e-09,1.2979993468942297e-10,2.184538522298496e-10,1.3472355453458817e-09,-1.3094550443959463e-10,2.187738740166978e-10,1.347239209081863e-09,0.0,0.0,0.0,0.0,0.0,0.0,0.0,0.0,0.0,0.0,0.0,0.0
1.1569484519718953e-12,-5.821623738633264e-11,9.446272702853115e-14,3.1185889383777976e-05,-4.1382008930668235e-11,1.0,0.031341552734375,-0.031982421875,-0.031982421875,-0.11258890479803085,0.9039967656135559,0.66280198097229,0.11258901655673981,0.9039967656135559,-2.33719801902771,-0.11274701356887817,0.7039905786514282,-2.337198257446289,0.11274688690900803,0.7039905786514282,-2.337198257446289,1.88463090619595e-12,1.9809354157018788e-10,6.59584331597074e-10,-2.7960398753246185e-12,1.983441605402092e-10,6.596126422842019e-10,1.2819843797640118e-10,2.1178983566905174e-10,6.604800595333415e-10,-1.2933673576576155e-10,2.1210122547188348e-10,6.604819469124834e-10,0.0,0.0,0.0,0.0,0.0,0.0,0.0,0.0,0.0,0.0,0.0,0.0
1.1730897286552078e-12,-6.749212994039411e-11,9.342754434676914e-14,3.118589302175678e-05,-4.229150363244116e-11,1.0,0.031341552734375,-0.031982421875,-0.031982421875,-0.11258890479803085,0.9039967656135559,0.66280198097229,0.11258901655673981,0.9039967656135559,-2.33719801902771,-0.11274701356887817,0.7039905786514282,-2.337198257446289,0.11274688690900803,0.7039905786514282,-2.337198257446289,1.3353499079063469e-12,1.8620326114326957e-10,3.2327027166267897e-10,-2.2445285647459956e-12,1.864432219722545e-10,3.2328409393933555e-10,1.264490040453481e-10,2.0417918744630725e-10,3.2377303615938047e-10,-1.2758051559647043e-10,2.0448219506530307e-10,3.237742018935563e-10,0.0,0.0,0.0,0.0,0.0,0.0,0.0,0.0,0.0,0.0,0.0,0.0
1.1842085471946984e-12,-7.052328859780133e-11,9.241563135413411e-14,3.118589665973559e-05,-4.18367562815547e-11,1.0,0.031341552734375,-0.031982421875,-0.031982421875,-0.11258890479803085,0.9039967656135559,0.66280198097229,0.11258901655673981,0.9039967656135559,-2.33719801902771,-0.11274701356887817,0.7039905786514282,-2.337198257446289,0.11274688690900803,0.7039905786514282,-2.337198257446289,8.35536501098133e-13,1.7442219890639876e-10,1.5843810985405327e-10,-1.7426869409337131e-12,1.746520705836474e-10,1.5844503487016937e-10,1.2466537524513654e-10,1.963007811855988e-10,1.5871871872352727e-10,-1.2579044750271606e-10,1.9659554539863677e-10,1.587193015906152e-10,0.0,0.0,0.0,0.0,0.0,0.0,0.0,0.0,0.0,0.0,0.0,0.0
1.1929438556781968e-12,-7.005192953490891e-11,9.142647983085769e-14,3.1185903935693204e-05,-4.18367562815547e-11,1.0,0.031341552734375,-0.031982421875,-0.031982421875,-0.11258890479803085,0.9039967656135559,0.66280198097229,0.11258901655673981,0.9039967656135559,-2.33719801902771,-0.11274701356887817,0.7039905786514282,-2.337198257446289,0.11274688690900803,0.7039905786514282,-2.337198257446289,3.7638338626355683e-13,1.6307315220398522e-10,7.765611070853495e-11,-1.2816028620299402e-12,1.6329342045207085e-10,7.765948301097225e-11,1.2290150841476333e-10,1.8847944038835607e-10,7.781474770096608e-11,-1.2402034954561714e-10,1.887663220179192e-10,7.781498362335881e-11,0.0,0.0,0.0,0.0,0.0,0.0,0.0,0.0,0.0,0.0,0.0,0.0
1.1980709393316635e-12,-6.838851013268865e-11,9.069874300389469e-14,3.118591121165082e-05,-4.1382008930668235e-11,1.0,0.031341552734375,-0.031982421875,-0.031982421875,-0.11258890479803085,0.9039967656135559,0.66280198097229,0.11258901655673981,0.9039967656135559,-2.33719801902771,-0.11274701356887817,0.7039905786514282,-2.337198257446289,0.11274688690900803,0.7039905786514282,-2.337198257446289,5.537873287654767e-14,1.5492961080720846e-10,4.5493282752051556e-11,-9.591997335300917e-13,1.551429679169658e-10,4.5495236050685506e-11,1.2160693285689916e-10,1.8274530499962083e-10,4.559904190348796e-11,-1.227212081955642e-10,1.8302645510281934e-10,4.559915639523737e-11,0.0,0.0,0.0,0.0,0.0,0.0,0.0,0.0,0.0,0.0,0.0,0.0
1.203555159180747e-12,-6.520836648427064e-11,8.975394212573651e-14,3.1185914849629626e-05,-4.1382008930668235e-11,1.0,0.031341552734375,-0.031982421875,-0.031982421875,-0.11258890479803085,0.9039967656135559,0.66280198097229,0.11258901655673981,0.9039967656135559,-2.33719801902771,-0.11274701356887817,0.7039905786514282,-2.337198257446289,0.11274688690900803,0.7039905786514282,-2.337198257446289,-3.4455280967758684e-13,1.4460281583250634e-10,2.2304765673331062e-11,-5.574042746467334e-13,1.4480744381373256e-10,2.230592620333649e-11,1.199276788987902e-10,1.753334699650111e-10,2.2370157809481483e-11,-1.2103598678869787e-10,1.7560720932952023e-10,2.2370173421992767e-11,0.0,0.0,0.0,0.0,0.0,0.0,0.0,0.0,0.0,0.0,0.0,0.0
1.2080174100620455e-12,-6.145653430600362e-11,8.883779806624983e-14,3.118591848760843e-05,-4.092726157978177e-11,1.0,0.031341552734375,-0.031982421875,-0.031982421875,-0.11258890479803085,0.9039967656135559,0.66280198097229,0.11258901655673981,0.9039967656135559,-2.33719801902771,-0.11274701356887817,0.7039905786514282,-2.337198257446289,0.11274688690900803,0.7039906978607178,-2.337198257446289,-7.150696593009875e-13,1.3488822558915814e-10,1.094068672463644e-11,-1.8506080186071056e-13,1.350845685310631e-10,1.0941469084924105e-11,1.1830580959326653e-10,1.6821585790971483e-10,1.0985178044986554e-11,-1.1940830269008273e-10,1.684823808245639e-10,1.0985226617243882e-11,0.0,0.0,0.0,0.0,0.0,0.0,0.0,0.0,0.0,0.0,0.0,0.0
1.2124361844362275e-12,-5.7472214487486184e-11,8.794868452217594e-14,3.118592212558724e-05,-4.0472514228895307e-11,1.0,0.031341552734375,-0.031982421875,-0.031982421875,-0.11258890479803085,0.9039967656135559,0.66280198097229,0.11258901655673981,0.9039967656135559,-2.33719801902771,-0.11274701356887817,0.7039905786514282,-2.337198257446289,0.11274688690900803,0.7039906978607178,-2.337198257446289,-1.0585216514077955e-12,1.2576965857657996e-10,5.37127070251997e-12,1.6018192631681027e-13,1.2595821607952473e-10,5.37171045492113e-12,1.1674193556299173e-10,1.6140036529499469e-10,5.40495903242344e-12,-1.1783873876680673e-10,1.6166000482709109e-10,5.4050522738102735e-12,0.0,0.0,0.0,0.0,0.0,0.0,0.0,0.0,0.0,0.0,0.0,0.0
1.2158852483873384e-12,-5.3443170028311116e-11,8.708265093184883e-14,3.118592576356605e-05,-4.1382008930668235e-11,1.0,0.031341552734375,-0.031982421875,-0.031982421875,-0.11258890479803085,0.9039967656135559,0.66280198097229,0.11258901655673981,0.9039967656135559,-2.33719801902771,-0.11274701356887817,0.7039905786514282,-2.337198257446289,0.11274688690900803,0.7039906978607178,-2.337198257446289,-1.3769021730072883e-12,1.1722038617545394e-10,2.64147818201943e-12,4.803704634591399e-13,1.1740150518413373e-10,2.6417798070638154e-12,1.152348563793204e-10,1.5488364757398898e-10,2.669855439160762e-12,-1.1632605295686105e-10,1.5513668127908886e-10,2.669868015905963e-12,0.0,0.0,0.0,0.0,0.0,0.0,0.0,0.0,0.0,0.0,0.0,0.0
1.2188787305855708e-12,-4.9471468588357936e-11,8.623897901132924e-14,3.118593303952366e-05,-4.1382008930668235e-11,1.0,0.031341552734375,-0.031982421875,-0.031982421875,-0.11258890479803085,0.9039967656135559,0.66280198097229,0.11258901655673981,0.9039967656135559,-2.33719801902771,-0.11274701356887817,0.7039905786514282,-2.337198257446289,0.11274688690900803,0.7039906978607178,-2.337198257446289,-1.6719969592876582e-12,1.0920982174145166e-10,1.303387953122126e-12,7.772538580634591e-13,1.0938389083392508e-10,1.303511010068703e-12,1.137824973129753e-10,1.4865718378498372e-10,1.3288152045723423e-12,-1.1486818440875624e-10,1.489038198299042e-10,1.328857813717721e-12,0.0,0.0,0.0,0.0,0.0,0.0,0.0,0.0,0.0,0.0,0.0,0.0
1.2218049922491092e-12,-4.561131333735702e-11,8.542189714908985e-14,3.118593667750247e-05,-4.1382008930668235e-11,1.0,0.031341552734375,-0.031982421875,-0.031982421875,-0.11258890479803085,0.9039967656135559,0.66280198097229,0.11258901655673981,0.9039967656135559,-2.33719801902771,-0.11274701356887817,0.7039905786514282,-2.337198257446289,0.11274688690900803,0.7039906978607178,-2.337198257446289,-1.9454498775828277e-12,1.0170627534611398e-10,6.470509349675024e-13,1.0524576002368669e-12,1.0187373167269698e-10,6.471895502152547e-13,1.1238245750666565e-10,1.4271006598676195e-10,6.710751203863052e-13,-1.1346276002077715e-10,1.4295055417168356e-10,6.710597247154559e-13,0.0,0.0,0.0,0.0,0.0,0.0,0.0,0.0,0.0,0.0,0.0,0.0
1.2245280744255238e-12,-4.188891594703037e-11,8.462766484763559e-14,3.1185940315481275e-05,-4.0472514228895307e-11,1.0,0.031341552734375,-0.031982421875,-0.031982421875,-0.11258890479803085,0.9039967656135559,0.66280198097229,0.11258901655673981,0.9039967656135559,-2.33719801902771,-0.11274701356887817,0.7039905786514282,-2.337198257446289,0.11274688690900803,0.7039906978607178,-2.337198257446289,-2.1987630900027755e-12,9.467863298917578e-11,3.241657159716582e-13,1.3075464105546941e-12,9.483982349456355e-11,3.243269097296525e-13,1.1103225283637386e-10,1.3703028989286992e-10,3.4751064872939885e-13,-1.1210724709664888e-10,1.372648661401854e-10,3.476074950884561e-13,0.0,0.0,0.0,0.0,0.0,0.0,0.0,0.0,0.0,0.0,0.0,0.0
1.2265115138798688e-12,-3.831670397635989e-11,8.385173523410561e-14,3.118594395346008e-05,-4.0472514228895307e-11,1.0,0.031341552734375,-0.031982421875,-0.031982421875,-0.11258890479803085,0.9039967656135559,0.66280198097229,0.11258901655673981,0.9039967656135559,-2.33719801902771,-0.11274701356887817,0.7039905786514282,-2.337198257446289,0.11274688690900803,0.7039906978607178,-2.337198257446289,-2.4331409283206984e-12,8.809829948885906e-11,1.6646475593361937e-13,1.543683475317692e-12,8.825351560659556e-11,1.6665720181923555e-13,1.0972962816158116e-10,1.3160712797333218e-10,1.8946794816659257e-13,-1.1079942519032215e-10,1.3183601432764647e-10,1.8946251360320299e-13,0.0,0.0,0.0,0.0,0.0,0.0,0.0,0.0,0.0,0.0,0.0,0.0
1.228604566173852e-12,-3.4897196243832695e-11,8.309946155672654e-14,3.118594395346008e-05,-4.092726157978177e-11,1.0,0.031341552734375,-0.031982421875,-0.031982421875,-0.11258890479803085,0.9039967656135559,0.66280198097229,0.11258901655673981,0.9039967656135559,-2.33719801902771,-0.11274701356887817,0.7039905786514282,-2.337198257446289,0.11274688690900803,0.7039906978607178,-2.337198257446289,-2.6500537875229213e-12,8.19361314907674e-11,8.838214855073565e-14,1.7623423336984856e-12,8.208574792112344e-11,8.847384494947361e-14,1.0847202996933092e-10,1.2642809021912171e-10,1.1109176594045408e-13,-1.0953670609437083e-10,1.2665150872503972e-10,1.1102696453185734e-13,0.0,0.0,0.0,0.0,0.0,0.0,0.0,0.0,0.0,0.0,0.0,0.0
1.2305484322489013e-12,-3.162920619859122e-11,8.236624950879248e-14,3.118594759143889e-05,-4.001776687800884e-11,1.0,0.031341552734375,-0.031982421875,-0.031982421875,-0.11258890479803085,0.9039967656135559,0.66280198097229,0.11258901655673981,0.9039967656135559,-2.33719801902771,-0.11274700611829758,0.7039905786514282,-2.337198257446289,0.11274688690900803,0.7039906978607178,-2.337198257446289,-2.8506240336984012e-12,7.616607344829163e-11,4.9651522991819505e-14,1.964649797014939e-12,7.631039550259899e-11,4.9624390832453055e-14,1.072572794469373e-10,1.2148237971132403e-10,7.204778223676711e-14,-1.0831692487389688e-10,1.2170051078008726e-10,7.201885436755248e-14,0.0,0.0,0.0,0.0,0.0,0.0,0.0,0.0,0.0,0.0,0.0,0.0
1.231987819053093e-12,-2.8509271332577413e-11,8.165344079049189e-14,3.1185951229417697e-05,-4.0472514228895307e-11,1.0,0.031341552734375,-0.031982421875,-0.031982421875,-0.11258890479803085,0.9039967656135559,0.66280198097229,0.11258901655673981,0.9039967656135559,-2.33719801902771,-0.11274700611829758,0.7039905786514282,-2.337198257446289,0.11274688690900803,0.7039906978607178,-2.337198257446289,-3.0359653593187153e-12,7.07633535101948e-11,3.023497657751381e-14,2.1517204251003674e-12,7.090269343867917e-11,3.021490867292746e-14,1.0608323247618401e-10,1.1675935218669053e-10,5.230023906359696e-14,-1.0713794434957791e-10,1.1697236235175268e-10,5.231065756884819e-14,0.0,0.0,0.0,0.0,0.0,0.0,0.0,0.0,0.0,0.0,0.0,0.0
1.2333642137110634e-12,-2.5532471970013404e-11,8.095743720586482e-14,3.1185951229417697e-05,-4.001776687800884e-11,1.0,0.031341552734375,-0.031982421875,-0.031982421875,-0.11258890479803085,0.9039967656135559,0.66280198097229,0.11258901655673981,0.9039967656135559,-2.33719801902771,-0.11274700611829758,0.7039905786514282,-2.337198257446289,0.11274688690900803,0.7039906978607178,-2.337198257446289,-3.2071155627033665e-12,6.570468474853541e-11,2.0345345146024346e-14,2.3245997141096986e-12,6.58392715346956e-11,2.0348801040449144e-14,1.049478837167328e-10,1.1224874502113735e-10,4.21097313648474e-14,-1.0599772448660616e-10,1.1245687020489115e-10,4.2164429364449293e-14,0.0,0.0,0.0,0.0,0.0,0.0,0.0,0.0,0.0,0.0,0.0,0.0
1.2342745098550822e-12,-2.2693834658693568e-11,8.02792484181844e-14,3.1185954867396504e-05,-4.0472514228895307e-11,1.0,0.031341552734375,-0.031982421875,-0.031982421875,-0.11258890479803085,0.9039967656135559,0.66280198097229,0.11258901655673981,0.9039967656135559,-2.33719801902771,-0.11274700611829758,0.7039905786514282,-2.337198257446289,0.11274688690900803,0.7039906978607178,-2.337198257446289,-3.365015514497638e-12,6.096822352530396e-11,1.506956824679894e-14,2.4842356904225538e-12,6.109834166379002e-11,1.502323893271592e-14,1.038492972171845e-10,1.079408229465173e-10,3.661840999153419e-14,-1.0489432933358245e-10,1.0814420886573473e-10,3.670930001490637e-14,0.0,0.0,0.0,0.0,0.0,0.0,0.0,0.0,0.0,0.0,0.0,0.0
1.2353141513182786e-12,-2.0651926349590788e-11,7.978277191461255e-14,3.1185954867396504e-05,-4.001776687800884e-11,1.0,0.031341552734375,-0.031982421875,-0.031982421875,-0.11258890479803085,0.9039967656135559,0.66280198097229,0.11258901655673981,0.9039967656135559,-2.33719801902771,-0.11274700611829758,0.7039905786514282,-2.337198257446289,0.11274688690900803,0.7039906978607178,-2.337198257446289,-3.4753135699089333e-12,5.761500651568774e-11,1.2622491756247162e-14,2.595807900226954e-12,5.7741960518553626e-11,1.2527208172977578e-14,1.0304838232721991e-10,1.0483727080901062e-10,3.410579856185335e-14,-1.0408986172993906e-10,1.0503722197574561e-10,3.422587056432433e-14,0.0,0.0,0.0,0.0,0.0,0.0,0.0,0.0,0.0,0.0,0.0,0.0
1.2352007437710366e-12,-1.7408180799649564e-11,7.896808884967979e-14,3.118595850537531e-05,-4.0472514228895307e-11,1.0,0.031341552734375,-0.031982421875,-0.031982421875,-0.11258890479803085,0.9039967656135559,0.66280198097229,0.11258901655673981,0.9039967656135559,-2.33719801902771,-0.11274700611829758,0.7039905786514282,-2.337198257446289,0.11274688690900803,0.7039906978607178,-2.337198257446289,-3.644678742836804e-12,5.238157824161149e-11,1.0260719106780416e-14,2.7673297681163334e-12,5.250338011575373e-11,1.0190811783577624e-14,1.0175521536481824e-10,9.989616772676513e-11,3.132385775999995e-14,-1.0279086609665811e-10,1.0009054696169528e-10,3.1494175756902054e-14,0.0,0.0,0.0,0.0,0.0,0.0,0.0,0.0,0.0,0.0,0.0,0.0
1.2361668763269384e-12,-1.495033090381792e-11,7.833777436417819e-14,3.118595850537531e-05,-4.001776687800884e-11,1.0,0.031341552734375,-0.031982421875,-0.031982421875,-0.11258890479803085,0.9039967656135559,0.66280198097229,0.11258901655673981,0.9039967656135559,-2.33719801902771,-0.11274700611829758,0.7039905786514282,-2.337198257446289,0.11274688690900803,0.7039906978607178,-2.337198257446289,-3.7680843688325805e-12,4.849422599595421e-11,9.053834376280493e-15,2.8924330378737872e-12,4.8612263520153576e-11,9.0051824978561e-15,1.007563615873508e-10,9.614203183572201e-11,2.9826821893418065e-14,-1.0178742571032018e-10,9.633219916205249e-11,3.0033775759354814e-14,0.0,0.0,0.0,0.0,0.0,0.0,0.0,0.0,0.0,0.0,0.0,0.0
1.236683607082345e-12,-1.2608906974076461e-11,7.772011793904035e-14,3.118595850537531e-05,-4.001776687800884e-11,1.0,0.031341552734375,-0.031982421875,-0.031982421875,-0.11258890479803085,0.9039967656135559,0.66280198097229,0.11258901655673981,0.9039967656135559,-2.33719801902771,-0.11274700611829758,0.7039905786514282,-2.337198257446289,0.11274688690900803,0.7039906978607178,-2.337198257446289,-3.881506227543241e-12,4.485483512395305e-11,8.137370138339758e-15,3.0075512393035186e-12,4.496927483166324e-11,8.107662998813655e-15,9.978756015938117e-11,9.255576166600221e-11,2.868004092678941e-14,-1.0081410012352521e-10,9.274188361718672e-11,2.892664609905303e-14,0.0,0.0,0.0,0.0,0.0,0.0,0.0,0.0,0.0,0.0,0.0,0.0
1.2370214444792915e-12,-1.0378392589771579e-11,7.711790461859686e-14,3.118596214335412e-05,-3.956301952712238e-11,1.0,0.031341552734375,-0.031982421875,-0.031982421875,-0.11258890479803085,0.9039967656135559,0.66280198097229,0.11258901655673981,0.9039967656135559,-2.33719801902771,-0.11274700611829758,0.7039905786514282,-2.337198257446289,0.11274688690900803,0.7039906978607178,-2.337198257446289,-3.985646014614819e-12,4.144766127534005e-11,7.441561371290557e-15,3.1133780449554838e-12,4.1558728680612944e-11,7.440390771757451e-15,9.884733309650784e-11,8.912973831209925e-11,2.772953951689621e-14,-9.986943910744728e-11,8.931193978822805e-11,2.7904265473255828e-14,0.0,0.0,0.0,0.0,0.0,0.0,0.0,0.0,0.0,0.0,0.0,0.0
1.236906519049008e-12,-8.254489106129803e-12,7.652210164349818e-14,3.118596214335412e-05,-3.956301952712238e-11,1.0,0.031341552734375,-0.031982421875,-0.031982421875,-0.11258890479803085,0.9039967656135559,0.66280198097229,0.11258901655673981,0.9039967656135559,-2.33719801902771,-0.11274700611829758,0.7039905786514282,-2.337198257446289,0.11274688690900803,0.7039906978607178,-2.337198257446289,-4.081142975648211e-12,3.825804603674321e-11,6.804799270994453e-15,3.210554001473187e-12,3.8365834814646504e-11,6.822498871460279e-15,9.793432037552563e-11,8.585650940196032e-11,2.6855083030941605e-14,-9.895201324994218e-11,8.603498469206272e-11,2.6958144917765825e-14,0.0,0.0,0.0,0.0,0.0,0.0,0.0,0.0,0.0,0.0,0.0,0.0
1.2366608388367228e-12,-6.728509676506844e-12,7.608685545761745e-14,3.118596214335412e-05,-3.956301952712238e-11,1.0,0.031341552734375,-0.031982421875,-0.031982421875,-0.11258890479803085,0.9039967656135559,0.66280198097229,0.11258901655673981,0.9039967656135559,-2.33719801902771,-0.11274700611829758,0.7039905786514282,-2.337198257446289,0.11274688690900803,0.7039906978607178,-2.337198257446289,-4.1474480100278655e-12,3.60002236354795e-11,6.433373206041074e-15,3.2781236492668286e-12,3.610569135337194e-11,6.466607390759544e-15,9.726661837072825e-11,8.349767405269048e-11,2.6281928022786616e-14,-9.828106384279778e-11,8.367340847970084e-11,2.6345758731625805e-14,0.0,0.0,0.0,0.0,0.0,0.0,0.0,0.0,0.0,0.0,0.0,0.0
1.2361988602910268e-12,-4.779590785652932e-12,7.551823885199385e-14,3.118596214335412e-05,-3.9108272176235914e-11,1.0,0.031341552734375,-0.031982421875,-0.031982421875,-0.11258890479803085,0.9039967656135559,0.66280198097229,0.11258901655673981,0.9039967656135559,-2.33719801902771,-0.11274700611829758,0.7039905786514282,-2.337198257446289,0.11274688690900803,0.7039906978607178,-2.337198257446289,-4.229211165301949e-12,3.315852800667152e-11,5.8514107493005344e-15,3.361575557844776e-12,3.3261064041889554e-11,5.904565031356057e-15,9.639809089856399e-11,8.047525840160219e-11,2.5583593403488702e-14,-9.740822731751919e-11,8.064743317603984e-11,2.5545515884377833e-14,0.0,0.0,0.0,0.0,0.0,0.0,0.0,0.0,0.0,0.0,0.0,0.0
1.2358569029258248e-12,-2.9246847998987135e-12,7.496007802107116e-14,3.118596214335412e-05,-3.9108272176235914e-11,1.0,0.031341552734375,-0.031982421875,-0.031982421875,-0.11258890479803085,0.9039967656135559,0.66280198097229,0.11258901655673981,0.9039967656135559,-2.33719801902771,-0.11274700611829758,0.7039905786514282,-2.337198257446289,0.11274688690900803,0.7039906978607178,-2.337198257446289,-4.303878000516681e-12,3.049852384529039e-11,5.4932962306297305e-15,3.4379326642464125e-12,3.059827738405296e-11,5.566540016611757e-15,9.555332219912671e-11,7.758715198091792e-11,2.479726053130054e-14,-9.655921895390662e-11,7.775593363623656e-11,2.4770685719613383e-14,0.0,0.0,0.0,0.0,0.0,0.0,0.0,0.0,0.0,0.0,0.0,0.0
1.2358167874454429e-12,-1.159586532697987e-12,7.441202059914331e-14,3.118596214335412e-05,-3.9108272176235914e-11,1.0,0.031341552734375,-0.031982421875,-0.031982421875,-0.11258890479803085,0.9039967656135559,0.66280198097229,0.11258901655673981,0.9039967656135559,-2.33719801902771,-0.11274700611829758,0.7039905786514282,-2.337198257446289,0.11274688690900803,0.7039906978607178,-2.337198257446289,-4.371929467755775e-12,2.800871513886083e-11,4.9908307806043224e-15,3.507647080777665e-12,2.8105800672917347e-11,5.0818177892489585e-15,9.47312228660735e-11,7.482719999174492e-11,2.4119662972617306e-14,-9.573291465114764e-11,7.499275506139824e-11,2.4123904913617156e-14,0.0,0.0,0.0,0.0,0.0,0.0,0.0,0.0,0.0,0.0,0.0,0.0
1.2344987228643522e-12,5.196145163449684e-13,7.387181686670241e-14,3.118596214335412e-05,-3.9108272176235914e-11,1.0,0.031341552734375,-0.031982421875,-0.031982421875,-0.11258890479803085,0.9039967656135559,0.66280198097229,0.11258901655673981,0.9039967656135559,-2.33719801902771,-0.11274700611829758,0.7039905786514282,-2.337198257446289,0.11274688690900803,0.7039906978607178,-2.337198257446289,-4.433818329846462e-12,2.5678249457317115e-11,4.750238695233264e-15,3.5712114689057106e-12,2.5772776274246567e-11,4.730119121637132e-15,9.393067573748581e-11,7.21895807020978e-11,2.342733212284953e-14,-9.492823194179323e-11,7.235195081944923e-11,2.346810320673267e-14,0.0,0.0,0.0,0.0,0.0,0.0,0.0,0.0,0.0,0.0,0.0,0.0
1.233792365148978e-12,2.116675975119553e-12,7.334882484374972e-14,3.118596214335412e-05,-3.9108272176235914e-11,1.0,0.031341552734375,-0.031982421875,-0.031982421875,-0.11258890479803085,0.9039967656135559,0.66280198097229,0.11258901655673981,0.9039967656135559,-2.33719801902771,-0.11274700611829758,0.7039905786514282,-2.337198257446289,0.11274688690900803,0.7039906978607178,-2.337198257446289,-4.489990844402936e-12,2.3497009893347354e-11,4.464045320597349e-15,3.6290484506373843e-12,2.358919830303119e-11,4.45246256856012e-15,9.31506746737476e-11,6.96686805468083e-11,2.2796209567916247e-14,-9.414415080843952e-11,6.98279628563725e-11,2.2869640548179616e-14,0.0,0.0,0.0,0.0,0.0,0.0,0.0,0.0,0.0,0.0,0.0,0.0
1.2334410836450926e-12,3.6352199462436063e-12,7.283633602934297e-14,3.118596214335412e-05,-3.9108272176235914e-11,1.0,0.031341552734375,-0.031982421875,-0.031982421875,-0.11258890479803085,0.9039967656135559,0.66280198097229,0.11258901655673981,0.9039967656135559,-2.33719801902771,-0.11274700611829758,0.7039905786514282,-2.337198257446289,0.11274688690900803,0.7039906978607178,-2.337198257446289,-4.540842094696851e-12,2.1455580367923943e-11,4.0188198160485446e-15,3.681554627127381e-12,2.1545583026028048e-11,4.021956379052227e-15,9.239027598528793e-11,6.725908718863138e-11,2.2204841657329395e-14,-9.337972756151558e-11,6.741544822386203e-11,2.23076917859168e-14,0.0,0.0,0.0,0.0,0.0,0.0,0.0,0.0,0.0,0.0,0.0,0.0
1.2323523278234827e-12,5.078774206745962e-12,7.232970868293123e-14,3.118596214335412e-05,-3.9108272176235914e-11,1.0,0.031341552734375,-0.031982421875,-0.031982421875,-0.11258890479803085,0.9039967656135559,0.66280198097229,0.11258901655673981,0.9039967656135559,-2.33719801902771,-0.11274700611829758,0.7039905786514282,-2.337198257446289,0.11274688690900803,0.7039906978607178,-2.337198257446289,-4.586752852531184e-12,1.9545146751065445e-11,3.719632956001749e-15,3.729129852136914e-12,1.9633003556229767e-11,3.61877335484039e-15,9.164857067700538e-11,6.495571441833548e-11,2.1579736424453405e-14,-9.263400463366267e-11,6.510924438485333e-11,2.1716325569395845e-14,0.0,0.0,0.0,0.0,0.0,0.0,0.0,0.0,0.0,0.0,0.0,0.0
1.231130215134657e-12,6.450728406298678e-12,7.183729116124263e-14,3.118596214335412e-05,-3.865352482534945e-11,1.0,0.031341552734375,-0.031982421875,-0.031982421875,-0.11258890479803085,0.9039967656135559,0.66280198097229,0.11258901655673981,0.9039967656135559,-2.33719801902771,-0.11274700611829758,0.7039905786514282,-2.337198257446289,0.11274688690900803,0.7039906978607178,-2.337198257446289,-4.628037102855087e-12,1.7757436146514927e-11,3.5424561098092514e-15,3.772073365465589e-12,1.7843336183598346e-11,3.4413332931595335e-15,9.092470526494978e-11,6.275392011589886e-11,2.1139555424621974e-14,-9.190621180765746e-11,6.290463983038563e-11,2.117442607699454e-14,0.0,0.0,0.0,0.0,0.0,0.0,0.0,0.0,0.0,0.0,0.0,0.0
1.2299064761425726e-12,7.753901687390652e-12,7.134845150672323e-14,3.118596214335412e-05,-3.865352482534945e-11,1.0,0.031341552734375,-0.031982421875,-0.031982421875,-0.11258890479803085,0.9039967656135559,0.66280198097229,0.11258901655673981,0.9039967656135559,-2.33719801902771,-0.11274700611829758,0.7039905786514282,-2.337198257446289,0.11274688690900803,0.7039906978607178,-2.337198257446289,-4.6650439587681e-12,1.608466485003568e-11,3.243326424486395e-15,3.810732111808601e-12,1.6168639344060765e-11,3.162263677368264e-15,9.021786095964046e-11,6.064877072775587e-11,2.056984106429873e-14,-9.119545396618634e-11,6.079686060145306e-11,2.0623273596677427e-14,0.0,0.0,0.0,0.0,0.0,0.0,0.0,0.0,0.0,0.0,0.0,0.0
1.228494628073562e-12,8.99192612729971e-12,7.087323214199567e-14,3.118596214335412e-05,-3.865352482534945e-11,1.0,0.031341552734375,-0.031982421875,-0.031982421875,-0.11258890479803085,0.9039967656135559,0.66280198097229,0.11258901655673981,0.9039967656135559,-2.33719801902771,-0.11274700611829758,0.7039905786514282,-2.337198257446289,0.11274688690900803,0.7039906978607178,-2.337198257446289,-4.698057914920284e-12,1.4519475899366086e-11,2.8221638554196647e-15,3.8454153056255436e-12,1.4601694853233482e-11,2.7563004792653016e-15,8.952724672717238e-11,5.863603352862512e-11,2.0052908715050694e-14,-9.050098170870768e-11,5.878151437821444e-11,2.0138731787332394e-14,0.0,0.0,0.0,0.0,0.0,0.0,0.0,0.0,0.0,0.0,0.0,0.0
1.2272325083245716e-12,1.0167474501221463e-11,7.040496522369918e-14,3.118595850537531e-05,-3.8198777474462986e-11,1.0,0.031341552734375,-0.031982421875,-0.031982421875,-0.11258890479803085,0.9039967656135559,0.66280198097229,0.11258901655673981,0.9039967656135559,-2.33719801902771,-0.11274700611829758,0.7039905786514282,-2.337198257446289,0.11274688690900803,0.7039906978607178,-2.337198257446289,-4.72737127221734e-12,1.305521402789056e-11,2.583232589899935e-15,3.876377951267385e-12,1.3135765912497543e-11,2.670626908298792e-15,8.885216867815515e-11,5.6711430690414844e-11,1.9556337343788754e-14,-8.982209420693721e-11,5.685442047709266e-11,1.9670142996515948e-14,0.0,0.0,0.0,0.0,0.0,0.0,0.0,0.0,0.0,0.0,0.0,0.0
1.2260421627593998e-12,1.1283006647044846e-11,6.994303411184816e-14,3.118595850537531e-05,-3.8198777474462986e-11,1.0,0.031341552734375,-0.031982421875,-0.031982421875,-0.11258890479803085,0.9039967656135559,0.66280198097229,0.11258901655673981,0.9039967656135559,-2.33719801902771,-0.11274700611829758,0.7039905786514282,-2.337198257446289,0.11274688690900803,0.7039906978607178,-2.337198257446289,-4.753262020096294e-12,1.168533585865772e-11,2.5063719732331324e-15,3.9039123496398265e-12,1.176426317472945e-11,2.6197873555298783e-15,8.819189128983496e-11,5.48708856129565e-11,1.9153283492101374e-14,-8.915802818254548e-11,5.501152311460089e-11,1.9172394249457325e-14,0.0,0.0,0.0,0.0,0.0,0.0,0.0,0.0,0.0,0.0,0.0,0.0
1.2246234842167025e-12,1.2341462053699903e-11,6.949186370655905e-14,3.118595850537531e-05,-3.865352482534945e-11,1.0,0.031341552734375,-0.031982421875,-0.031982421875,-0.11258890479803085,0.9039967656135559,0.66280198097229,0.11258901655673981,0.9039967656135559,-2.33719801902771,-0.11274700611829758,0.7039905786514282,-2.337198257446289,0.11274688690900803,0.7039906978607178,-2.337198257446289,-4.7759574073324984e-12,1.0403982363127451e-11,2.337693832116911e-15,3.928253989454733e-12,1.0481420419095056e-11,2.470628453408422e-15,8.754576230618483e-11,5.3110644354648073e-11,1.8785495010139978e-14,-8.850817301286895e-11,5.324898508241027e-11,1.881168865700087e-14,0.0,0.0,0.0,0.0,0.0,0.0,0.0,0.0,0.0,0.0,0.0,0.0
1.2234067925387393e-12,1.3345676126708117e-11,6.904900777668019e-14,3.118595850537531e-05,-3.774403012357652e-11,1.0,0.031341552734375,-0.031982421875,-0.031982421875,-0.11258890479803085,0.9039967656135559,0.66280198097229,0.11258901655673981,0.9039967656135559,-2.33719801902771,-0.11274700611829758,0.7039905786514282,-2.337198257446289,0.11274688690900803,0.7039906978607178,-2.337198257446289,-4.795684682701307e-12,9.205507883747188e-12,2.0744300628796437e-15,3.949634456296147e-12,9.281553824125321e-12,2.2226591345832518e-15,8.691317110454122e-11,5.1427029301720495e-11,1.8213449615145892e-14,-8.787188338077456e-11,5.1563170400115155e-11,1.8267515728169134e-14,0.0,0.0,0.0,0.0,0.0,0.0,0.0,0.0,0.0,0.0,0.0,0.0
1.221370877699246e-12,1.429745471320798e-11,6.861058352318136e-14,3.1185954867396504e-05,-3.8198777474462986e-11,1.0,0.031341552734375,-0.031982421875,-0.031982421875,-0.11258890479803085,0.9039967656135559,0.66280198097229,0.11258901655673981,0.9039967656135559,-2.33719801902771,-0.11274700611829758,0.7039905786514282,-2.337198257446289,0.11274688690900803,0.7039906978607178,-2.337198257446289,-4.812661553998954e-12,8.084698709109883e-12,1.7279867053099384e-15,3.96825584544902e-12,8.159399371432396e-12,1.8957626504582156e-15,8.62935209400284e-11,4.981653631275229e-11,1.7886071381032105e-14,-8.724859029696219e-11,4.995052288458979e-11,1.7967378073639045e-14,0.0,0.0,0.0,0.0,0.0,0.0,0.0,0.0,0.0,0.0,0.0,0.0
1.2196365879041382e-12,1.5199619340933168e-11,6.817896263831488e-14,3.1185954867396504e-05,-3.728928277269006e-11,1.0,0.031341552734375,-0.031982421875,-0.031982421875,-0.11258890479803085,0.9039967656135559,0.66280198097229,0.11258901655673981,0.9039967656135559,-2.33719801902771,-0.11274700611829758,0.7039905786514282,-2.337198257446289,0.11274688690900803,0.7039906978607178,-2.337198257446289,-4.827084912339963e-12,7.036683735694993e-12,1.603112026028026e-15,3.9843159153896135e-12,7.1100846564531306e-12,1.5535298936693114e-15,8.568625670113406e-11,4.827583818811654e-11,1.7487684680884096e-14,-8.66376900776622e-11,4.8407746561229814e-11,1.7600184208806623e-14,0.0,0.0,0.0,0.0,0.0,0.0,0.0,0.0,0.0,0.0,0.0,0.0
1.2181138259528823e-12,1.605418055439234e-11,6.775665233960462e-14,3.1185954867396504e-05,-3.774403012357652e-11,1.0,0.031341552734375,-0.031982421875,-0.031982421875,-0.11258890479803085,0.9039967656135559,0.66280198097229,0.11258901655673981,0.9039967656135559,-2.33719801902771,-0.11274700611829758,0.7039905786514282,-2.337198257446289,0.11274688690900803,0.7039906978607178,-2.337198257446289,-4.839142975221478e-12,6.0568204097999345e-12,1.656374940059034e-15,3.997992475274215e-12,6.129059933190906e-12,1.5681309417349626e-15,8.509083021523978e-11,4.680178120053391e-11,1.697498749637233e-14,-8.603869700030131e-11,4.693167729441505e-11,1.7113423173139783e-14,0.0,0.0,0.0,0.0,0.0,0.0,0.0,0.0,0.0,0.0,0.0,0.0
1.2165239518871496e-12,1.6863425586488567e-11,6.734271072641324e-14,3.1185951229417697e-05,-3.8198777474462986e-11,1.0,0.031341552734375,-0.031982421875,-0.031982421875,-0.11258890479803085,0.9039967656135559,0.66280198097229,0.11258901655673981,0.9039967656135559,-2.33719801902771,-0.11274700611829758,0.7039905786514282,-2.337198257446289,0.11274688690900803,0.7039906978607178,-2.337198257446289,-4.848984928862432e-12,5.140717278945273e-12,1.5568667799650197e-15,4.009488487749513e-12,5.2118556866098675e-12,1.5919102270588246e-15,8.450675575977229e-11,4.539130182834583e-11,1.6728356913120294e-14,-8.545105595336722e-11,4.551927237916864e-11,1.6897263753132274e-14,0.0,0.0,0.0,0.0,0.0,0.0,0.0,0.0,0.0,0.0,0.0,0.0
1.214759629691864e-12,1.762919324410639e-11,6.693495584186859e-14,3.1185951229417697e-05,-3.774403012357652e-11,1.0,0.031341552734375,-0.031982421875,-0.031982421875,-0.11258890479803085,0.9039967656135559,0.66280198097229,0.11258901655673981,0.9039967656135559,-2.33719801902771,-0.11274700611829758,0.7039905786514282,-2.337198257446289,0.11274688690900803,0.7039906978607178,-2.337198257446289,-4.8568007254834455e-12,4.2844681795439765e-12,1.4594829785027192e-15,4.0189435980553245e-12,4.354570523612544e-12,1.5462029527964433e-15,8.39335198565827e-11,4.404151696113523e-11,1.6374967991262222e-14,-8.487430203096835e-11,4.4167614010603984e-11,1.6570280236371908e-14,0.0,0.0,0.0,0.0,0.0,0.0,0.0,0.0,0.0,0.0,0.0,0.0
1.2124362928564447e-12,1.8353622441291684e-11,6.652806831906194e-14,3.1185951229417697e-05,-3.774403012357652e-11,1.0,0.031341552734375,-0.031982421875,-0.031982421875,-0.11258890479803085,0.9039967656135559,0.66280198097229,0.11258901655673981,0.9039967656135559,-2.33719801902771,-0.11274700611829758,0.7039905786514282,-2.337198257446289,0.11274688690900803,0.7039906978607178,-2.337198257446289,-4.862722637749561e-12,3.484239589554572e-12,1.3368172552681275e-15,4.0265048240062384e-12,3.553301750058857e-12,1.440946509485006e-15,8.33707131109307e-11,4.2749671858022253e-11,1.5927885366976563e-14,-8.430798420500096e-11,4.287396479507599e-11,1.60762601283471e-14,0.0,0.0,0.0,0.0,0.0,0.0,0.0,0.0,0.0,0.0,0.0,0.0
1.2105593220554378e-12,1.9038392390369197e-11,6.613267333928363e-14,3.118594759143889e-05,-3.728928277269006e-11,1.0,0.031341552734375,-0.031982421875,-0.031982421875,-0.11258890479803085,0.9039967656135559,0.66280198097229,0.11258901655673981,0.9039967656135559,-2.33719801902771,-0.11274700611829758,0.7039905786514282,-2.337198257446289,0.11274688690900803,0.7039906978607178,-2.337198257446289,-4.866892479304941e-12,2.736514790810385e-12,1.1591884111191515e-15,4.03231224452294e-12,2.804655162627623e-12,1.2814662991430192e-15,8.281783592245517e-11,4.1513126269876466e-11,1.5762654649955667e-14,-8.37516653251491e-11,4.163565672787861e-11,1.5868347421114058e-14,0.0,0.0,0.0,0.0,0.0,0.0,0.0,0.0,0.0,0.0,0.0,0.0
1.2087673527047538e-12,1.952733287569064e-11,6.583423313877984e-14,3.118594759143889e-05,-3.774403012357652e-11,1.0,0.031341552734375,-0.031982421875,-0.031982421875,-0.11258890479803085,0.9039967656135559,0.66280198097229,0.11258901655673981,0.9039967656135559,-2.33719801902771,-0.11274700611829758,0.7039905786514282,-2.337198257446289,0.11274688690900803,0.7039906978607178,-2.337198257446289,-4.868962004411781e-12,2.208220802393801e-12,9.9037538000608e-16,4.035594341339488e-12,2.2756343250746047e-12,1.1234127040424453e-15,8.240950283289195e-11,4.0620517366418696e-11,1.558022238784193e-14,-8.334074402815972e-11,4.074179882351814e-11,1.5701671665885146e-14,0.0,0.0,0.0,0.0,0.0,0.0,0.0,0.0,0.0,0.0,0.0,0.0
1.206555471852666e-12,2.0147165186168436e-11,6.544370351625056e-14,3.118594395346008e-05,-3.728928277269006e-11,1.0,0.031341552734375,-0.031982421875,-0.031982421875,-0.11258890479803085,0.9039967656135559,0.66280198097229,0.11258901655673981,0.9039967656135559,-2.33719801902771,-0.11274700611829758,0.7039905786514282,-2.337198257446289,0.11274688690900803,0.7039906978607178,-2.337198257446289,-4.870375804044702e-12,1.5445707863756541e-12,7.291739771766992e-16,4.038642250486779e-12,1.6110836623117741e-12,8.734994446033266e-16,8.187313327301382e-11,3.9474819246709814e-11,1.5222833776406923e-14,-8.280096053248087e-11,3.9594449247060126e-11,1.5363041446100033e-14,0.0,0.0,0.0,0.0,0.0,0.0,0.0,0.0,0.0,0.0,0.0,0.0
1.2043982347900717e-12,2.0731959551878454e-11,6.506462577916816e-14,3.118594395346008e-05,-3.728928277269006e-11,1.0,0.031341552734375,-0.031982421875,-0.031982421875,-0.11258890479803085,0.9039967656135559,0.66280198097229,0.11258901655673981,0.9039967656135559,-2.33719801902771,-0.11274700611829758,0.7039905786514282,-2.337198257446289,0.11274688690900803,0.7039906978607178,-2.337198257446289,-4.870364528342108e-12,9.247107203222416e-13,4.825073950244063e-16,4.040269854788114e-12,9.904645463174044e-13,5.734276468848869e-16,8.134563855843879e-11,3.8377790528842937e-11,1.4892348625442607e-14,-8.227008657657464e-11,3.849573090852765e-11,1.4884538981668922e-14,0.0,0.0,0.0,0.0,0.0,0.0,0.0,0.0,0.0,0.0,0.0,0.0
1.202229938865318e-12,2.1283693557583305e-11,6.468770967016715e-14,3.1185940315481275e-05,-3.6834535421803594e-11,1.0,0.031341552734375,-0.031982421875,-0.031982421875,-0.11258890479803085,0.9039967656135559,0.66280198097229,0.11258901655673981,0.9039967656135559,-2.33719801902771,-0.11274700611829758,0.7039905786514282,-2.337198257446289,0.11274688690900803,0.7039906978607178,-2.337198257446289,-4.869048306904711e-12,3.4601062791871084e-13,5.661089645832545e-16,4.040580803971183e-12,4.10978515759039e-13,5.403869562553055e-16,8.082669256115338e-11,3.732721770566272e-11,1.478962555179729e-14,-8.174779603242754e-11,3.7443589895325147e-11,1.4707688666677592e-14,0.0,0.0,0.0,0.0,0.0,0.0,0.0,0.0,0.0,0.0,0.0,0.0
1.2000307431786483e-12,2.1803612734738742e-11,6.431614003312922e-14,3.1185940315481275e-05,-3.637978807091713e-11,1.0,0.031341552734375,-0.031982421875,-0.031982421875,-0.11258890479803085,0.9039967656135559,0.66280198097229,0.11258901655673981,0.9039967656135559,-2.33719801902771,-0.11274700611829758,0.7039905786514282,-2.337198257446289,0.11274688690900803,0.7039906978607178,-2.337198257446289,-4.8665216821619506e-12,-1.9418970283787557e-13,5.401487811784495e-16,4.039683518253234e-12,-1.299243237952094e-13,4.879561462158564e-16,8.031592751978067e-11,3.632100870065713e-11,1.4592615852661306e-14,-8.123371419976877e-11,3.6435864742001556e-11,1.452222233254679e-14,0.0,0.0,0.0,0.0,0.0,0.0,0.0,0.0,0.0,0.0,0.0,0.0
1.1971461148785334e-12,2.2411152794665767e-11,6.385878967545694e-14,3.118593667750247e-05,-3.6834535421803594e-11,1.0,0.031341552734375,-0.031982421875,-0.031982421875,-0.11258890479803085,0.9039967656135559,0.66280198097229,0.11258901655673981,0.9039967656135559,-2.33719801902771,-0.11274700611829758,0.7039905786514282,-2.337198257446289,0.11274688690900803,0.7039906978607178,-2.337198257446289,-4.861789790200355e-12,-8.189763971155894e-13,5.685303141420993e-16,4.036995997908077e-12,-7.555560452461585e-13,5.201819911501791e-16,7.968850579409548e-11,3.512260274285417e-11,1.4163454751473653e-14,-8.060218464889246e-11,3.52356095689732e-11,1.4129542093364433e-14,0.0,0.0,0.0,0.0,0.0,0.0,0.0,0.0,0.0,0.0,0.0,0.0
1.1950363658710939e-12,2.28650431921551e-11,6.349878034408313e-14,3.118593667750247e-05,-3.637978807091713e-11,1.0,0.031341552734375,-0.031982421875,-0.031982421875,-0.11258890479803085,0.9039967656135559,0.66280198097229,0.11258901655673981,0.9039967656135559,-2.33719801902771,-0.11274700611829758,0.7039905786514282,-2.337198257446289,0.11274688690900803,0.7039906978607178,-2.337198257446289,-4.856857537677284e-12,-1.2811796979220191e-12,5.230244749024869e-16,4.033694819133293e-12,-1.2183866112194797e-12,5.288299857834087e-16,7.919506023190692e-11,3.420902450201879e-11,1.375533310166285e-14,-8.010546392878126e-11,3.4320626202122284e-11,1.3740671808378825e-14,0.0,0.0,0.0,0.0,0.0,0.0,0.0,0.0,0.0,0.0,0.0,0.0
1.1926569757833572e-12,2.329152842817095e-11,6.314707871185599e-14,3.118593303952366e-05,-3.6834535421803594e-11,1.0,0.031341552734375,-0.031982421875,-0.031982421875,-0.11258890479803085,0.9039967656135559,0.66280198097229,0.11258901655673981,0.9039967656135559,-2.33719801902771,-0.11274700611829758,0.7039905786514282,-2.337198257446289,0.11274688690900803,0.7039906978607178,-2.337198257446289,-4.850992871285875e-12,-1.7122417849887994e-12,5.195324227587534e-16,4.029464262256255e-12,-1.6499893899096785e-12,5.484088347218366e-16,7.87087825471211e-11,3.333364140267747e-11,1.3672353518985082e-14,-7.961596659722403e-11,3.344381369063676e-11,1.3683924836077523e-14,0.0,0.0,0.0,0.0,0.0,0.0,0.0,0.0,0.0,0.0,0.0,0.0
1.1899793216779697e-12,2.3691833217487357e-11,6.279440129767361e-14,3.118593303952366e-05,-3.637978807091713e-11,1.0,0.031341552734375,-0.031982421875,-0.031982421875,-0.11258890479803085,0.9039967656135559,0.66280198097229,0.11258901655673981,0.9039967656135559,-2.33719801902771,-0.11274700611829758,0.7039905786514282,-2.337198257446289,0.11274688690900803,0.7039906978607178,-2.337198257446289,-4.844254771624312e-12,-2.1140667341712494e-12,4.918959611513321e-16,4.024345526959516e-12,-2.052397748281143e-12,4.75380830383123e-16,7.8229457634027e-11,3.2494690965778616e-11,1.3537045934891839e-14,-7.913342203735851e-11,3.2603496291638834e-11,1.357527422586732e-14,0.0,0.0,0.0,0.0,0.0,0.0,0.0,0.0,0.0,0.0,0.0,0.0
1.1875562382426819e-12,2.406750666816837e-11,6.244858823849578e-14,3.1185929401544854e-05,-3.5925040720030665e-11,1.0,0.031341552734375,-0.031982421875,-0.031982421875,-0.11258890479803085,0.9039967656135559,0.66280198097229,0.11258901655673981,0.9039967656135559,-2.33719801902771,-0.11274700611829758,0.7039905786514282,-2.337198257446289,0.11274688690900803,0.7039906978607178,-2.337198257446289,-4.836743418973333e-12,-2.4885653433781574e-12,5.033984038772495e-16,4.018450069226409e-12,-2.427408968275202e-12,4.894403067581235e-16,7.775679405908065e-11,3.1690535612360904e-11,1.3302735445857618e-14,-7.865759432679198e-11,3.1798032956720235e-11,1.336264439215102e-14,0.0,0.0,0.0,0.0,0.0,0.0,0.0,0.0,0.0,0.0,0.0,0.0
1.1847458777913822e-12,2.441900501248817e-11,6.210521463420604e-14,3.1185929401544854e-05,-3.637978807091713e-11,1.0,0.031341552734375,-0.031982421875,-0.031982421875,-0.11258890479803085,0.9039967656135559,0.66280198097229,0.11258901655673981,0.9039967656135559,-2.33719801902771,-0.11274700611829758,0.7039905786514282,-2.337198257446289,0.11274688690900803,0.7039906978607178,-2.337198257446289,-4.828480497376386e-12,-2.8374227880462177e-12,4.966431573042189e-16,4.011816052973405e-12,-2.776783577379538e-12,4.974029987974652e-16,7.729057671657102e-11,3.0919579396826435e-11,1.2966958033038857e-14,-7.818820590976827e-11,3.1025779168025736e-11,1.3049995213957038e-14,0.0,0.0,0.0,0.0,0.0,0.0,0.0,0.0,0.0,0.0,0.0,0.0
1.1830616781366432e-12,2.4748248589334665e-11,6.176578481531872e-14,3.118592576356605e-05,-3.5925040720030665e-11,1.0,0.031341552734375,-0.031982421875,-0.031982421875,-0.11258890479803085,0.9039967656135559,0.66280198097229,0.11258901655673981,0.9039967656135559,-2.33719801902771,-0.11274700611829758,0.7039905786514282,-2.337198257446289,0.11274688690900803,0.7039906978607178,-2.337198257446289,-4.8195596819011755e-12,-3.162307004797582e-12,4.669275474486435e-16,4.004520239714315e-12,-3.1021602387576452e-12,4.82062490968861e-16,7.683053498963588e-11,3.018031310975111e-11,1.2703226701614705e-14,-7.772501392500075e-11,3.0285367963456267e-11,1.270043657508645e-14,0.0,0.0,0.0,0.0,0.0,0.0,0.0,0.0,0.0,0.0,0.0,0.0
1.1806171274983401e-12,2.5055681487917703e-11,6.143090864555584e-14,3.118592576356605e-05,-3.5925040720030665e-11,1.0,0.031341552734375,-0.031982421875,-0.031982421875,-0.11258890479803085,0.9039967656135559,0.66280198097229,0.11258901655673981,0.9039967656135559,-2.33719801902771,-0.11274700611829758,0.7039905786514282,-2.337198257446289,0.11274688690900803,0.7039906978607178,-2.337198257446289,-4.81000265659115e-12,-3.4646758118733745e-12,4.1156131826070497e-16,3.9965838798117215e-12,-3.4049766044902396e-12,4.411471203171136e-16,7.63764815281398e-11,2.947138366682367e-11,1.2703861129292199e-14,-7.726785183903573e-11,2.957524503077735e-11,1.2694389606876001e-14,0.0,0.0,0.0,0.0,0.0,0.0,0.0,0.0,0.0,0.0,0.0,0.0
1.1781082836712087e-12,2.5342427809049717e-11,6.110117565984868e-14,3.118592212558724e-05,-3.637978807091713e-11,1.0,0.031341552734375,-0.031982421875,-0.031982421875,-0.11258890479803085,0.9039967656135559,0.66280198097229,0.11258901655673981,0.9039967656135559,-2.33719801902771,-0.11274700611829758,0.7039905786514282,-2.337198257446289,0.11274688690900803,0.7039906978607178,-2.337198257446289,-4.799870570448839e-12,-3.745976619173863e-12,3.3965597668423816e-16,3.988087204226387e-12,-3.686682903403238e-12,3.8391786863146884e-16,7.592818734858398e-11,2.8791356451729477e-11,1.2653109456191563e-14,-7.681644903501095e-11,2.889407116346554e-11,1.2658577900899037e-14,0.0,0.0,0.0,0.0,0.0,0.0,0.0,0.0,0.0,0.0,0.0,0.0
1.1757010295876391e-12,2.5609653286906564e-11,6.077699243401194e-14,3.118591848760843e-05,-3.5925040720030665e-11,1.0,0.031341552734375,-0.031982421875,-0.031982421875,-0.11258890479803085,0.9039967656135559,0.66280198097229,0.11258901655673981,0.9039967656135559,-2.33719801902771,-0.11274700611829758,0.7039905786514282,-2.337198257446289,0.11274688690900803,0.7039906978607178,-2.337198257446289,-4.789217633582865e-12,-4.007546464818157e-12,2.4731760638159667e-16,3.979055366448714e-12,-3.948611836807059e-12,3.0438795998029245e-16,7.548544428415127e-11,2.813898246356583e-11,1.250279329530592e-14,-7.637065285726052e-11,2.8240574809212937e-11,1.2533537203159462e-14,0.0,0.0,0.0,0.0,0.0,0.0,0.0,0.0,0.0,0.0,0.0,0.0
1.1725184625305252e-12,2.5858279059653988e-11,6.045110836601711e-14,3.118591848760843e-05,-3.5925040720030665e-11,1.0,0.031341552734375,-0.031982421875,-0.031982421875,-0.11258890479803085,0.9039967656135559,0.66280198097229,0.11258901655673981,0.9039967656135559,-2.33719801902771,-0.11274700611829758,0.7039905786514282,-2.337198257446289,0.11274688690900803,0.7039906978607178,-2.337198257446289,-4.778097622420985e-12,-4.250534386268656e-12,1.389064682674496e-16,3.969554285970789e-12,-4.192031704403076e-12,2.1571148516219871e-16,7.504806498470629e-11,2.7512997088918745e-11,1.2275197236444584e-14,-7.593022738339172e-11,2.7613479211541225e-11,1.233040345581483e-14,0.0,0.0,0.0,0.0,0.0,0.0,0.0,0.0,0.0,0.0,0.0,0.0
1.1703491908238162e-12,2.6088794319312214e-11,6.013294246223766e-14,3.1185914849629626e-05,-3.637978807091713e-11,1.0,0.031341552734375,-0.031982421875,-0.031982421875,-0.11258890479803085,0.9039967656135559,0.66280198097229,0.11258901655673981,0.9039967656135559,-2.33719801902771,-0.11274700611829758,0.7039905786514282,-2.337198257446289,0.11274688690900803,0.7039906978607178,-2.337198257446289,-4.7665218126657916e-12,-4.4762479313453785e-12,1.6065771517884596e-17,3.959592636409992e-12,-4.418081785834138e-12,1.0689306316676524e-16,7.461588985568923e-11,2.6912184286631557e-11,1.1960992058726496e-14,-7.549501995773866e-11,2.7011629044615404e-11,1.2036272111913722e-14,0.0,0.0,0.0,0.0,0.0,0.0,0.0,0.0,0.0,0.0,0.0,0.0
1.1676941965438337e-12,2.6302267655542444e-11,5.98197774409788e-14,3.1185914849629626e-05,-3.5925040720030665e-11,1.0,0.031341552734375,-0.031982421875,-0.031982421875,-0.11258890479803085,0.9039967656135559,0.66280198097229,0.11258901655673981,0.9039967656135559,-2.33719801902771,-0.11274700611829758,0.7039905786514282,-2.337198257446289,0.11274688690900803,0.7039906978607178,-2.337198257446289,-4.7545487512346e-12,-4.685735740389552e-12,-1.196601724050476e-16,3.949248046641873e-12,-4.627872737805738e-12,-1.1701405305835374e-17,7.418870379138909e-11,2.6335459854531784e-11,1.1566146803330957e-14,-7.506482241348422e-11,2.6433832553407477e-11,1.1665824793530895e-14,0.0,0.0,0.0,0.0,0.0,0.0,0.0,0.0,0.0,0.0,0.0,0.0
1.165106748059197e-12,2.6499467550844535e-11,5.951160652597695e-14,3.118591121165082e-05,-3.54702933691442e-11,1.0,0.031341552734375,-0.031982421875,-0.031982421875,-0.11258890479803085,0.9039967656135559,0.66280198097229,0.11258901655673981,0.9039967656135559,-2.33719801902771,-0.11274700611829758,0.7039905786514282,-2.337198257446289,0.11274688690900803,0.7039906978607178,-2.337198257446289,-4.742230479831688e-12,-4.8799935446763865e-12,-2.700582440236677e-16,3.9385443691142275e-12,-4.822376872826162e-12,-1.5351449112002588e-16,7.376634719724606e-11,2.578174305989389e-11,1.1535601101187072e-14,-7.463948903385642e-11,2.587905237327881e-11,1.1519108522671084e-14,0.0,0.0,0.0,0.0,0.0,0.0,0.0,0.0,0.0,0.0,0.0,0.0
1.1629459331294334e-12,2.6637355515779504e-11,5.927816424571367e-14,3.118591121165082e-05,-3.5925040720030665e-11,1.0,0.031341552734375,-0.031982421875,-0.031982421875,-0.11258890479803085,0.9039967656135559,0.66280198097229,0.11258901655673981,0.9039967656135559,-2.33719801902771,-0.11274700611829758,0.7039905786514282,-2.337198257446289,0.11274688690900803,0.7039906978607178,-2.337198257446289,-4.732737205609405e-12,-5.016222680287452e-12,-3.930067439137443e-16,3.930285350645102e-12,-4.958862747511672e-12,-2.62806239096852e-16,7.345268143721384e-11,2.538091785353469e-11,1.1552298661676296e-14,-7.432358894998714e-11,2.5477486439995367e-11,1.1543828332203753e-14,0.0,0.0,0.0,0.0,0.0,0.0,0.0,0.0,0.0,0.0,0.0,0.0
1.1604387156055607e-12,2.6807963834918347e-11,5.897185680319578e-14,3.118590757367201e-05,-3.54702933691442e-11,1.0,0.031341552734375,-0.031982421875,-0.031982421875,-0.11258890479803085,0.9039967656135559,0.66280198097229,0.11258901655673981,0.9039967656135559,-2.33719801902771,-0.11274700611829758,0.7039905786514282,-2.337198257446289,0.11274688690900803,0.7039906978607178,-2.337198257446289,-4.719837368161173e-12,-5.186109788141158e-12,-5.673533089223302e-16,3.919001841795611e-12,-5.129029579525879e-12,-4.23494953696334e-16,7.30384572267262e-11,2.4864948641734053e-11,1.1520175784184624e-14,-7.390640877069643e-11,2.4960566599729894e-11,1.1532301907857517e-14,0.0,0.0,0.0,0.0,0.0,0.0,0.0,0.0,0.0,0.0,0.0,0.0
1.1580217037024387e-12,2.6964324870148992e-11,5.866821920852763e-14,3.118590757367201e-05,-3.501554601825774e-11,1.0,0.031341552734375,-0.031982421875,-0.031982421875,-0.11258890479803085,0.9039967656135559,0.66280198097229,0.11258901655673981,0.9039967656135559,-2.33719801902771,-0.11274700611829758,0.7039905786514282,-2.337198257446289,0.11274688690900803,0.7039906978607178,-2.337198257446289,-4.706642194041155e-12,-5.343261857276849e-12,-5.430467455888024e-16,3.9074199605082516e-12,-5.286455301289905e-12,-5.925877968495751e-16,7.262865309165534e-11,2.436923406123892e-11,1.142205125240995e-14,-7.349367642239812e-11,2.446394302413335e-11,1.1456821107861791e-14,0.0,0.0,0.0,0.0,0.0,0.0,0.0,0.0,0.0,0.0,0.0,0.0
1.1554115953923971e-12,2.710691740515081e-11,5.837147985018193e-14,3.1185903935693204e-05,-3.54702933691442e-11,1.0,0.031341552734375,-0.031982421875,-0.031982421875,-0.11258890479803085,0.9039967656135559,0.66280198097229,0.11258901655673981,0.9039967656135559,-2.33719801902771,-0.11274700611829758,0.7039905786514282,-2.337198257446289,0.11274688690900803,0.7039906978607178,-2.337198257446289,-4.69320025550668e-12,-5.488542779985561e-12,-5.466017958079879e-16,3.895586544316876e-12,-5.431946125539211e-12,-5.071067670598881e-16,7.22231371930171e-11,2.3892877260012213e-11,1.1258385852275579e-14,-7.308526700500195e-11,2.398665120695309e-11,1.1311516840925052e-14,0.0,0.0,0.0,0.0,0.0,0.0,0.0,0.0,0.0,0.0,0.0,0.0
1.1526847185083788e-12,2.7236773600392006e-11,5.807379859119888e-14,3.1185903935693204e-05,-3.501554601825774e-11,1.0,0.031341552734375,-0.031982421875,-0.031982421875,-0.11258890479803085,0.9039967656135559,0.66280198097229,0.11258901655673981,0.9039967656135559,-2.33719801902771,-0.11274700611829758,0.7039905786514282,-2.337198257446289,0.11274688690900803,0.7039906978607178,-2.337198257446289,-4.679510685196009e-12,-5.6226277973803196e-12,-5.834216298108627e-16,3.883525011988409e-12,-5.566274004220606e-12,-5.593889228170941e-16,7.182177769182729e-11,2.3435029958274178e-11,1.1022926786564882e-14,-7.268099316837251e-11,2.3527938278200544e-11,1.1095795336951274e-14,0.0,0.0,0.0,0.0,0.0,0.0,0.0,0.0,0.0,0.0,0.0,0.0
1.149612089551555e-12,2.7354020090686326e-11,5.777730995460556e-14,3.11859002977144e-05,-3.456079866737127e-11,1.0,0.031341552734375,-0.031982421875,-0.031982421875,-0.11258890479803085,0.9039967656135559,0.66280198097229,0.11258901655673981,0.9039967656135559,-2.33719801902771,-0.11274700611829758,0.7039905786514282,-2.337198257446289,0.11274688690900803,0.7039906978607178,-2.337198257446289,-4.6656211880047316e-12,-5.746225977681929e-12,-5.286305095243303e-16,3.871246639225445e-12,-5.690152776044455e-12,-5.799122134917106e-16,7.142446356578347e-11,2.29948195901164e-11,1.0726213686240542e-14,-7.228080634025247e-11,2.308686401775173e-11,1.0823311614083144e-14,0.0,0.0,0.0,0.0,0.0,0.0,0.0,0.0,0.0,0.0,0.0,0.0
1.1475516717429635e-12,2.745971852680107e-11,5.748915612221323e-14,3.118589665973559e-05,-3.54702933691442e-11,1.0,0.031341552734375,-0.031982421875,-0.031982421875,-0.11258890479803085,0.9039967656135559,0.66280198097229,0.11258901655673981,0.9039967656135559,-2.33719801902771,-0.11274700611829758,0.7039905786514282,-2.337198257446289,0.11274688690900803,0.7039906978607178,-2.337198257446289,-4.651537401784145e-12,-5.860099298177213e-12,-5.740994498911779e-16,3.85879219202967e-12,-5.80420650778124e-12,-5.296256673582357e-16,7.103103522032583e-11,2.2571455121633832e-11,1.0432530422768531e-14,-7.188451917050642e-11,2.2662710250087592e-11,1.0477671349626554e-14,0.0,0.0,0.0,0.0,0.0,0.0,0.0,0.0,0.0,0.0,0.0,0.0
1.1452597767705464e-12,2.7554066667212496e-11,5.720571179300762e-14,3.118589665973559e-05,-3.501554601825774e-11,1.0,0.031341552734375,-0.031982421875,-0.031982421875,-0.11258890479803085,0.9039967656135559,0.66280198097229,0.11258901655673981,0.9039967656135559,-2.33719801902771,-0.11274700611829758,0.7039905786514282,-2.337198257446289,0.11274688690900803,0.7039906978607178,-2.337198257446289,-4.637292286280292e-12,-5.964780318973295e-12,-5.351392695097099e-16,3.846150828379358e-12,-5.9090232706893175e-12,-5.678251592135101e-16,7.064142326651535e-11,2.2164284296799508e-11,1.0516960125851998e-14,-7.149208308687705e-11,2.2254691145473515e-11,1.0514912000185537e-14,0.0,0.0,0.0,0.0,0.0,0.0,0.0,0.0,0.0,0.0,0.0,0.0
1.142591338383625e-12,2.763777401382228e-11,5.692411738375883e-14,3.118589302175678e-05,-3.456079866737127e-11,1.0,0.031341552734375,-0.031982421875,-0.031982421875,-0.11258890479803085,0.9039967656135559,0.66280198097229,0.11258901655673981,0.9039967656135559,-2.33719801902771,-0.11274700611829758,0.7039905786514282,-2.337198257446289,0.11274688690900803,0.7039906978607178,-2.337198257446289,-4.622885407812305e-12,-6.060907418309336e-12,-5.229443244098529e-16,3.83336548268054e-12,-6.0052874131799605e-12,-5.577647900802932e-16,7.025548892647393e-11,2.1772484856685814e-11,1.0484754239131495e-14,-7.110333849480455e-11,2.186208158949654e-11,1.0497170895105296e-14,0.0,0.0,0.0,0.0,0.0,0.0,0.0,0.0,0.0,0.0,0.0,0.0
1.1395693416682562e-12,2.7711352310055837e-11,5.664390194414816e-14,3.1185889383777976e-05,-3.501554601825774e-11,1.0,0.031341552734375,-0.031982421875,-0.031982421875,-0.11258890479803085,0.9039967656135559,0.66280198097229,0.11258901655673981,0.9039967656135559,-2.33719801902771,-0.11274700611829758,0.7039905786514282,-2.337198257446289,0.11274688690900803,0.7039906978607178,-2.337198257446289,-4.608341052508846e-12,-6.1488986645430455e-12,-5.617979374586445e-16,3.820424445549753e-12,-6.093436085569115e-12,-5.645835111848087e-16,6.987316281126255e-11,2.139542362722402e-11,1.0507018500150074e-14,-7.071821600534989e-11,2.1484224121959272e-11,1.0544712313335838e-14,0.0,0.0,0.0,0.0,0.0,0.0,0.0,0.0,0.0,0.0,0.0,0.0
1.1364522604223604e-12,2.777524391039954e-11,5.636561096339365e-14,3.1185889383777976e-05,-3.456079866737127e-11,1.0,0.031341552734375,-0.031982421875,-0.031982421875,-0.11258890479803085,0.9039967656135559,0.66280198097229,0.11258901655673981,0.9039967656135559,-2.33719801902771,-0.11274700611829758,0.7039905786514282,-2.337198257446289,0.11274688690900803,0.7039906978607178,-2.337198257446289,-4.593665291902083e-12,-6.229344731017994e-12,-5.56284017669815e-16,3.807379325010407e-12,-6.174040011880377e-12,-5.332403804606434e-16,6.949432695968483e-11,2.1032444882940204e-11,1.0489868624067016e-14,-7.03365837795289e-11,2.1120445670153032e-11,1.0420219645913137e-14,0.0,0.0,0.0,0.0,0.0,0.0,0.0,0.0,0.0,0.0,0.0,0.0
1.1340342727372832e-12,2.783000739581265e-11,5.609244283790414e-14,3.118588574579917e-05,-3.410605131648481e-11,1.0,0.031341552734375,-0.031982421875,-0.031982421875,-0.11258890479803085,0.9039967656135559,0.66280198097229,0.11258901655673981,0.9039967656135559,-2.33719801902771,-0.11274700611829758,0.7039905786514282,-2.337198257446289,0.11274688690900803,0.7039906978607178,-2.337198257446289,-4.578894988865878e-12,-6.302764733734367e-12,-5.858790312095251e-16,3.794219712721647e-12,-6.247560194877488e-12,-5.23952664194e-16,6.911888422722612e-11,2.0682905041424782e-11,1.0419479339117237e-14,-6.995837242840253e-11,2.077015122392556e-11,1.0350709581162607e-14,0.0,0.0,0.0,0.0,0.0,0.0,0.0,0.0,0.0,0.0,0.0,0.0
1.1313926141440223e-12,2.787579889140801e-11,5.5821195783139e-14,3.118588210782036e-05,-3.410605131648481e-11,1.0,0.031341552734375,-0.031982421875,-0.031982421875,-0.11258890479803085,0.9039967656135559,0.66280198097229,0.11258901655673981,0.9039967656135559,-2.33719801902771,-0.11274700611829758,0.7039905786514282,-2.337198257446289,0.11274688690900803,0.7039906978607178,-2.337198257446289,-4.564021903463722e-12,-6.369572837922055e-12,-5.563074698945421e-16,3.780965558003446e-12,-6.31447455087808e-12,-5.621113925886878e-16,6.874673746937177e-11,2.0346184806396828e-11,1.0300422082117067e-14,-6.958347092966832e-11,2.0432690261973363e-11,1.0250326859550553e-14,0.0,0.0,0.0,0.0,0.0,0.0,0.0,0.0,0.0,0.0,0.0,0.0
1.1287982267654817e-12,2.7913355654662908e-11,5.555134802680273e-14,3.118588210782036e-05,-3.456079866737127e-11,1.0,0.031341552734375,-0.031982421875,-0.031982421875,-0.11258890479803085,0.9039967656135559,0.66280198097229,0.11258901655673981,0.9039967656135559,-2.33719801902771,-0.11274700611829758,0.7039905786514282,-2.337198257446289,0.11274688690900803,0.7039906978607178,-2.337198257446289,-4.549074658632968e-12,-6.430171933108353e-12,-5.423755249176626e-16,3.767619462941019e-12,-6.375179464196412e-12,-5.562408189895051e-16,6.837781729718273e-11,2.0021751617749217e-11,1.0123930062062424e-14,-6.921181683328115e-11,2.0107554510317982e-11,1.0093105686078893e-14,0.0,0.0,0.0,0.0,0.0,0.0,0.0,0.0,0.0,0.0,0.0,0.0
1.1259118637418908e-12,2.7943000344143876e-11,5.528424126908377e-14,3.1185878469841555e-05,-3.410605131648481e-11,1.0,0.031341552734375,-0.031982421875,-0.031982421875,-0.11258890479803085,0.9039967656135559,0.66280198097229,0.11258901655673981,0.9039967656135559,-2.33719801902771,-0.11274700611829758,0.7039905786514282,-2.337198257446289,0.11274688690900803,0.7039906978607178,-2.337198257446289,-4.5340562901396986e-12,-6.484974449799674e-12,-5.234623909362174e-16,3.754211785195194e-12,-6.430083462211078e-12,-5.833557200596545e-16,6.801203350503826e-11,1.9709060772310494e-11,9.898771764023286e-15,-6.884331299472635e-11,1.9794148958807156e-11,9.890024454776991e-15,0.0,0.0,0.0,0.0,0.0,0.0,0.0,0.0,0.0,0.0,0.0,0.0
1.1233647475780706e-12,2.796478673627867e-11,5.5016514483247417e-14,3.1185878469841555e-05,-3.3651303965598345e-11,1.0,0.031341552734375,-0.031982421875,-0.031982421875,-0.11258890479803085,0.9039967656135559,0.66280198097229,0.11258901655673981,0.9039967656135559,-2.33719801902771,-0.11274700611829758,0.7039905786514282,-2.337198257446289,0.11274688690900803,0.7039906978607178,-2.337198257446289,-4.518985012580412e-12,-6.5343125875416685e-12,-5.9560005776824825e-16,3.740750331021614e-12,-6.4795642809589715e-12,-5.46951620415204e-16,6.76492889484237e-11,1.9407522464098825e-11,9.640851925650246e-15,-6.847785533059536e-11,1.9491982680697184e-11,9.647793360652995e-15,0.0,0.0,0.0,0.0,0.0,0.0,0.0,0.0,0.0,0.0,0.0,0.0
1.120495948629674e-12,2.7979535355271423e-11,5.475379874432702e-14,3.118587483186275e-05,-3.410605131648481e-11,1.0,0.031341552734375,-0.031982421875,-0.031982421875,-0.11258890479803085,0.9039967656135559,0.66280198097229,0.11258901655673981,0.9039967656135559,-2.33719801902771,-0.11274700611829758,0.7039905786514282,-2.337198257446289,0.11274688690900803,0.7039906978607178,-2.337198257446289,-4.50386429540206e-12,-6.578612654628557e-12,-5.824229779660499e-16,3.727233799377672e-12,-6.523971900901371e-12,-5.412477005483935e-16,6.728952811618782e-11,1.9116748115055593e-11,9.382478077617478e-15,-6.811542302420648e-11,1.9200552606180032e-11,9.413160999098818e-15,0.0,0.0,0.0,0.0,0.0,0.0,0.0,0.0,0.0,0.0,0.0,0.0
1.117709874307038e-12,2.798760355415819e-11,5.44947625165295e-14,3.118587483186275e-05,-3.410605131648481e-11,1.0,0.031341552734375,-0.031982421875,-0.031982421875,-0.11258890479803085,0.9039967656135559,0.66280198097229,0.11258901655673981,0.9039967656135559,-2.33719801902771,-0.11274700611829758,0.7039905786514282,-2.337198257446289,0.11274688690900803,0.7039906978607178,-2.337198257446289,-4.488689368115084e-12,-6.6181465689652e-12,-5.59827738823331e-16,3.713674767008568e-12,-6.563577372581397e-12,-5.064017180104173e-16,6.69326954971794e-11,1.883626241094838e-11,9.417662979213474e-15,-6.775590505325724e-11,1.8919390359917188e-11,9.446315562720246e-15,0.0,0.0,0.0,0.0,0.0,0.0,0.0,0.0,0.0,0.0,0.0,0.0
1.1146862512884104e-12,2.798898439404507e-11,5.4232710851439755e-14,3.1185867555905133e-05,-3.410605131648481e-11,1.0,0.031341552734375,-0.031982421875,-0.031982421875,-0.11258890479803085,0.9039967656135559,0.66280198097229,0.11258901655673981,0.9039967656135559,-2.33719801902771,-0.11274700611829758,0.7039905786514282,-2.337198257446289,0.11274688690900803,0.7039906978607178,-2.337198257446289,-4.4734801800394575e-12,-6.653155023433888e-12,-5.557392696056121e-16,3.70008320857429e-12,-6.598738482715971e-12,-5.2441228544700385e-16,6.657870782467157e-11,1.856553626111701e-11,9.428316112591092e-15,-6.73992389677025e-11,1.8648022362399708e-11,9.413938575344397e-15,0.0,0.0,0.0,0.0,0.0,0.0,0.0,0.0,0.0,0.0,0.0,0.0
1.1119651206759062e-12,2.7984354417087687e-11,5.397534497261422e-14,3.1185867555905133e-05,-3.456079866737127e-11,1.0,0.031341552734375,-0.031982421875,-0.031982421875,-0.11258890479803085,0.9039967656135559,0.66280198097229,0.11258901655673981,0.9039967656135559,-2.33719801902771,-0.11274700611829758,0.7039905786514282,-2.337198257446289,0.11274688690900803,0.7039906978607178,-2.337198257446289,-4.45824106798387e-12,-6.684027029774109e-12,-5.751842343988147e-16,3.686446981010505e-12,-6.629713705103013e-12,-5.678424704493696e-16,6.62274887708314e-11,1.8304203638908056e-11,9.40574099048087e-15,-6.704537619528494e-11,1.838607044390983e-11,9.407079302537532e-15,0.0,0.0,0.0,0.0,0.0,0.0,0.0,0.0,0.0,0.0,0.0,0.0
1.1103696087588766e-12,2.797687602418275e-11,5.378745273612248e-14,3.1185863917926326e-05,-3.410605131648481e-11,1.0,0.031341552734375,-0.031982421875,-0.031982421875,-0.11258890479803085,0.9039967656135559,0.66280198097229,0.11258901655673981,0.9039967656135559,-2.33719801902771,-0.11274700611829758,0.7039905786514282,-2.337198257446289,0.11274688690900803,0.7039906978607178,-2.337198257446289,-4.446804903468493e-12,-6.704653759265211e-12,-5.758437554273705e-16,3.676206474650945e-12,-6.650352577658447e-12,-5.269991770074777e-16,6.596585777618458e-11,1.8114079680664474e-11,9.390509644023343e-15,-6.678179537145112e-11,1.8195511070073778e-11,9.420059235421257e-15,0.0,0.0,0.0,0.0,0.0,0.0,0.0,0.0,0.0,0.0,0.0,0.0
1.107593292255793e-12,2.7961979953694538e-11,5.353485734685588e-14,3.1185863917926326e-05,-3.3651303965598345e-11,1.0,0.031341552734375,-0.031982421875,-0.031982421875,-0.11258890479803085,0.9039967656135559,0.66280198097229,0.11258901655673981,0.9039967656135559,-2.33719801902771,-0.11274700611829758,0.7039905786514282,-2.337198257446289,0.11274688690900803,0.7039906978607178,-2.337198257446289,-4.431539336879897e-12,-6.7288618253724675e-12,-5.585752947316971e-16,3.662558971384566e-12,-6.674661691408179e-12,-5.103707555825733e-16,6.561934329241126e-11,1.786812364734658e-11,9.374288116050476e-15,-6.643265104688822e-11,1.7948980843285334e-11,9.380075892179065e-15,0.0,0.0,0.0,0.0,0.0,0.0,0.0,0.0,0.0,0.0,0.0,0.0
1.104843430285718e-12,2.7941707975154273e-11,5.328544002520738e-14,3.118586027994752e-05,-3.410605131648481e-11,1.0,0.031341552734375,-0.031982421875,-0.031982421875,-0.11258890479803085,0.9039967656135559,0.66280198097229,0.11258901655673981,0.9039967656135559,-2.33719801902771,-0.11274700611829758,0.7039905786514282,-2.337198257446289,0.11274688690900803,0.7039906978607178,-2.337198257446289,-4.4162620609078385e-12,-6.749629501145993e-12,-5.651450940288383e-16,3.648881977819096e-12,-6.695480975205115e-12,-5.925596330040789e-16,6.527545171053362e-11,1.763046479641428e-11,9.381210069295438e-15,-6.608615737979662e-11,1.7710726982200775e-11,9.375267286137502e-15,0.0,0.0,0.0,0.0,0.0,0.0,0.0,0.0,0.0,0.0,0.0,0.0
1.101829239825991e-12,2.791618325392875e-11,5.30383910076794e-14,3.118586027994752e-05,-3.3651303965598345e-11,1.0,0.031341552734375,-0.031982421875,-0.031982421875,-0.11258890479803085,0.9039967656135559,0.66280198097229,0.11258901655673981,0.9039967656135559,-2.33719801902771,-0.11274700611829758,0.7039905786514282,-2.337198257446289,0.11274688690900803,0.7039906978607178,-2.337198257446289,-4.400988254382732e-12,-6.7670808193143195e-12,-5.540021638494712e-16,3.635222331488386e-12,-6.7130051517594325e-12,-5.385427008313369e-16,6.493410670271871e-11,1.7400716284532436e-11,9.356769780635363e-15,-6.574221028676774e-11,1.7480385194890147e-11,9.369227941223579e-15,0.0,0.0,0.0,0.0,0.0,0.0,0.0,0.0,0.0,0.0,0.0,0.0
1.0988286018934201e-12,2.78861257002605e-11,5.2788753457464616e-14,3.118585664196871e-05,-3.319655661471188e-11,1.0,0.031341552734375,-0.031982421875,-0.031982421875,-0.11258890479803085,0.9039967656135559,0.66280198097229,0.11258901655673981,0.9039967656135559,-2.33719801902771,-0.11274700611829758,0.7039905786514282,-2.337198257446289,0.11274688690900803,0.7039906978607178,-2.337198257446289,-4.385715315219363e-12,-6.7815171880813985e-12,-5.469500851679871e-16,3.621562468317241e-12,-6.72756728797852e-12,-5.126088813270152e-16,6.45952527578153e-11,1.7178553718411038e-11,9.294786450654135e-15,-6.540076813443818e-11,1.7257681395044244e-11,9.326484117606285e-15,0.0,0.0,0.0,0.0,0.0,0.0,0.0,0.0,0.0,0.0,0.0,0.0
1.0965621856720564e-12,2.7851028774894537e-11,5.254742021826471e-14,3.118585664196871e-05,-3.319655661471188e-11,1.0,0.031341552734375,-0.031982421875,-0.031982421875,-0.11258890479803085,0.9039967656135559,0.66280198097229,0.11258901655673981,0.9039967656135559,-2.33719801902771,-0.11274700611829758,0.7039905786514282,-2.337198257446289,0.11274688690900803,0.7039906978607178,-2.337198257446289,-4.370434569800352e-12,-6.793089962070509e-12,-5.356915349913197e-16,3.6078813547835153e-12,-6.739160011287604e-12,-5.462874407054382e-16,6.425886905914169e-11,1.696359198943842e-11,9.19477388244003e-15,-6.506183786170183e-11,1.7042194044858405e-11,9.243529098883988e-15,0.0,0.0,0.0,0.0,0.0,0.0,0.0,0.0,0.0,0.0,0.0,0.0
1.094165014668691e-12,2.7811813615996606e-11,5.230791657023087e-14,3.1185853003989905e-05,-3.3651303965598345e-11,1.0,0.031341552734375,-0.031982421875,-0.031982421875,-0.11258890479803085,0.9039967656135559,0.66280198097229,0.11258901655673981,0.9039967656135559,-2.33719801902771,-0.11274700611829758,0.7039905786514282,-2.337198257446289,0.11274688690900803,0.7039906978607178,-2.337198257446289,-4.355196758787372e-12,-6.802063686611737e-12,-5.582084235864176e-16,3.594243609336689e-12,-6.7481606240427094e-12,-5.233702231636442e-16,6.392485846218321e-11,1.6755574358540137e-11,9.060944370839746e-15,-6.472528069068062e-11,1.68336507927469e-11,9.124208414637222e-15,0.0,0.0,0.0,0.0,0.0,0.0,0.0,0.0,0.0,0.0,0.0,0.0
1.0913583405047778e-12,2.776874563625853e-11,5.206891097757002e-14,3.1185853003989905e-05,-3.319655661471188e-11,1.0,0.031341552734375,-0.031982421875,-0.031982421875,-0.11258890479803085,0.9039967656135559,0.66280198097229,0.11258901655673981,0.9039967656135559,-2.33719801902771,-0.11274700611829758,0.7039905786514282,-2.337198257446289,0.11274688690900803,0.7039906978607178,-2.337198257446289,-4.339959381455261e-12,-6.808525965240619e-12,-5.457714388218827e-16,3.580604996528125e-12,-6.7546641023541465e-12,-5.719333219472527e-16,6.359321402804596e-11,1.6554214596342653e-11,8.880446731977538e-15,-6.439110356026845e-11,1.6631765409336197e-11,8.96361605003549e-15,0.0,0.0,0.0,0.0,0.0,0.0,0.0,0.0,0.0,0.0,0.0,0.0
1.08842535678777e-12,2.7721309622807944e-11,5.1834465810297187e-14,3.11858493660111e-05,-3.2741809263825417e-11,1.0,0.031341552734375,-0.031982421875,-0.031982421875,-0.11258890479803085,0.9039967656135559,0.66280198097229,0.11258901655673981,0.9039967656135559,-2.33719801902771,-0.11274700611829758,0.7039905786514282,-2.337198257446289,0.11274688690900803,0.7039906978607178,-2.337198257446289,-4.324729376697922e-12,-6.812609504303069e-12,-5.456013969577214e-16,3.5669798278264997e-12,-6.7587545803105e-12,-5.556081383174653e-16,6.326388718447262e-11,1.6359217799855053e-11,8.669791332061288e-15,-6.405925789820799e-11,1.643620135827195e-11,8.774205083469325e-15,0.0,0.0,0.0,0.0,0.0,0.0,0.0,0.0,0.0,0.0,0.0,0.0
1.0856627012320597e-12,2.7670291405379466e-11,5.159992238720247e-14,3.11858493660111e-05,-3.319655661471188e-11,1.0,0.031341552734375,-0.031982421875,-0.031982421875,-0.11258890479803085,0.9039967656135559,0.66280198097229,0.11258901655673981,0.9039967656135559,-2.33719801902771,-0.11274700611829758,0.7039905786514282,-2.337198257446289,0.11274688690900803,0.7039906978607178,-2.337198257446289,-4.3095245254309855e-12,-6.814550226191818e-12,-5.340755020070769e-16,3.5533726568809376e-12,-6.760735200839196e-12,-5.641136196573194e-16,6.293682935920586e-11,1.6170256106340375e-11,8.4298404506313e-15,-6.372968819334801e-11,1.6246717512991005e-11,8.550942445166142e-15,0.0,0.0,0.0,0.0,0.0,0.0,0.0,0.0,0.0,0.0,0.0,0.0
1.0833194150766667e-12,2.7615664963120956e-11,5.1369932613232194e-14,3.118584572803229e-05,-3.2741809263825417e-11,1.0,0.031341552734375,-0.031982421875,-0.031982421875,-0.11258890479803085,0.9039967656135559,0.66280198097229,0.11258901655673981,0.9039967656135559,-2.33719801902771,-0.11274700611829758,0.7039905786514282,-2.337198257446289,0.11274688690900803,0.7039906978607178,-2.337198257446289,-4.2943439602927125e-12,-6.814435300761534e-12,-5.959596761939169e-16,3.5397904225853427e-12,-6.760603795535891e-12,-5.452158381480431e-16,6.261199197998835e-11,1.5987091858682412e-11,8.333854677048443e-15,-6.3402359751219e-11,1.6063072746930196e-11,8.291768150998219e-15,0.0,0.0,0.0,0.0,0.0,0.0,0.0,0.0,0.0,0.0,0.0,0.0
1.0805157766788365e-12,2.7557775506004134e-11,5.1140640794410455e-14,3.1185842090053484e-05,-3.2741809263825417e-11,1.0,0.031341552734375,-0.031982421875,-0.031982421875,-0.11258890479803085,0.9039967656135559,0.66280198097229,0.11258901655673981,0.9039967656135559,-2.33719801902771,-0.11274700611829758,0.7039905786514282,-2.337198257446289,0.11274688690900803,0.7039906978607178,-2.337198257446289,-4.279182477112675e-12,-6.812433863551126e-12,-5.9354722048101825e-16,3.526231390216239e-12,-6.7586283791776225e-12,-5.306417363180264e-16,6.228934035235056e-11,1.5809487399764954e-11,8.325131084724671e-15,-6.307723787735142e-11,1.5884956544587325e-11,8.33407490561473e-15,0.0,0.0,0.0,0.0,0.0,0.0,0.0,0.0,0.0,0.0,0.0,0.0
1.077396635448813e-12,2.7496732321607986e-11,5.0909224616957e-14,3.118583845207468e-05,-3.319655661471188e-11,1.0,0.031341552734375,-0.031982421875,-0.031982421875,-0.11258890479803085,0.9039967656135559,0.66280198097229,0.11258901655673981,0.9039967656135559,-2.33719801902771,-0.11274700611829758,0.7039905786514282,-2.337198257446289,0.11274688690900803,0.7039906978607178,-2.337198257446289,-4.2640487495082535e-12,-6.808628747606571e-12,-5.788565986811949e-16,3.5127055344336133e-12,-6.754875738618216e-12,-5.246006973382087e-16,6.196883978182299e-11,1.5637203337748318e-11,8.28308352219002e-15,-6.275424624391235e-11,1.571219716833827e-11,8.340525908541018e-15,0.0,0.0,0.0,0.0,0.0,0.0,0.0,0.0,0.0,0.0,0.0,0.0
1.074750640046862e-12,2.7432832047646905e-11,5.068459486747695e-14,3.118583845207468e-05,-3.2741809263825417e-11,1.0,0.031341552734375,-0.031982421875,-0.031982421875,-0.11258890479803085,0.9039967656135559,0.66280198097229,0.11258901655673981,0.9039967656135559,-2.33719801902771,-0.11274700611829758,0.7039905786514282,-2.337198257446289,0.11274688690900803,0.7039906978607178,-2.337198257446289,-4.248958389990731e-12,-6.803189955828515e-12,-5.723333332565935e-16,3.499204181620086e-12,-6.7494282732227795e-12,-5.725933194318414e-16,6.16504416961483e-11,1.5470045383603193e-11,8.326053503604231e-15,-6.243339872868958e-11,1.554453267493816e-11,8.34894118087199e-15,0.0,0.0,0.0,0.0,0.0,0.0,0.0,0.0,0.0,0.0,0.0,0.0
1.0719438574627316e-12,2.736593243679586e-11,5.045878943626611e-14,3.118583481409587e-05,-3.228706191293895e-11,1.0,0.031341552734375,-0.031982421875,-0.031982421875,-0.11258890479803085,0.9039967656135559,0.66280198097229,0.11258901655673981,0.9039967656135559,-2.33719801902771,-0.11274700611829758,0.7039905786514282,-2.337198257446289,0.11274688690900803,0.7039906978607178,-2.337198257446289,-4.233893183963611e-12,-6.7961760351342715e-12,-5.662363371626978e-16,3.485744028489113e-12,-6.742463792147602e-12,-5.53780876492001e-16,6.13341322175387e-11,1.53077377162969e-11,8.337164034773366e-15,-6.21146536983197e-11,1.538177051008116e-11,8.282754873406486e-15,0.0,0.0,0.0,0.0,0.0,0.0,0.0,0.0,0.0,0.0,0.0,0.0
1.0695695631252056e-12,2.7296314514257958e-11,5.023556914961029e-14,3.118583481409587e-05,-3.183231456205249e-11,1.0,0.031341552734375,-0.031982421875,-0.031982421875,-0.11258890479803085,0.9039967656135559,0.66280198097229,0.11258901655673981,0.9039967656135559,-2.33719801902771,-0.11274700611829758,0.7039905786514282,-2.337198257446289,0.11274688690900803,0.7039906978607178,-2.337198257446289,-4.218866141852962e-12,-6.787744845360155e-12,-5.688198405913827e-16,3.472302740475941e-12,-6.734038240224782e-12,-5.404694890281036e-16,6.101984889594902e-11,1.515007563845927e-11,8.328196496960785e-15,-6.179794176386366e-11,1.5223664343033683e-11,8.293620612053864e-15,0.0,0.0,0.0,0.0,0.0,0.0,0.0,0.0,0.0,0.0,0.0,0.0
1.066766683668896e-12,2.7224261039959785e-11,5.0015022098936004e-14,3.118583117611706e-05,-3.228706191293895e-11,1.0,0.031341552734375,-0.031982421875,-0.031982421875,-0.11258890479803085,0.9039967656135559,0.66280198097229,0.11258901655673981,0.9039967656135559,-2.33719801902771,-0.11274700611829758,0.7039905786514282,-2.337198257446289,0.11274688690900803,0.7039906978607178,-2.337198257446289,-4.203879432063129e-12,-6.777945826125231e-12,-5.60776203966019e-16,3.4589065552731446e-12,-6.724234450500299e-12,-5.167626779607911e-16,6.07075917313793e-11,1.499689955553052e-11,8.297660959212267e-15,-6.148326292532147e-11,1.5070028558383797e-11,8.28198237935859e-15,0.0,0.0,0.0,0.0,0.0,0.0,0.0,0.0,0.0,0.0,0.0,0.0
1.063940927546747e-12,2.714961762351198e-11,4.9793448444329647e-14,3.1185827538138255e-05,-3.228706191293895e-11,1.0,0.031341552734375,-0.031982421875,-0.031982421875,-0.11258890479803085,0.9039967656135559,0.66280198097229,0.11258901655673981,0.9039967656135559,-2.33719801902771,-0.11274700611829758,0.7039905786514282,-2.337198257446289,0.11274688690900803,0.7039906978607178,-2.337198257446289,-4.18893001882803e-12,-6.766873086178071e-12,-5.479701245947181e-16,3.4455476666250817e-12,-6.713191200852231e-12,-5.467560087439474e-16,6.039729133489047e-11,1.4847989157629193e-11,8.268689891317328e-15,-6.117056167154189e-11,1.4920677540719574e-11,8.277565102538659e-15,0.0,0.0,0.0,0.0,0.0,0.0,0.0,0.0,0.0,0.0,0.0,0.0
1.0603903822722915e-12,2.705337343034131e-11,4.952219461330093e-14,3.1185827538138255e-05,-3.183231456205249e-11,1.0,0.031341552734375,-0.031982421875,-0.031982421875,-0.11258890479803085,0.9039967656135559,0.66280198097229,0.11258901655673981,0.9039967656135559,-2.33719801902771,-0.11274700611829758,0.7039905786514282,-2.337198257446289,0.11274688690900803,0.7039906978607178,-2.337198257446289,-4.170286078269969e-12,-6.751421904177546e-12,-5.883406677729237e-16,3.4289034285539532e-12,-6.697762570256893e-12,-5.32463863006248e-16,6.001218272322362e-11,1.4667612610597125e-11,8.299991993883111e-15,-6.078245545770855e-11,1.4739726800216957e-11,8.29573480629021e-15,0.0,0.0,0.0,0.0,0.0,0.0,0.0,0.0,0.0,0.0,0.0,0.0
1.0578750332321252e-12,2.6974138200852593e-11,4.9302708047876606e-14,3.118582390015945e-05,-3.228706191293895e-11,1.0,0.031341552734375,-0.031982421875,-0.031982421875,-0.11258890479803085,0.9039967656135559,0.66280198097229,0.11258901655673981,0.9039967656135559,-2.33719801902771,-0.11274700611829758,0.7039905786514282,-2.337198257446289,0.11274688690900803,0.7039906978607178,-2.337198257446289,-4.15540995710173e-12,-6.737853330829324e-12,-5.733728015015521e-16,3.415620650898399e-12,-6.68423779867644e-12,-5.445349824771282e-16,5.970623301321254e-11,1.4527668130981386e-11,8.323683505417814e-15,-6.047410489040672e-11,1.459939807935129e-11,8.262022047956542e-15,0.0,0.0,0.0,0.0,0.0,0.0,0.0,0.0,0.0,0.0,0.0,0.0
1.0560399126349762e-12,2.691316267067201e-11,4.913891559280015e-14,3.118582390015945e-05,-3.228706191293895e-11,1.0,0.031341552734375,-0.031982421875,-0.031982421875,-0.11258890479803085,0.9039967656135559,0.66280198097229,0.11258901655673981,0.9039967656135559,-2.33719801902771,-0.11274700611829758,0.7039905786514282,-2.337198257446289,0.11274688690900803,0.7039906978607178,-2.337198257446289,-4.1443042574085265e-12,-6.727007405976648e-12,-5.213709077707689e-16,3.4056958642114665e-12,-6.673446517613257e-12,-5.497023069718531e-16,5.947802667050084e-11,1.4425129493678135e-11,8.322700100166051e-15,-6.024411525196172e-11,1.4496619182846615e-11,8.205928138057574e-15,0.0,0.0,0.0,0.0,0.0,0.0,0.0,0.0,0.0,0.0,0.0,0.0
1.0534854238963831e-12,2.683046146367829e-11,4.892915974187388e-14,3.118582026218064e-05,-3.183231456205249e-11,1.0,0.031341552734375,-0.031982421875,-0.031982421875,-0.11258890479803085,0.9039967656135559,0.66280198097229,0.11258901655673981,0.9039967656135559,-2.33719801902771,-0.11274700611829758,0.7039905786514282,-2.337198257446289,0.11274688690900803,0.7039906978607178,-2.337198257446289,-4.12951313769061e-12,-6.7117990852627596e-12,-5.45008897411117e-16,3.3925026416553594e-12,-6.658215211813312e-12,-5.309017224932743e-16,5.91753521184124e-11,1.429161650134958e-11,8.291791867920742e-15,-5.993910229262767e-11,1.4362658631861258e-11,8.18900526680438e-15,0.0,0.0,0.0,0.0,0.0,0.0,0.0,0.0,0.0,0.0,0.0,0.0
1.0506895917541947e-12,2.6745761855240247e-11,4.8717509925277555e-14,3.1185816624201834e-05,-3.228706191293895e-11,1.0,0.031341552734375,-0.031982421875,-0.031982421875,-0.11258890479803085,0.9039967656135559,0.66280198097229,0.11258901655673981,0.9039967656135559,-2.33719801902771,-0.11274700611829758,0.7039905786514282,-2.337198257446289,0.11274688690900803,0.7039906978607178,-2.337198257446289,-4.114775794400449e-12,-6.695666156936175e-12,-5.29865483561427e-16,3.3793486672178963e-12,-6.642082283486728e-12,-5.330574213440365e-16,5.887446780095118e-11,1.416152525107739e-11,8.255434672725746e-15,-5.963585875123911e-11,1.4232142374337453e-11,8.166582610624664e-15,0.0,0.0,0.0,0.0,0.0,0.0,0.0,0.0,0.0,0.0,0.0,0.0
1.0476223838082332e-12,2.665969181525618e-11,4.850762193721152e-14,3.1185816624201834e-05,-3.183231456205249e-11,1.0,0.031341552734375,-0.031982421875,-0.031982421875,-0.11258890479803085,0.9039967656135559,0.66280198097229,0.11258901655673981,0.9039967656135559,-2.33719801902771,-0.11274700611829758,0.7039905786514282,-2.337198257446289,0.11274688690900803,0.7039906978607178,-2.337198257446289,-4.100089191771961e-12,-6.678648519636843e-12,-5.904176984387096e-16,3.3662406629525465e-12,-6.625086763911714e-12,-5.33159859391095e-16,5.857549167931353e-11,1.4034816711583353e-11,8.164443852432847e-15,-5.933455116124975e-11,1.4105001021336161e-11,8.093134689702349e-15,0.0,0.0,0.0,0.0,0.0,0.0,0.0,0.0,0.0,0.0,0.0,0.0
1.045072665559199e-12,2.657186970456138e-11,4.830055965105752e-14,3.118581298622303e-05,-3.1377567211166024e-11,1.0,0.031341552734375,-0.031982421875,-0.031982421875,-0.11258890479803085,0.9039967656135559,0.66280198097229,0.11258901655673981,0.9039967656135559,-2.33719801902771,-0.11274700611829758,0.7039905786514282,-2.337198257446289,0.11274688690900803,0.7039906978607178,-2.337198257446289,-4.085422538463446e-12,-6.660897094307172e-12,-5.828246833412853e-16,3.353180363582786e-12,-6.607326664964663e-12,-5.078743906683373e-16,5.827827109783357e-11,1.3911221133366958e-11,8.060826311995228e-15,-5.903498523363027e-11,1.398101079352898e-11,8.007514058295043e-15,0.0,0.0,0.0,0.0,0.0,0.0,0.0,0.0,0.0,0.0,0.0,0.0
1.0424465110570047e-12,2.648262859006323e-11,4.8093659995229396e-14,3.118580934824422e-05,-3.228706191293895e-11,1.0,0.031341552734375,-0.031982421875,-0.031982421875,-0.11258890479803085,0.9039967656135559,0.66280198097229,0.11258901655673981,0.9039967656135559,-2.33719801902771,-0.11274700611829758,0.7039905786514282,-2.337198257446289,0.11274688690900803,0.7039906978607178,-2.337198257446289,-4.070805324773996e-12,-6.642404942053259e-12,-5.66693682014656e-16,3.340149337671683e-12,-6.588852293626379e-12,-5.857997277498384e-16,5.79828199342991e-11,1.3790672596936115e-11,7.931039688652188e-15,-5.873720954063799e-11,1.3860081485295161e-11,7.893839695674674e-15,0.0,0.0,0.0,0.0,0.0,0.0,0.0,0.0,0.0,0.0,0.0,0.0
1.0397711337761795e-12,2.6392003166231248e-11,4.788765819432536e-14,3.118580934824422e-05,-3.1377567211166024e-11,1.0,0.031341552734375,-0.031982421875,-0.031982421875,-0.11258890479803085,0.9039967656135559,0.66280198097229,0.11258901655673981,0.9039967656135559,-2.33719801902771,-0.11274700611829758,0.7039905786514282,-2.337198257446289,0.11274688690900803,0.7039906978607178,-2.337198257446289,-4.056255331619241e-12,-6.623347703627047e-12,-5.681461317609603e-16,3.327164715613562e-12,-6.56980676458363e-12,-5.5873924854655e-16,5.768910349424061e-11,1.3673051406370984e-11,7.776678945443406e-15,-5.844121020448512e-11,1.3742069981947935e-11,7.75219884623481e-15,0.0,0.0,0.0,0.0,0.0,0.0,0.0,0.0,0.0,0.0,0.0,0.0
1.0372464605973297e-12,2.6300019453917578e-11,4.76867555317638e-14,3.118580571026541e-05,-3.092281986027956e-11,1.0,0.031341552734375,-0.031982421875,-0.031982421875,-0.11258890479803085,0.9039967656135559,0.66280198097229,0.11258901655673981,0.9039967656135559,-2.33719801902771,-0.11274700611829758,0.7039905786514282,-2.337198257446289,0.11274688690900803,0.7039906978607178,-2.337198257446289,-4.041731359316625e-12,-6.6036525206425445e-12,-5.496197212594958e-16,3.3142290994936374e-12,-6.550077754491346e-12,-6.018434846829005e-16,5.739710443042334e-11,1.35582213858787e-11,7.596985140848143e-15,-5.814691436678565e-11,1.362683490352401e-11,7.591999504920604e-15,0.0,0.0,0.0,0.0,0.0,0.0,0.0,0.0,0.0,0.0,0.0,0.0
1.0344855397650954e-12,2.6206897763003667e-11,4.74870963135688e-14,3.118580571026541e-05,-3.1377567211166024e-11,1.0,0.031341552734375,-0.031982421875,-0.031982421875,-0.11258890479803085,0.9039967656135559,0.66280198097229,0.11258901655673981,0.9039967656135559,-2.33719801902771,-0.11274700611829758,0.7039905786514282,-2.337198257446289,0.11274688690900803,0.7039906978607178,-2.337198257446289,-4.027257693994812e-12,-6.583411767124847e-12,-5.422538698106132e-16,3.3013366346201778e-12,-6.529809245398033e-12,-5.823499213743492e-16,5.7106819273400333e-11,1.344607931941244e-11,7.391694000586854e-15,-5.785434284422131e-11,1.351427910550873e-11,7.405625151470346e-15,0.0,0.0,0.0,0.0,0.0,0.0,0.0,0.0,0.0,0.0,0.0,0.0
1.0319258468560744e-12,2.6112641562936467e-11,4.728573625321572e-14,3.1185802072286606e-05,-3.092281986027956e-11,1.0,0.031341552734375,-0.031982421875,-0.031982421875,-0.11258890479803085,0.9039967656135559,0.66280198097229,0.11258901655673981,0.9039967656135559,-2.33719801902771,-0.11274700611829758,0.7039905786514282,-2.337198257446289,0.11274688690900803,0.7039906978607178,-2.337198257446289,-4.012833034611196e-12,-6.562631080925252e-12,-5.21697068395021e-16,3.2884944767275215e-12,-6.509043304347983e-12,-5.512466597929345e-16,5.681820638980817e-11,1.3336483827008916e-11,7.165985978164948e-15,-5.756345400342866e-11,1.3404353148283032e-11,7.192049181951963e-15,0.0,0.0,0.0,0.0,0.0,0.0,0.0,0.0,0.0,0.0,0.0,0.0
1.0295420115394305e-12,2.6041191772407934e-11,4.7135106690139594e-14,3.1185802072286606e-05,-3.1377567211166024e-11,1.0,0.031341552734375,-0.031982421875,-0.031982421875,-0.11258890479803085,0.9039967656135559,0.66280198097229,0.11258901655673981,0.9039967656135559,-2.33719801902771,-0.11274700611829758,0.7039905786514282,-2.337198257446289,0.11274688690900803,0.7039906978607178,-2.337198257446289,-4.0020478250801794e-12,-6.546683334329728e-12,-5.655067770973159e-16,3.2788934328092934e-12,-6.493130252221979e-12,-5.361531679475733e-16,5.660283006192479e-11,1.3255931075040195e-11,7.21437866450748e-15,-5.7346377646538826e-11,1.3323506360685133e-11,7.254450099176187e-15,0.0,0.0,0.0,0.0,0.0,0.0,0.0,0.0,0.0,0.0,0.0,0.0
1.0268214230280126e-12,2.5945209522482138e-11,4.6934044785383947e-14,3.11857984343078e-05,-3.092281986027956e-11,1.0,0.031341552734375,-0.031982421875,-0.031982421875,-0.11258890479803085,0.9039967656135559,0.66280198097229,0.11258901655673981,0.9039967656135559,-2.33719801902771,-0.11274700611829758,0.7039905786514282,-2.337198257446289,0.11274688690900803,0.7039906978607178,-2.337198257446289,-3.9877107692321e-12,-6.525056970435594e-12,-5.504421902512797e-16,3.2661269522282765e-12,-6.471551159542566e-12,-5.049783320821156e-16,5.631713498321922e-11,1.3150615145451905e-11,7.20312498477026e-15,-5.7058413549526676e-11,1.321782527180515e-11,7.231132129171224e-15,0.0,0.0,0.0,0.0,0.0,0.0,0.0,0.0,0.0,0.0,0.0,0.0
1.0242967498491629e-12,2.584822286766375e-11,4.6739471153004267e-14,3.11857984343078e-05,-3.0468072509393096e-11,1.0,0.031341552734375,-0.031982421875,-0.031982421875,-0.11258890479803085,0.9039967656135559,0.66280198097229,0.11258901655673981,0.9039967656135559,-2.33719801902771,-0.11274700611829758,0.7039905786514282,-2.337198257446289,0.11274688690900803,0.7039906978607178,-2.337198257446289,-3.973415780428313e-12,-6.503038992716759e-12,-5.358941876239503e-16,3.2534083933832836e-12,-6.449505426248114e-12,-5.780347120245622e-16,5.603302891121764e-11,1.304759078557538e-11,7.202554931596758e-15,-5.677206968424109e-11,1.3114428813743029e-11,7.245017540275563e-15,0.0,0.0,0.0,0.0,0.0,0.0,0.0,0.0,0.0,0.0,0.0,0.0
1.021666909059582e-12,2.5750389667789086e-11,4.654537185907505e-14,3.11857984343078e-05,-3.092281986027956e-11,1.0,0.031341552734375,-0.031982421875,-0.031982421875,-0.11258890479803085,0.9039967656135559,0.66280198097229,0.11258901655673981,0.9039967656135559,-2.33719801902771,-0.11274700611829758,0.7039905786514282,-2.337198257446289,0.11274688690900803,0.7039906978607178,-2.337198257446289,-3.959153317689701e-12,-6.480599477193261e-12,-5.190013860403842e-16,3.240741442561701e-12,-6.427075451703734e-12,-5.488635855353937e-16,5.5750560418177386e-11,1.2946778198130726e-11,7.175993672436758e-15,-5.648735992846987e-11,1.3013254536453633e-11,7.235290213909295e-15,0.0,0.0,0.0,0.0,0.0,0.0,0.0,0.0,0.0,0.0,0.0,0.0
1.0189791718739905e-12,2.5651713392305098e-11,4.6348233410931083e-14,3.118579479632899e-05,-3.0468072509393096e-11,1.0,0.031341552734375,-0.031982421875,-0.031982421875,-0.11258890479803085,0.9039967656135559,0.66280198097229,0.11258901655673981,0.9039967656135559,-2.33719801902771,-0.11274700611829758,0.7039905786514282,-2.337198257446289,0.11274688690900803,0.7039906978607178,-2.337198257446289,-3.944964147017949e-12,-6.457822557953685e-12,-5.453103352612212e-16,3.228107451486162e-12,-6.404331925891071e-12,-5.947426486673901e-16,5.546966705405332e-11,1.2848069830262432e-11,7.182404017781578e-15,-5.62042426488496e-11,1.2914211366954476e-11,7.202720103021473e-15,0.0,0.0,0.0,0.0,0.0,0.0,0.0,0.0,0.0,0.0,0.0,0.0
1.0164044085547719e-12,2.5552499352543556e-11,4.615838622239708e-14,3.1185791158350185e-05,-3.001332515850663e-11,1.0,0.031341552734375,-0.031982421875,-0.031982421875,-0.11258890479803085,0.9039967656135559,0.66280198097229,0.11258901655673981,0.9039967656135559,-2.33719801902771,-0.11274700611829758,0.7039905786514282,-2.337198257446289,0.11274688690900803,0.7039906978607178,-2.337198257446289,-3.930821380199179e-12,-6.434749868361456e-12,-5.793015027367402e-16,3.215528971561854e-12,-6.381227577595405e-12,-5.639365897713432e-16,5.5190362696633244e-11,1.2751426650692288e-11,7.223272510453651e-15,-5.592273866206199e-11,1.2817200426007425e-11,7.170639577177163e-15,0.0,0.0,0.0,0.0,0.0,0.0,0.0,0.0,0.0,0.0,0.0,0.0
1.0141683499942378e-12,2.5452371113510175e-11,4.596747854861312e-14,3.1185791158350185e-05,-3.0468072509393096e-11,1.0,0.031341552734375,-0.031982421875,-0.031982421875,-0.11258890479803085,0.9039967656135559,0.66280198097229,0.11258901655673981,0.9039967656135559,-2.33719801902771,-0.11274700611829758,0.7039905786514282,-2.337198257446289,0.11274688690900803,0.7039906978607178,-2.337198257446289,-3.916711573126452e-12,-6.4113571222879084e-12,-5.5768659835134975e-16,3.2030003649374805e-12,-6.357855214522701e-12,-5.403000824386528e-16,5.491261959034155e-11,1.2656701207924836e-11,7.21410422583257e-15,-5.56427924569558e-11,1.2722162733014297e-11,7.227472099806138e-15,0.0,0.0,0.0,0.0,0.0,0.0,0.0,0.0,0.0,0.0,0.0,0.0
1.012026183341841e-12,2.5376832579748765e-11,4.582626799191046e-14,3.118578752037138e-05,-3.001332515850663e-11,1.0,0.031341552734375,-0.031982421875,-0.031982421875,-0.11258890479803085,0.9039967656135559,0.66280198097229,0.11258901655673981,0.9039967656135559,-2.33719801902771,-0.11274700611829758,0.7039905786514282,-2.337198257446289,0.11274688690900803,0.7039906978607178,-2.337198257446289,-3.906170525924679e-12,-6.39365643761991e-12,-5.2918743368715e-16,3.1936309066032953e-12,-6.340131111087777e-12,-5.080842960205787e-16,5.470532013496232e-11,1.2586901139421958e-11,7.154479882609446e-15,-5.543383460593354e-11,1.2652079904584834e-11,7.212903133113364e-15,0.0,0.0,0.0,0.0,0.0,0.0,0.0,0.0,0.0,0.0,0.0,0.0
1.0094000288396465e-12,2.5275717283057553e-11,4.563568896691003e-14,3.118578752037138e-05,-3.0468072509393096e-11,1.0,0.031341552734375,-0.031982421875,-0.031982421875,-0.11258890479803085,0.9039967656135559,0.66280198097229,0.11258901655673981,0.9039967656135559,-2.33719801902771,-0.11274700611829758,0.7039905786514282,-2.337198257446289,0.11274688690900803,0.7039906978607178,-2.337198257446289,-3.892150924472704e-12,-6.369800086697408e-12,-5.245655984104569e-16,3.1811833983014237e-12,-6.316313357762615e-12,-5.73825646490978e-16,5.443024503337668e-11,1.2495423966363273e-11,7.212002737090432e-15,-5.515656334442731e-11,1.2560276603512666e-11,7.170395631688354e-15,0.0,0.0,0.0,0.0,0.0,0.0,0.0,0.0,0.0,0.0,0.0,0.0
1.0065119310925796e-12,2.5174263715288525e-11,4.545049368332235e-14,3.118578388239257e-05,-3.001332515850663e-11,1.0,0.031341552734375,-0.031982421875,-0.031982421875,-0.11258890479803085,0.9039967656135559,0.66280198097229,0.11258901655673981,0.9039967656135559,-2.33719801902771,-0.11274700611829758,0.7039905786514282,-2.337198257446289,0.11274688690900803,0.7039906978607178,-2.337198257446289,-3.8781777268737105e-12,-6.345715185956946e-12,-5.713612570705008e-16,3.1687801254481895e-12,-6.292224987575201e-12,-5.412453182682294e-16,5.4156713835684656e-11,1.2405751773081342e-11,7.213871291772075e-15,-5.488086721183727e-11,1.247021843425733e-11,7.238766437124827e-15,0.0,0.0,0.0,0.0,0.0,0.0,0.0,0.0,0.0,0.0,0.0,0.0
1.0037860299905166e-12,2.5072229015155045e-11,4.526453607008214e-14,3.118578388239257e-05,-2.955857780762017e-11,1.0,0.031341552734375,-0.031982421875,-0.031982421875,-0.11258890479803085,0.9039967656135559,0.66280198097229,0.11258901655673981,0.9039967656135559,-2.33719801902771,-0.11274700611829758,0.7039905786514282,-2.337198257446289,0.11274688690900803,0.7039906978607178,-2.337198257446289,-3.86425526993639e-12,-6.321434261463699e-12,-5.472124536233991e-16,3.156435616352704e-12,-6.267948833571513e-12,-5.794497864420689e-16,5.388467450018197e-11,1.2317729301825064e-11,7.18918112839256e-15,-5.4606659471989616e-11,1.2381859426646713e-11,7.231718275970724e-15,0.0,0.0,0.0,0.0,0.0,0.0,0.0,0.0,0.0,0.0,0.0,0.0
1.001399701008876e-12,2.4969620121551017e-11,4.5078263360585555e-14,3.118578024441376e-05,-3.001332515850663e-11,1.0,0.031341552734375,-0.031982421875,-0.031982421875,-0.11258890479803085,0.9039967656135559,0.66280198097229,0.11258901655673981,0.9039967656135559,-2.33719801902771,-0.11274700611829758,0.7039905786514282,-2.337198257446289,0.11274688690900803,0.7039906978607178,-2.337198257446289,-3.850383119979872e-12,-6.296925654514229e-12,-5.257809848106484e-16,3.1441166944284893e-12,-6.243465380112445e-12,-5.420673637435397e-16,5.361411314908082e-11,1.22313053782519e-11,7.167276856376564e-15,-5.43339366554374e-11,1.2295130191741777e-11,7.200184086377393e-15,0.0,0.0,0.0,0.0,0.0,0.0,0.0,0.0,0.0,0.0,0.0,0.0
9.989727144457672e-13,2.4866733672190833e-11,4.489577858242909e-14,3.118578024441376e-05,-2.955857780762017e-11,1.0,0.031341552734375,-0.031982421875,-0.031982421875,-0.11258890479803085,0.9039967656135559,0.66280198097229,0.11258901655673981,0.9039967656135559,-2.33719801902771,-0.11274700611829758,0.7039905786514282,-2.337198257446289,0.11274688690900803,0.7039906978607178,-2.337198257446289,-3.836543496088529e-12,-6.272298652687525e-12,-5.334676499883036e-16,3.131847645804209e-12,-6.2188249341788016e-12,-5.252394660595569e-16,5.334505753795682e-11,1.2146449644701018e-11,7.204919000552545e-15,-5.4062716109415376e-11,1.2209948330177411e-11,7.157915448243509e-15,0.0,0.0,0.0,0.0,0.0,0.0,0.0,0.0,0.0,0.0,0.0,0.0
9.962382481465415e-13,2.4763465583665933e-11,4.471451691984846e-14,3.1185776606434956e-05,-2.9103830456733704e-11,1.0,0.031341552734375,-0.031982421875,-0.031982421875,-0.11258890479803085,0.9039967656135559,0.66280198097229,0.11258901655673981,0.9039967656135559,-2.33719801902771,-0.11274700611829758,0.7039905786514282,-2.337198257446289,0.11274688690900803,0.7039906978607178,-2.337198257446289,-3.822778465306653e-12,-6.247497744832353e-12,-5.202602887582409e-16,3.1196271694372557e-12,-6.194028796813189e-12,-5.888741926505755e-16,5.307742786953007e-11,1.2063134345596804e-11,7.135167531412048e-15,-5.3792970078347935e-11,1.2126264402334552e-11,7.213410505848769e-15,0.0,0.0,0.0,0.0,0.0,0.0,0.0,0.0,0.0,0.0,0.0,0.0
9.934056615507059e-13,2.4659873101851026e-11,4.4533671997477875e-14,3.118577296845615e-05,-3.001332515850663e-11,1.0,0.031341552734375,-0.031982421875,-0.031982421875,-0.11258890479803085,0.9039967656135559,0.66280198097229,0.11258901655673981,0.9039967656135559,-2.33719801902771,-0.11274700611829758,0.7039905786514282,-2.337198257446289,0.11274688690900803,0.7039906978607178,-2.337198257446289,-3.809040322738655e-12,-6.2224960427348375e-12,-5.663769975715013e-16,3.1074528800828505e-12,-6.16905007980173e-12,-5.53183030049917e-16,5.281123455214143e-11,1.1981234580848987e-11,7.15639756520203e-15,-5.352463611218994e-11,1.2044032438041086e-11,7.137061497082108e-15,0.0,0.0,0.0,0.0,0.0,0.0,0.0,0.0,0.0,0.0,0.0,0.0
9.91027464085359e-13,2.4555914593382688e-11,4.43521155674316e-14,3.118577296845615e-05,-3.001332515850663e-11,1.0,0.031341552734375,-0.031982421875,-0.031982421875,-0.11258890479803085,0.9039967656135559,0.66280198097229,0.11258901655673981,0.9039967656135559,-2.33719801902771,-0.11274700611829758,0.7039905786514282,-2.337198257446289,0.11274688690900803,0.7039906978607178,-2.337198257446289,-3.795353354513198e-12,-6.1974440336565184e-12,-5.695747057660639e-16,3.0953122009957923e-12,-6.1440271273416336e-12,-5.315402265168264e-16,5.254652268860127e-11,1.1900708717094144e-11,7.171611971000611e-15,-5.325780441656214e-11,1.196320126295447e-11,7.15387086592037e-15,0.0,0.0,0.0,0.0,0.0,0.0,0.0,0.0,0.0,0.0,0.0,0.0
9.88578576638366e-13,2.4451647304135626e-11,4.417523137112238e-14,3.118576933047734e-05,-2.955857780762017e-11,1.0,0.031341552734375,-0.031982421875,-0.031982421875,-0.11258890479803085,0.9039967656135559,0.66280198097229,0.11258901655673981,0.9039967656135559,-2.33719801902771,-0.11274700611829758,0.7039905786514282,-2.337198257446289,0.11274688690900803,0.7039906978607178,-2.337198257446289,-3.781724499524186e-12,-6.1723057220852695e-12,-5.369334970502313e-16,3.083253487592974e-12,-6.118874070620839e-12,-5.914290557777313e-16,5.228322288997056e-11,1.1821499508457567e-11,7.169808637855907e-15,-5.299239519418464e-11,1.1883690212433073e-11,7.16303915054145e-15,0.0,0.0,0.0,0.0,0.0,0.0,0.0,0.0,0.0,0.0,0.0,0.0
9.861760930443553e-13,2.4347517058043167e-11,4.399871986930995e-14,3.1185765692498535e-05,-3.001332515850663e-11,1.0,0.031341552734375,-0.031982421875,-0.031982421875,-0.11258890479803085,0.9039967656135559,0.66280198097229,0.11258901655673981,0.9039967656135559,-2.33719801902771,-0.11274700611829758,0.7039905786514282,-2.337198257446289,0.11274688690900803,0.7039906978607178,-2.337198257446289,-3.768130339004694e-12,-6.1470225611037765e-12,-5.842101116056381e-16,3.071211470903612e-12,-6.093604353746285e-12,-5.528814333811353e-16,5.202131087012063e-11,1.17435965465984e-11,7.14474239184781e-15,-5.272837722003487e-11,1.1805501021200371e-11,7.153994532730669e-15,0.0,0.0,0.0,0.0,0.0,0.0,0.0,0.0,0.0,0.0,0.0,0.0
