Huisouan/Genesis/extensions/rl_lab/rl_lab/datasets/exported_data.csv
root_pos_x,root_pos_y,root_pos_z,root_rot_w,root_rot_x,root_rot_y,root_rot_z,linear_velocity_x,linear_velocity_y,linear_velocity_z,angular_velocity_x,angular_velocity_y,angular_velocity_z,qpos_0,qpos_1,qpos_2,qpos_3,qpos_4,qpos_5,qpos_6,qpos_7,qpos_8,qpos_9,qpos_10,qpos_11,joint_angular_velocity_0,joint_angular_velocity_1,joint_angular_velocity_2,joint_angular_velocity_3,joint_angular_velocity_4,joint_angular_velocity_5,joint_angular_velocity_6,joint_angular_velocity_7,joint_angular_velocity_8,joint_angular_velocity_9,joint_angular_velocity_10,joint_angular_velocity_11,FL_foot_x,FL_foot_y,FL_foot_z,FR_foot_x,FR_foot_y,FR_foot_z,RL_foot_x,RL_foot_y,RL_foot_z,RR_foot_x,RR_foot_y,RR_foot_z
0.17397897810303012,0.8856469925114119,0.39006936660569314,0.604270640739972,0.007856909316704396,-0.040733763743733706,0.7956984492927973,0.025506255961499358,0.0065371559008253755,-0.0024179454290917946,-31.10855317463417,162.57771867594647,-667.1701179504757,-0.041408099234104156,0.27664950489997864,-0.09200087189674377,0.11885689944028854,0.6519780158996582,0.6378593444824219,0.8338126540184021,0.7491462826728821,-1.2450928688049316,-1.0838563442230225,-0.9893822073936462,-0.9696024060249329,1.1256650896811405e-05,1.7174902735294366e-05,0.00010713765622674238,8.74833504922628e-05,6.441634109485325e-06,1.7430058393672284e-05,1.4280350020580903e-05,4.621663284640166e-05,-1.8580349206904124e-05,6.408171072321008e-06,-9.251274040606858e-05,4.4321788366972186e-05,0.014639997854828835,1.0537058115005493,0.045935407280921936,0.18272367119789124,1.0762479305267334,0.027755022048950195,0.16799797117710114,0.5776833295822144,0.004781782627105713,0.3608311414718628,0.6589993238449097,0.006190106272697449
0.1741979342053433,0.8857026633761313,0.3900517178844325,0.6038934348239183,0.007920004811751888,-0.04079866920951004,0.7959808172883845,0.02627473227758137,0.006680503766336443,-0.002117846551277225,-31.261640169346954,162.36314379972035,-666.9828508514107,-0.04128500446677208,0.2768581211566925,-0.090477354824543,0.12009215354919434,0.652043879032135,0.6381071209907532,0.8339654803276062,0.7498164176940918,-1.2453335523605347,-1.0837689638137817,-0.9906642436981201,-0.9689837098121643,0.00010219028959545358,0.0001573773891780066,0.0009973164070175146,0.0008137438026320487,5.815726292447596e-05,0.0001622460906799457,0.00012940614324330439,0.00043112565319066896,-0.0001713081735898136,5.938917761424437e-05,-0.0008588251320155403,0.00041176814023044956,0.014655392616987228,1.0536707639694214,0.045980870723724365,0.18272067606449127,1.076246976852417,0.027759656310081482,0.16791492700576782,0.577843189239502,0.004853114485740662,0.36093246936798096,0.6588164567947388,0.0060634613037109375
0.17442008774858775,0.8857596125506713,0.3900363374800467,0.6035135071964718,0.007995559742966653,-0.0408427061135861,0.7962659047159624,0.026658425189334256,0.006833900944789306,-0.0018456485262974276,-31.465407811094,162.06603456488355,-666.8113915147054,-0.041205212473869324,0.27702391147613525,-0.08897747099399567,0.12129524350166321,0.6520912647247314,0.6383544206619263,0.8340707421302795,0.7504957914352417,-1.245551347732544,-1.0836923122406006,-0.991889238357544,-0.9683825969696045,0.00044808329922989835,0.0006988901774061041,0.004521952561466204,0.0036857678062939777,0.00025386728707574996,0.0007358521270508968,0.0005667840318093698,0.0019604723508639325,-0.0007675248784985143,0.00026736859541735467,-0.0038802119356031992,0.001862580775056872,0.014671307057142258,1.0536359548568726,0.04602727293968201,0.1827184557914734,1.0762468576431274,0.02776440978050232,0.16782860457897186,0.5780040621757507,0.004925400018692017,0.3610343039035797,0.6586323380470276,0.005939841270446777
0.1746431759519044,0.885817597673828,0.3900230055674826,0.6031323808476184,0.00808203235216033,-0.040864760487065825,0.79655262429828,0.026770584397998176,0.006958214778802763,-0.0015998295076902203,-31.7159534864806,161.68432519707213,-666.6580591274165,-0.04117255285382271,0.27714231610298157,-0.08751071989536285,0.12246166914701462,0.6521164774894714,0.6386016011238098,0.8341265916824341,0.7511837482452393,-1.2457466125488281,-1.0836294889450073,-0.9930438995361328,-0.9678105711936951,0.001281121264486505,0.0020332574946618598,0.013519641273086358,0.011004380920517014,0.0007240072728699023,0.0022018165739791586,0.0016209112306090337,0.005884672453063447,-0.0022614294240527175,0.0007906240021909748,-0.011547923748934912,0.005552470276467359,0.014687495306134224,1.053601861000061,0.046073392033576965,0.18271708488464355,1.0762470960617065,0.027768656611442566,0.16773994266986847,0.5781633853912354,0.0049981772899627686,0.36113446950912476,0.6584477424621582,0.005820795893669128
0.17486647032523278,0.8858752054876737,0.39001147686303994,0.6027498949020834,0.008177558864697844,-0.04086541992826472,0.7968410815091228,0.026795324799405718,0.006912937661494034,-0.0013834445331184497,-32.00360533357936,161.218395525231,-666.5234968205375,-0.04118683561682701,0.2772136926651001,-0.0860755518078804,0.12359366565942764,0.6521095633506775,0.6388499736785889,0.8341357111930847,0.7518845200538635,-1.2459155321121216,-1.0835856199264526,-0.9941316246986389,-0.9672712683677673,0.0027175538993138007,0.004417578032395136,0.030440075426289848,0.024732979346390245,0.0015359510322353349,0.004965392446350667,0.0034474789664993228,0.013320232362106936,-0.005002127146254902,0.0017509142604185761,-0.025848819329521974,0.012455542339953794,0.014703761786222458,1.0535697937011719,0.04611799120903015,0.18271693587303162,1.0762463808059692,0.02777262032032013,0.16764894127845764,0.57831871509552,0.005072236061096191,0.36123335361480713,0.6582596302032471,0.005707666277885437
0.17508920006892698,0.8859343069239775,0.3900023937279859,0.6023666535947166,0.008278483729120156,-0.0408453196688077,0.7971308181254833,0.02672756924330333,0.007092172356446547,-0.0010899762064853213,-32.31726198107279,160.66919264986672,-666.4079812491783,-0.04124248027801514,0.2772400677204132,-0.08467227965593338,0.12469489872455597,0.6520671248435974,0.6390949487686157,0.8340945839881897,0.7525835633277893,-1.246053695678711,-1.0835601091384888,-0.9951537847518921,-0.966759979724884,0.004595248388477102,0.007723986535396858,0.05575724267088493,0.04520432779681881,0.0026038705689196097,0.009119188613745655,0.005867569435103569,0.024569482174954676,-0.008966724376028459,0.0031299303319805966,-0.04699784942575891,0.02270590078557624,0.014719730243086815,1.0535401105880737,0.04615986347198486,0.1827189326286316,1.0762463808059692,0.02777610719203949,0.1675567626953125,0.5784721970558167,0.005148753523826599,0.36132949590682983,0.6580719351768494,0.005601227283477783
0.17531060486619499,0.8859932327854977,0.38999638665782416,0.6019817579644308,0.008376084006519291,-0.040801008683588685,0.7974227749350847,0.0265685756721612,0.007071103382427779,-0.0007208484194087816,-32.63845080628904,160.025053982957,-666.315177100445,-0.04134124889969826,0.277223140001297,-0.08329956233501434,0.1257731318473816,0.6519799828529358,0.6393265128135681,0.8339784145355225,0.7532532215118408,-1.246165156364441,-1.083574891090393,-0.996103048324585,-0.9662728905677795,0.006454787192679231,0.011382849236730252,0.08733694300659967,0.07062091057750441,0.0036693752060157924,0.014339230926301743,0.008343714700929155,0.038827616323812576,-0.013675963560844936,0.0047304667105050316,-0.07293308095439352,0.03534344804907621,0.014737417921423912,1.0535095930099487,0.0461958646774292,0.18272307515144348,1.076246976852417,0.027778834104537964,0.16746479272842407,0.5786231160163879,0.00523039698600769,0.36142095923423767,0.6578856706619263,0.005504772067070007
0.17553078977023795,0.8860532414471078,0.38999516407780105,0.6015961182801055,0.008469418079088032,-0.04073489888848653,0.7977161446531316,0.02642218848515565,0.0072010393932187,-0.0001467096027729653,-32.939695426848616,159.29587899624667,-666.2436260435275,-0.041473448276519775,0.27716803550720215,-0.08194633573293686,0.12683381140232086,0.6518425941467285,0.6395413279533386,0.8337811827659607,0.7538789510726929,-1.2462430000305176,-1.0836106538772583,-0.9969531893730164,-0.9657799005508423,0.007671196707820688,0.014541524475266557,0.1210083426971739,0.09754662424457773,0.004355711032851193,0.019966318876202028,0.010122153269266163,0.05437794236981391,-0.018321097795927912,0.006214636073790775,-0.09986742184887178,0.04857066945025775,0.014755235984921455,1.0534803867340088,0.046227261424064636,0.18272985517978668,1.0762476921081543,0.02778106927871704,0.16737119853496552,0.5787695646286011,0.005316749215126038,0.3615068793296814,0.657701313495636,0.005416959524154663
0.17574873078797287,0.8861151924267913,0.3899968257710461,0.601213832864195,0.00856028368742243,-0.04064835345728457,0.7980077443716611,0.02615292212819087,0.007434117562010734,0.0001994031894070325,-33.22529306257537,158.49645643419151,-666.190633873769,-0.04163723811507225,0.27707821130752563,-0.08063127845525742,0.1278710514307022,0.6516680121421814,0.6397454142570496,0.8335291147232056,0.7544764876365662,-1.2462916374206543,-1.0836756229400635,-0.9977293014526367,-0.9653061032295227,0.007656457829344009,0.016335660253613386,0.151876490447946,0.12199969957615753,0.0042617897836926145,0.02519909355640463,0.010442356937113454,0.06908812830721259,-0.02201048639797346,0.00719092286218309,-0.1234615792868001,0.06032912768153831,0.014773719012737274,1.053452968597412,0.046253740787506104,0.18273872137069702,1.0762500762939453,0.027782678604125977,0.16727818548679352,0.5789119601249695,0.0054073333740234375,0.36158567667007446,0.6575194597244263,0.00533747673034668
0.17596170047054613,0.8861816192346635,0.3899997525603485,0.6008405580901127,0.008653105426595052,-0.040543570842074016,0.7982931581717407,0.025556361908790626,0.007971216944673287,0.00035121471628984935,-33.50764488809391,157.64383266856,-666.1540279622964,-0.04183056205511093,0.2769528329372406,-0.07937750220298767,0.12886753678321838,0.6514777541160583,0.6399584412574768,0.8332520127296448,0.7550697326660156,-1.2463115453720093,-1.083764910697937,-0.9984297752380371,-0.9648665189743042,0.006042009587477723,0.01614867972626842,0.17573542996845193,0.14061399567362295,0.003063203702674617,0.029310287078829673,0.008732279282021919,0.08097563147283186,-0.02402178070919272,0.007316370936250548,-0.14005416841060395,0.06891678091948882,0.014791999012231827,1.0534279346466064,0.046275973320007324,0.18275028467178345,1.0762518644332886,0.027783408761024475,0.16718755662441254,0.579048216342926,0.005499497056007385,0.3616575300693512,0.6573398113250732,0.005265772342681885
0.17616750974431278,0.8862551612284357,0.3900024379667078,0.6004818609977833,0.008752260288620908,-0.04042241933645758,0.7985680688378836,0.024697112851997938,0.008825039252662314,0.00032224876311381934,-33.80579935190334,156.7528863864047,-666.1323561247596,-0.04183056205511093,0.2769528329372406,-0.07937750220298767,0.12886753678321838,0.6514777541160583,0.6399584412574768,0.8332520127296448,0.7550697326660156,-1.2463115453720093,-1.083764910697937,-0.9984297752380371,-0.9648665189743042,0.002794429602445709,0.013780788568511705,0.18998907921372787,0.1513838017540705,0.0006152828015695971,0.031808967773058736,0.004776860821305764,0.08863408322017019,-0.02397560246341862,0.006391435384877811,-0.14749192534391875,0.07338027475459719,0.014752378687262535,1.0533231496810913,0.04630713164806366,0.1826847940683365,1.0762989521026611,0.027767077088356018,0.16756995022296906,0.5790790319442749,0.005532309412956238,0.3619683086872101,0.6575482487678528,0.005238950252532959
0.176362867108358,0.8863351562072418,0.39000333027666295,0.6001459622699152,0.008863177506813787,-0.040287042894454526,0.7988261526955791,0.02344288368542613,0.009599397456727665,0.0001070771946176663,-34.140302863613655,155.8411175429548,-666.1242432969482,-0.04230297729372978,0.27659520506858826,-0.0771436020731926,0.13067252933979034,0.6511683464050293,0.6404553651809692,0.8323396444320679,0.7566654682159424,-1.246382236480713,-1.084012746810913,-0.9989380240440369,-0.9647737741470337,-0.0017526327296043802,0.009495440761837498,0.19381067667400267,0.15377691699654245,-0.0029467009059084247,0.032510688455782165,-0.0011753786647002986,0.0914379841854335,-0.02190198524406958,0.004424689945987514,-0.14531244786101158,0.07351481778322451,0.014824703335762024,1.0533932447433472,0.04632502794265747,0.1827809065580368,1.0762590169906616,0.027783051133155823,0.16702447831630707,0.5793010592460632,0.005607187747955322,0.36178064346313477,0.6569903492927551,0.005203425884246826
0.176545332877605,0.886420499457984,0.3900004886338329,0.5998389091008148,0.008987792277349398,-0.04013901517018999,0.7990628024003439,0.021895892309639065,0.01024119008905977,-0.0003409971396051148,-34.52778719372192,154.919290906293,-666.1304452940137,-0.04230297729372978,0.27659520506858826,-0.0771436020731926,0.13067252933979034,0.6511683464050293,0.6404553651809692,0.8323396444320679,0.7566654682159424,-1.246382236480713,-1.084012746810913,-0.9989380240440369,-0.9647737741470337,-0.00700085485886001,0.003913539747916139,0.1879631223104264,0.1485591851931341,-0.007187585783246702,0.03156769316714604,-0.008517839942495602,0.08970489518802247,-0.018216941738901732,0.001624118378602303,-0.13443812226977236,0.06957941375830534,0.014756182208657265,1.0533168315887451,0.04636162519454956,0.1826878786087036,1.0763128995895386,0.027758970856666565,0.16731494665145874,0.5793405175209045,0.005638450384140015,0.3620097041130066,0.6571829915046692,0.005159169435501099
0.17671279212136606,0.886507459647027,0.38999595562747413,0.5995646581510128,0.009124201699269942,-0.039975187672983116,0.7992752679835152,0.02009510925132907,0.010435222685170054,-0.0005439607630530752,-34.976258005464146,153.9849118245226,-666.1541100991367,-0.04288724437355995,0.27609044313430786,-0.07545710355043411,0.13208678364753723,0.6508976817131042,0.6410776376724243,0.8320895433425903,0.7580434679985046,-1.2462533712387085,-1.0843710899353027,-0.9999637603759766,-0.9644935727119446,-0.012316312050386118,-0.0022172105385360945,0.17468393714336314,0.13766309470593063,-0.011496631648387637,0.029490628767826356,-0.016540355640111026,0.08481228599984987,-0.01361113333320737,-0.0016958772244568098,-0.11684532764616293,0.06209135305503969,0.014850972220301628,1.0533812046051025,0.04635198414325714,0.18281885981559753,1.0762670040130615,0.027781397104263306,0.16687849164009094,0.5794916152954102,0.005778804421424866,0.3618553578853607,0.6566769480705261,0.005106911063194275
0.17686510041540532,0.8865905270593151,0.3899914702637648,0.5993255577579246,0.009271420218630646,-0.039792041582066236,0.799462012863659,0.018276995284710607,0.009968089474563513,-0.0005382436451206729,-35.48147130469999,153.03016565514474,-666.1991019327586,-0.04288724437355995,0.27609044313430786,-0.07545710355043411,0.13208678364753723,0.6508976817131042,0.6410776376724243,0.8320895433425903,0.7580434679985046,-1.2462533712387085,-1.0843710899353027,-0.9999637603759766,-0.9644935727119446,-0.017238563416223165,-0.008252782305960852,0.1572573580711279,0.12381354626953478,-0.015275423791778167,0.02707648461392828,-0.024470637060493475,0.07886771025603401,-0.008836364230348462,-0.005228608729652802,-0.09540798529197159,0.05189176588620126,0.014751067385077477,1.053320050239563,0.04639643430709839,0.18269667029380798,1.0763078927993774,0.027750253677368164,0.1670554131269455,0.5795199275016785,0.005817517638206482,0.3619839549064636,0.6568261981010437,0.005051463842391968
0.17700358281608675,0.8866658696033455,0.3899875627940045,0.5991177657298414,0.00942683462165992,-0.039589489447220384,0.7996259812569918,0.016617888081771337,0.009041105283649209,-0.0004688963712373706,-36.03100326691432,152.0447296237218,-666.2679346352437,-0.04361523315310478,0.27540239691734314,-0.0744423121213913,0.13297738134860992,0.6506475806236267,0.6417104005813599,0.8318811655044556,0.7593876719474792,-1.2460190057754517,-1.0848546028137207,-1.0005595684051514,-0.9647818207740784,-0.021560021596496354,-0.013785708462254546,0.13905416230381065,0.10974307229514124,-0.018077852419516496,0.025197841652765944,-0.03132678392892917,0.07392809180724048,-0.004465855819545596,-0.008749550980902656,-0.07359702823663009,0.04021785069875535,0.014872156083583832,1.053377628326416,0.04637204110622406,0.18286263942718506,1.0762748718261719,0.027781158685684204,0.16677236557006836,0.5796173214912415,0.005922183394432068,0.3618841767311096,0.6564411520957947,0.005058705806732178
0.17713009976470923,0.8867328812989603,0.38998462758881625,0.5989362641493353,0.009586392708674757,-0.03937329638851061,0.7997707147008919,0.015182033834697517,0.008041403473781905,-0.00035222462258843734,-36.60254601638503,151.0311990812646,-666.358273448688,-0.04361523315310478,0.27540239691734314,-0.0744423121213913,0.13297738134860992,0.6506475806236267,0.6417104005813599,0.8318811655044556,0.7593876719474792,-1.2460190057754517,-1.0848546028137207,-1.0005595684051514,-0.9647818207740784,-0.025302379320429516,-0.0186788942860828,0.12254685786084979,0.09739792211814596,-0.01968030817539177,0.02453830292775168,-0.03600714941620525,0.0713146016844339,-0.0007640513107186296,-0.012143838901834316,-0.05472481813952143,0.02844196345491737,0.014747830107808113,1.053310751914978,0.04642269015312195,0.18271803855895996,1.076285719871521,0.027744591236114502,0.16685546934604645,0.5796168446540833,0.005974262952804565,0.3619299530982971,0.6565343737602234,0.005001351237297058
0.17724213818503765,0.8867900565632572,0.3899826196155032,0.5987837460908361,0.009745896332949412,-0.03915075638455978,0.7998939062129486,0.013444610439410365,0.006861031715619248,-0.00024095679756808153,-37.17872708731835,150.01137226129114,-666.4649973251718,-0.04361523315310478,0.27540239691734314,-0.0744423121213913,0.13297738134860992,0.6506475806236267,0.6417104005813599,0.8318811655044556,0.7593876719474792,-1.2460190057754517,-1.0848546028137207,-1.0005595684051514,-0.9647818207740784,-0.028584710328901745,-0.022967480384288433,0.10876029987573649,0.0874964953304837,-0.020077243835497444,0.025351759555175005,-0.03765901339040753,0.07127218292903353,0.0022715983204813204,-0.01535652868850211,-0.04099102879682953,0.01763906874999449,0.01461760699748993,1.0532426834106445,0.04647454619407654,0.18256887793540955,1.0762828588485718,0.027707234025001526,0.16689814627170563,0.579603910446167,0.006030231714248657,0.3619406521320343,0.656600832939148,0.004945114254951477
0.17733703203551934,0.886836888217717,0.38998011909782965,0.5986640969594956,0.009899180321240078,-0.038934480513765864,0.7999921321286619,0.011387262057803715,0.005619798535181353,-0.00030006212082378525,-37.7335170419185,149.0228040574095,-666.5827838944673,-0.04486154764890671,0.2741442620754242,-0.07398074120283127,0.1334790587425232,0.6503323316574097,0.6425045132637024,0.8313099145889282,0.761260986328125,-1.2456470727920532,-1.0857160091400146,-1.000386357307434,-0.9665933847427368,-0.03142109098881087,-0.026661068237003423,0.09725580398545891,0.07952466975079207,-0.019409919919324475,0.02731981904986887,-0.036022488476609875,0.07293249156632894,0.004753935307139896,-0.01828137661018066,-0.032865257373465774,0.00831154313266701,0.014901159331202507,1.053354263305664,0.046402379870414734,0.1829359382390976,1.0762869119644165,0.027782857418060303,0.16670440137386322,0.5796997547149658,0.006043180823326111,0.3618541955947876,0.6562937498092651,0.005109548568725586
0.17741307621898195,0.8868788887116469,0.3899764763023619,0.5985784540898494,0.01004275624214702,-0.03873528520381699,0.8000640943241021,0.009125302015512426,0.005040059271586017,-0.0004371354561327756,-38.25172614153128,148.11468782789441,-666.7026547960378,-0.04486154764890671,0.2741442620754242,-0.07398074120283127,0.1334790587425232,0.6503323316574097,0.6425045132637024,0.8313099145889282,0.761260986328125,-1.2456470727920532,-1.0857160091400146,-1.000386357307434,-0.9665933847427368,-0.03377342863286388,-0.029776857161830927,0.08667119485360669,0.0722146080108737,-0.017927342760115837,0.029723570961580473,-0.03162891693859464,0.07488002886976597,0.006806688115645209,-0.02081041258228808,-0.029102504480388508,0.00013455109343279287,0.014779461547732353,1.0533056259155273,0.04644843935966492,0.18280017375946045,1.0762757062911987,0.027748137712478638,0.16667701303958893,0.579681396484375,0.00609077513217926,0.36180800199508667,0.6563217639923096,0.0050558000802993774
0.17746677983388845,0.8869159147956689,0.3899714988223087,0.5985328057709635,0.010170316158478241,-0.03855806962530026,0.8001051933039462,0.006444433788780346,0.004443130082640856,-0.0005972976063817192,-38.7250234189008,147.31553357543794,-666.8210931403239,-0.04486154764890671,0.2741442620754242,-0.07398074120283127,0.1334790587425232,0.6503323316574097,0.6425045132637024,0.8313099145889282,0.761260986328125,-1.2456470727920532,-1.0857160091400146,-1.000386357307434,-0.9665933847427368,-0.03582740758100336,-0.03257649052852386,0.07562927690009935,0.06434060801577318,-0.01599937751625237,0.03187834435610498,-0.02575380199931772,0.0761056473325035,0.008573252814642478,-0.023023198362282053,-0.027413166540624076,-0.008080412812928548,0.014669081196188927,1.0532747507095337,0.046488285064697266,0.18267890810966492,1.0762652158737183,0.027715787291526794,0.1666143238544464,0.5796657800674438,0.0061311423778533936,0.3617344796657562,0.6563325524330139,0.0050056129693984985
0.17749628934241984,0.8869476649861807,0.3899650371108669,0.5985314774024965,0.010277252944310214,-0.038404784050022005,0.8001121928782081,0.003541141023767347,0.003810022861419071,-0.0007754053730169019,-39.13867704779323,146.64578574146833,-666.9379138671296,-0.04486154764890671,0.2741442620754242,-0.07398074120283127,0.1334790587425232,0.6503323316574097,0.6425045132637024,0.8313099145889282,0.761260986328125,-1.2456470727920532,-1.0857160091400146,-1.000386357307434,-0.9665933847427368,-0.03781603028989279,-0.035343489817527274,0.06342277278253,0.05527533451495492,-0.014021540976915207,0.03329937883342869,-0.019929192900724924,0.07616024244506059,0.010147477008423042,-0.025055506456870283,-0.025503163513641444,-0.017474123718411512,0.014573249965906143,1.0532625913619995,0.046519964933395386,0.18257594108581543,1.0762543678283691,0.027685165405273438,0.16651447117328644,0.5796521306037903,0.00616474449634552,0.3616325557231903,0.6563230156898499,0.0049610137939453125
0.17750496952609798,0.8869782483457018,0.38995741274358936,0.598568915844548,0.01036135897887526,-0.03827544383229343,0.8000892985312541,0.0010416220413766997,0.0036700031425329627,-0.0009149240733030695,-39.481740434573545,146.11128229695552,-667.0525486242606,-0.046034470200538635,0.2727837562561035,-0.07502048462629318,0.13278557360172272,0.6501160860061646,0.6432360410690308,0.8313156962394714,0.7626073956489563,-1.2448102235794067,-1.086639642715454,-0.9996137022972107,-0.9697632193565369,-0.03951928302211515,-0.037867027708456416,0.05005720583821767,0.04498065606617646,-0.012232801841545692,0.033556099326458325,-0.015248995859714485,0.07453874769017348,0.011478839983838123,-0.026753003069210524,-0.02189017857711257,-0.028030187778006595,0.014918571338057518,1.0533310174942017,0.04636360704898834,0.18303340673446655,1.0763068199157715,0.027775347232818604,0.1667965054512024,0.5795987248420715,0.006102621555328369,0.3617352545261383,0.6565240025520325,0.005255311727523804
0.1774953308070663,0.8870089297469969,0.38994938138235613,0.5986382226871906,0.010420503558205285,-0.03816420213123272,0.8000419895975471,-0.001156646283800855,0.003681768155403553,-0.000963763347987534,-39.752550417589845,145.6936464832615,-667.1659366355474,-0.046034470200538635,0.2727837562561035,-0.07502048462629318,0.13278557360172272,0.6501160860061646,0.6432360410690308,0.8313156962394714,0.7626073956489563,-1.2448102235794067,-1.086639642715454,-0.9996137022972107,-0.9697632193565369,-0.0404351462623781,-0.03965965564637029,0.03581519408701361,0.03367184479795497,-0.010694615294594666,0.03240075851103047,-0.01202967194723719,0.07074818688118523,0.01256891590749483,-0.02781165643881159,-0.01603954316101574,-0.039064517980880384,0.01485525630414486,1.0533517599105835,0.046376168727874756,0.18296942114830017,1.0762985944747925,0.027746140956878662,0.16664759814739227,0.5795907378196716,0.006129413843154907,0.36159852147102356,0.6564846038818359,0.005228370428085327
0.17746795603698828,0.8870391766545874,0.3899412721435378,0.5987381746224552,0.010455596283716508,-0.038069735047500664,0.7999712332512562,-0.003284972409363096,0.0036296289108683766,-0.0009731086581998838,-39.941739034422824,145.3788131512786,-667.2797114198116,-0.046034470200538635,0.2727837562561035,-0.07502048462629318,0.13278557360172272,0.6501160860061646,0.6432360410690308,0.8313156962394714,0.7626073956489563,-1.2448102235794067,-1.086639642715454,-0.9996137022972107,-0.9697632193565369,-0.040454091106267145,-0.040677574752739296,0.02090879446084104,0.02159221366568126,-0.009425185561633673,0.030100488113536272,-0.009967969712139035,0.06503146669803575,0.013746855421374826,-0.02825359098703091,-0.00807039939946732,-0.05056579065240566,0.014806492254137993,1.053384780883789,0.04637947678565979,0.18292288482189178,1.076289176940918,0.027717038989067078,0.1664779782295227,0.5795830488204956,0.006155788898468018,0.36144721508026123,0.6564300656318665,0.005211874842643738
0.17742387935530704,0.8870705961360095,0.3899331553576606,0.5988671972907625,0.010471548331902213,-0.037993685430152864,0.7998780573012828,-0.005289201801749188,0.0037703377706455043,-0.0009740143052638928,-40.0555587603459,145.17117987691955,-667.3917831920186,-0.04632618650794029,0.2722664177417755,-0.07665777206420898,0.13136295974254608,0.6502294540405273,0.643610417842865,0.8314318060874939,0.7626581192016602,-1.24413001537323,-1.0872422456741333,-0.997904360294342,-0.9721992015838623,-0.03990006103195219,-0.041313857796217636,0.005621851603637155,0.009089809670566022,-0.00843441353615251,0.02733077319841347,-0.008497141476592987,0.058330174894378514,0.015486076130990158,-0.02842441083027697,0.0014558938806088022,-0.06300617033698981,0.014920201152563095,1.0533183813095093,0.04626832902431488,0.18309947848320007,1.0763190984725952,0.02776169776916504,0.1669735163450241,0.5793747901916504,0.0060250163078308105,0.3616590201854706,0.6569730639457703,0.00543724000453949
0.1773631561882526,0.8871027970597062,0.3899249510661324,0.5990241877265049,0.01047015359780099,-0.03793200579989708,0.7997634408612563,-0.007286780046532604,0.003864110843605495,-0.0009845149833842548,-40.11446569623273,145.06046203355666,-667.5025732576783,-0.04632618650794029,0.2722664177417755,-0.07665777206420898,0.13136295974254608,0.6502294540405273,0.643610417842865,0.8314318060874939,0.7626581192016602,-1.24413001537323,-1.0872422456741333,-0.997904360294342,-0.9721992015838623,-0.0389626962630453,-0.041762270026804604,-0.009548115539809596,-0.0033951436087730907,-0.007619190291966005,0.024718198361908292,-0.00707397580588719,0.05143441134241092,0.017996877287123354,-0.02860475265802287,0.011839505906503175,-0.07619937847073313,0.014894301071763039,1.0533808469772339,0.04625828564167023,0.18308091163635254,1.0763145685195923,0.027735024690628052,0.1667606383562088,0.5793745517730713,0.006046906113624573,0.3614761233329773,0.6568974256515503,0.0054350346326828
0.1772855625502687,0.8871338039393826,0.38991636385350675,0.599209866790403,0.010454921477830647,-0.03788122715299057,0.7996269397583498,-0.009311236558068314,0.0037208255611664853,-0.001030465515077239,-40.12779623063149,145.03501475223754,-667.6141121638688,-0.046319976449012756,0.2720996141433716,-0.07809320837259293,0.13002397119998932,0.6505556106567383,0.6438036561012268,0.8313935995101929,0.7624613046646118,-1.2440129518508911,-1.0876057147979736,-0.99602872133255,-0.9739235043525696,-0.037441057521715185,-0.04177749607922408,-0.02420739780954684,-0.01565524320114164,-0.006705589239147747,0.02260421901821042,-0.005338332879085101,0.04448535910149194,0.021137214676078396,-0.028878502649257707,0.022788478395080736,-0.08925810791341114,0.01491125300526619,1.053326964378357,0.04622432589530945,0.18314041197299957,1.0763269662857056,0.02774980664253235,0.16713351011276245,0.5791683793067932,0.005901739001274109,0.3616316616535187,0.6573523283004761,0.0056083351373672485
0.17719292036271328,0.8871641785041537,0.38990753791410854,0.5994237109854401,0.01042982460913473,-0.037839806573360314,0.7994689377990598,-0.011117062506650344,0.003644947772540874,-0.0010591127277859158,-40.10691328659819,145.08660406127024,-667.7276684193607,-0.046319976449012756,0.2720996141433716,-0.07809320837259293,0.13002397119998932,0.6505556106567383,0.6438036561012268,0.8313935995101929,0.7624613046646118,-1.2440129518508911,-1.0876057147979736,-0.99602872133255,-0.9739235043525696,-0.034943626039806,-0.040907983242796195,-0.03826547078239485,-0.027821659820797935,-0.005313326868779927,0.02106629647417789,-0.003206001631834184,0.037172166495255454,0.024476153773890084,-0.029214512956689934,0.03459688170855369,-0.10119715551578637,0.01489710621535778,1.0534133911132812,0.04620543122291565,0.18313796818256378,1.0763219594955444,0.027724027633666992,0.16686579585075378,0.5791701078414917,0.005920574069023132,0.36140555143356323,0.6572503447532654,0.005614563822746277
0.17708714327670724,0.887191894712785,0.3898985660997558,0.5996622580448784,0.010396599351560303,-0.037805410055359194,0.7992920855162944,-0.012693250320724436,0.003325945035754785,-0.0010766177223264783,-40.06289740526468,145.20300369581972,-667.8441487701099,-0.0462222620844841,0.27200958132743835,-0.07984200865030289,0.1283595860004425,0.6510323286056519,0.6439458727836609,0.8315947651863098,0.7618683576583862,-1.2441273927688599,-1.0879287719726562,-0.9941832423210144,-0.9752877950668335,-0.03113774738674963,-0.03873072268485172,-0.051675947037340374,-0.04004309435955278,-0.003074885811965134,0.0199655604970343,-0.0008768596333509018,0.029117422138060747,0.027276280007133644,-0.029475704887533174,0.047694521723368674,-0.11105319469096955,0.014893118292093277,1.0533576011657715,0.046199098229408264,0.18317873775959015,1.0763345956802368,0.02773424983024597,0.16731339693069458,0.5789183974266052,0.0057838112115859985,0.3616101145744324,0.6577792167663574,0.005764633417129517
0.17697049726924952,0.8872140048706451,0.3898895588963685,0.5999217492819728,0.010353397913439047,-0.037771033998179465,0.7990995250160096,-0.013997520894927229,0.0026532189432026954,-0.0010808644064774775,-40.001111991334035,145.35795401133683,-667.9670474943374,-0.0462222620844841,0.27200958132743835,-0.07984200865030289,0.1283595860004425,0.6510323286056519,0.6439458727836609,0.8315947651863098,0.7618683576583862,-1.2441273927688599,-1.0879287719726562,-0.9941832423210144,-0.9752877950668335,-0.02591903525079564,-0.035014867796742205,-0.06421407539993608,-0.05221691485476511,0.00024723564768253624,0.01901997859692371,0.001323718910553849,0.020106950001986673,0.028601642905736753,-0.02943240447958355,0.06207340343469124,-0.11782440871714625,0.014885703101754189,1.0534512996673584,0.04617321491241455,0.18318624794483185,1.076317310333252,0.027706831693649292,0.166998490691185,0.5789094567298889,0.005804866552352905,0.3613463044166565,0.6576442122459412,0.005778804421424866
0.17684635148804884,0.8872316364587705,0.3898809514923253,0.6001968300705343,0.010307407096723264,-0.037736071642718604,0.7988951817536518,-0.014897493744081558,0.00211579057504796,-0.0010328884851817932,-39.92078357400821,145.5446331427903,-668.0950381625732,-0.04608665779232979,0.27194976806640625,-0.08185780048370361,0.12642337381839752,0.6515191197395325,0.6440006494522095,0.8317660689353943,0.7610556483268738,-1.2443307638168335,-1.0882594585418701,-0.992112934589386,-0.9766281247138977,-0.0195048570747916,-0.02984971309049973,-0.07556069423556341,-0.06402290969834576,0.004673023979155462,0.017925439117283625,0.003176229354374104,0.010149549671924501,0.027628238058758487,-0.028862806491005435,0.07705047081035725,-0.12065903653949708,0.01486712321639061,1.0534021854400635,0.04617585241794586,0.18321119248867035,1.076342225074768,0.027713969349861145,0.16750949621200562,0.5786353945732117,0.005648404359817505,0.36159226298332214,0.6582385301589966,0.00593683123588562
0.1767172411256771,0.8872438907056432,0.389873196117133,0.6004821724220051,0.010258695330696697,-0.03769795253744195,0.7986831562941253,-0.015493243484607788,0.0014705096247347171,-0.0009306450230783803,-39.837033835779124,145.74102436890237,-668.2290164203879,-0.04602104425430298,0.27191656827926636,-0.08293519169092178,0.12538036704063416,0.6517599821090698,0.6439958810806274,0.8314521312713623,0.7609296441078186,-1.2444721460342407,-1.088422179222107,-0.9903860092163086,-0.9778838157653809,-0.012411429402461385,-0.023671838668950288,-0.08557235976040764,-0.07517223219846116,0.009982413755830005,0.016457911941775604,0.004639554721364606,-0.0005449082331277257,0.023958730203452967,-0.02767925107106039,0.09158809231310584,-0.1192834036360728,0.014851408079266548,1.0534279346466064,0.046168625354766846,0.18322525918483734,1.0763453245162964,0.027702346444129944,0.16761818528175354,0.5784924626350403,0.005510196089744568,0.36159104108810425,0.6584728956222534,0.006088361144065857
0.17658481173795432,0.8872495490847562,0.38986687428816663,0.6007739736780804,0.01020885700654545,-0.037660417982055966,0.7984660949013965,-0.015891526526734534,0.0006790054935512657,-0.0007586194759645615,-39.74246642659835,145.94614649490856,-668.3668413942489,-0.04595468193292618,0.2718842625617981,-0.08403458446264267,0.1243131011724472,0.6519569158554077,0.6439648866653442,0.8314657807350159,0.7604490518569946,-1.2445677518844604,-1.088568925857544,-0.9892033338546753,-0.9785705208778381,-0.005321982143815236,-0.01717322508459542,-0.09457274284090889,-0.08572332095604293,0.015777577847301424,0.014516988711463034,0.005692436468388044,-0.01159502300224531,0.017767849151605324,-0.026010470176984397,0.10507163705765807,-0.11450143050188652,0.01483391597867012,1.0534571409225464,0.04615706205368042,0.1832372546195984,1.076347827911377,0.027690201997756958,0.16772089898586273,0.5783376693725586,0.005431324243545532,0.3615840673446655,0.6587113738059998,0.006183072924613953
0.1764505816519974,0.8872485409740571,0.3898619452572555,0.6010692644951929,0.010152829811417016,-0.03762204887739741,0.7982463534300017,-0.016107610314830545,-0.00012097328388360751,-0.0005914837093379255,-39.636827299412936,146.1510822258738,-668.5085614344005,-0.04588818550109863,0.27185866236686707,-0.08514737337827682,0.12323291599750519,0.652117908000946,0.6439024209976196,0.8314597010612488,0.7599124908447266,-1.244654893875122,-1.0887171030044556,-0.9880159497261047,-0.9792220592498779,0.0010786210654804246,-0.011127751772837206,-0.1032743288503905,-0.09607176647241236,0.021551949764591804,0.012116306222650995,0.006151956495696168,-0.022449496164159033,0.009768606446148133,-0.02416292122654492,0.11772197309012676,-0.10820252062283592,0.014816032722592354,1.0534884929656982,0.04614345729351044,0.18324652314186096,1.0763508081436157,0.02767755091190338,0.1678253412246704,0.5781797766685486,0.0053544193506240845,0.36157718300819397,0.6589517593383789,0.0062777698040008545
0.17631569300723937,0.8872399217558515,0.3898587567856262,0.6013662153979678,0.010092712905497224,-0.037587697488628696,0.79802504792872,-0.01618663737096293,-0.0010343061846729285,-0.00038261659551341864,-39.50422479697109,146.36953583889766,-668.6504172690409,-0.04581544175744057,0.2718460261821747,-0.08625519275665283,0.12215873599052429,0.6522371172904968,0.6438143253326416,0.8314384818077087,0.7593324184417725,-1.2447266578674316,-1.0888487100601196,-0.9868149161338806,-0.9798398613929749,0.006234816648135071,-0.00619335294159978,-0.11219546863876637,-0.10645665724150981,0.026696088996083157,0.00933958032221231,0.005739050783416883,-0.03245819957923915,0.0010710491825902094,-0.022459520085782395,0.12999282818754979,-0.10248216832760874,0.01479693315923214,1.0535244941711426,0.04612889885902405,0.18325316905975342,1.0763511657714844,0.02766481041908264,0.16792979836463928,0.5780163407325745,0.005277529358863831,0.3615683913230896,0.6591920852661133,0.006370916962623596
0.17618084684116084,0.8872246298499173,0.3898573301268954,0.6016629805583962,0.010023853283285934,-0.03755884630607531,0.7978035555543099,-0.01618153992942406,-0.0018350287121027264,-0.000171199047698245,-39.34382572094303,146.6019083986896,-668.7912819580466,-0.04572930186986923,0.2718573808670044,-0.08734600991010666,0.12110516428947449,0.6523076295852661,0.6436952948570251,0.8314014077186584,0.7586967945098877,-1.2447941303253174,-1.0889747142791748,-0.9856207370758057,-0.9804120659828186,0.009811929360976336,-0.002755418909337695,-0.12117693334011506,-0.11654167002390949,0.030533486959050102,0.0062909585323956295,0.004342155278514346,-0.04110451485161891,-0.007049448024139123,-0.021089967972988514,0.14168319870303434,-0.09854344670180082,0.014776216819882393,1.0535674095153809,0.04611337184906006,0.18325552344322205,1.076351284980774,0.027652382850646973,0.16803431510925293,0.5778502225875854,0.00520305335521698,0.36155691742897034,0.6594328880310059,0.006462320685386658
0.17604641059957,0.8872028734680278,0.38985747346875654,0.6019584050237278,0.00994613480518679,-0.03753815852447436,0.7975826224776453,-0.016132348990901546,-0.0026107658267404688,1.7201023339019628e-05,-39.143777431312756,146.8607589048142,-668.9279380804775,-0.04562690481543541,0.2718970477581024,-0.08840879052877426,0.12008149921894073,0.6523396968841553,0.6435493230819702,0.8313559293746948,0.7580138444900513,-1.2448617219924927,-1.089088797569275,-0.9844335913658142,-0.9809274673461914,0.011753672152857747,-0.0008555663981119088,-0.1294521300912251,-0.12549911448497997,0.0324609267692116,0.003063770304398288,0.002165251370380546,-0.048228156420587864,-0.013452646171203345,-0.020072529398916416,0.151792400269824,-0.09631368466498091,0.014754712581634521,1.0536153316497803,0.0460972785949707,0.18325409293174744,1.0763499736785889,0.027640312910079956,0.16813808679580688,0.5776793956756592,0.0051308274269104,0.3615434169769287,0.6596708297729492,0.006550908088684082
0.1759128104843563,0.8871754945197303,0.3898588727651633,0.6022513148772072,0.009859781453768902,-0.03752461152856399,0.7973631807200464,-0.01603201382564201,-0.0032854737957022095,0.00016791556880946246,-38.909011354741175,147.14835498803052,-669.0587411943366,-0.04550977423787117,0.27196455001831055,-0.08944441378116608,0.1190929114818573,0.6523342132568359,0.6433824300765991,0.8313043713569641,0.7572920918464661,-1.2449370622634888,-1.0891982316970825,-0.9832643270492554,-0.9813804626464844,0.012285357414957504,-0.0002113168782953109,-0.13604773049421634,-0.1323865875609854,0.032115460434468925,-0.00027045638894184474,-0.000361453626119582,-0.05404953228929154,-0.017405477247336223,-0.01929990397153618,0.1590649347090716,-0.09481873276379385,0.014732180163264275,1.0536694526672363,0.0460813045501709,0.18324869871139526,1.07634699344635,0.027628690004348755,0.1682417094707489,0.5775057673454285,0.0050615668296813965,0.36152756214141846,0.6599019765853882,0.00663621723651886
0.17578141473583475,0.887145213501461,0.38986168998922344,0.6025401424778918,0.00976773705403559,-0.037521949123766184,0.7971462045004785,-0.0157674898225868,-0.0036337221923155028,0.00033806688721771394,-38.63786103085799,147.4722589501517,-669.1810764362978,-0.04550977423787117,0.27196455001831055,-0.08944441378116608,0.1190929114818573,0.6523342132568359,0.6433824300765991,0.8313043713569641,0.7572920918464661,-1.2449370622634888,-1.0891982316970825,-0.9832643270492554,-0.9813804626464844,0.011842773534767315,-0.0003158790001581946,-0.1401074896020283,-0.136435176004377,0.029477904273135694,-0.0036462922798245123,-0.0027661643932816605,-0.0589785507446013,-0.018723594595719602,-0.01860531684530304,0.16254200325428975,-0.0927831723342962,0.014762597158551216,1.0537207126617432,0.04604777693748474,0.1832977831363678,1.0762735605239868,0.027612626552581787,0.16792985796928406,0.5774408578872681,0.005095839500427246,0.3612755835056305,0.6596964597702026,0.006684660911560059
0.17565434368479338,0.887114259512275,0.38986735694714836,0.6028205643984568,0.009662910266129187,-0.03752841028246784,0.7969351377152256,-0.015248526124964634,-0.0037144787023279946,0.0006800349509905601,-38.329041124657365,147.81864014811296,-669.2964491611393,-0.04520408436655998,0.27220600843429565,-0.0913616269826889,0.11728488653898239,0.6522161960601807,0.6430027484893799,0.8315333724021912,0.7554414868354797,-1.245059847831726,-1.0893640518188477,-0.9815387725830078,-0.9814788699150085,0.010941101359782551,-0.0005897922389641084,-0.14096658703990644,-0.13709321782619432,0.024882418526282125,-0.0069622053321292164,-0.004654613089224891,-0.06332415048454551,-0.01774230623733322,-0.01781119739674644,0.16169262624657652,-0.08903879180404214,0.014683440327644348,1.0537958145141602,0.046047985553741455,0.18322601914405823,1.076337218284607,0.02760826051235199,0.16843467950820923,0.577146589756012,0.0049925297498703,0.36148348450660706,0.6603388786315918,0.0067331790924072266
0.17553429375776414,0.8870844094710619,0.3898769099895042,0.6030877579228996,0.009544707748517314,-0.037546085140509104,0.7967335478616091,-0.014405991243509053,-0.0035820049455637104,0.0011463650827003846,-37.95978665371566,148.1918975376557,-669.4021703914075,-0.04520408436655998,0.27220600843429565,-0.0913616269826889,0.11728488653898239,0.6522161960601807,0.6430027484893799,0.8315333724021912,0.7554414868354797,-1.245059847831726,-1.0893640518188477,-0.9815387725830078,-0.9814788699150085,0.010059557738632027,-0.0005177492246712233,-0.1382670495499131,-0.13411070885616155,0.018932475372586924,-0.010075563172584793,-0.0057049795420364355,-0.06724718276217723,-0.015159878606410472,-0.016772565503704318,0.15637836395567695,-0.08268873583182876,0.01474030502140522,1.0538392066955566,0.04601025581359863,0.18330156803131104,1.0762642621994019,0.027599483728408813,0.16817596554756165,0.5770815014839172,0.005033060908317566,0.36128076910972595,0.6601430773735046,0.006800919771194458
0.17542425926858868,0.8870570265847214,0.38988937224015446,0.603336726174899,0.009416748636334162,-0.03757629168478841,0.7965451286630876,-0.01320413870105508,-0.003285946360862546,0.0014954700780323016,-37.535187843103145,148.5983603592702,-669.4931632804407,-0.044769320636987686,0.2726225256919861,-0.09292751550674438,0.11585486680269241,0.6520459055900574,0.6425597667694092,0.8312423825263977,0.7538255453109741,-1.2453174591064453,-1.0894418954849243,-0.9791649580001831,-0.9816977381706238,0.009597692742009226,0.0002804750057449275,-0.13230502434849042,-0.1278515488522641,0.01235831596219534,-0.012873603740817951,-0.005667052963618548,-0.07102460451452815,-0.01184439886073215,-0.015428312281817836,0.1471012837932671,-0.07326408544945825,0.014633160084486008,1.0539348125457764,0.04603379964828491,0.18319056928157806,1.07632315158844,0.02759230136871338,0.1686217486858368,0.5768101215362549,0.004869475960731506,0.3614351749420166,0.6607108116149902,0.006867557764053345
0.17532602893746646,0.887033616439934,0.3899030270829285,0.6035648162135125,0.009284035546357573,-0.03761973270763595,0.796371819581864,-0.011787639734666122,-0.002809217374495354,0.0016385811328856192,-37.07200288161463,149.03884649867476,-669.5656591971958,-0.044769320636987686,0.2726225256919861,-0.09292751550674438,0.11585486680269241,0.6520459055900574,0.6425597667694092,0.8312423825263977,0.7538255453109741,-1.2453174591064453,-1.0894418954849243,-0.9791649580001831,-0.9816977381706238,0.009865138696623792,0.002031960350451543,-0.12414407795310894,-0.11938923334478457,0.0058729749817995475,-0.01534020514445842,-0.004543935333918881,-0.0751130816770646,-0.008667593773428527,-0.01381628392851051,0.13535773407956225,-0.06098169536322823,0.014715984463691711,1.0539768934249878,0.04599463939666748,0.18329089879989624,1.0762653350830078,0.027592331171035767,0.16843631863594055,0.5767590999603271,0.004906982183456421,0.3612980842590332,0.6605474948883057,0.006945118308067322
0.1752405516076717,0.8870148990742637,0.3899175353772533,0.6037695078253796,0.009148649386344406,-0.03767394816493661,0.7962156474626522,-0.010257279575369704,-0.002246083880432792,0.001740995318977312,-36.58833138409555,149.50226865023575,-669.6194836223235,-0.044217102229595184,0.2732028663158417,-0.09404333680868149,0.11491376161575317,0.6518725156784058,0.6421240568161011,0.8309176564216614,0.7522534132003784,-1.2456762790679932,-1.0894218683242798,-0.9769942164421082,-0.9814904928207397,0.011058766488091206,0.0048143245354037596,-0.1151972962136748,-0.11010097036754181,6.302719244092328e-05,-0.017544852117858185,-0.002807472076519805,-0.07982897212135832,-0.006372794480615303,-0.012028347641180041,0.1235443652211103,-0.04685021276632016,0.014585060998797417,1.0540790557861328,0.04603816568851471,0.18314500153064728,1.0763068199157715,0.02758091688156128,0.16878512501716614,0.5765120387077332,0.004763931035995483,0.3613729774951935,0.6610080003738403,0.006960198283195496
0.17516814685708523,0.8870000360182735,0.38993033832372614,0.6039502871594693,0.009019127479238657,-0.03773896422171606,0.7960769287945607,-0.0086885700703776,-0.0017835667188226267,0.0015363535767387582,-36.101348087430914,149.99088788669775,-669.6519752727066,-0.044217102229595184,0.2732028663158417,-0.09404333680868149,0.11491376161575317,0.6518725156784058,0.6421240568161011,0.8309176564216614,0.7522534132003784,-1.2456762790679932,-1.0894218683242798,-0.9769942164421082,-0.9814904928207397,0.013236582324820053,0.008570127608214306,-0.10663166823949388,-0.10109820383433865,-0.004674512970921391,-0.019575884763565865,-0.0013176314129531193,-0.08506580173239628,-0.005468520389595936,-0.010147907091596912,0.11423523666589652,-0.03236567589911421,0.014682970941066742,1.0541234016418457,0.04600022733211517,0.18325820565223694,1.0762717723846436,0.02758723497390747,0.1686713844537735,0.5764825940132141,0.004789188504219055,0.36129799485206604,0.6608887314796448,0.007033362984657288
0.1751083846210314,0.8869884855498529,0.3899398194170145,0.6041074301329802,0.008901458453587243,-0.03781293187505615,0.7959555006899178,-0.007171468326460095,-0.0013860562104728302,0.001137731194602587,-35.64320509685219,150.49688828311554,-669.6630588597669,-0.044217102229595184,0.2732028663158417,-0.09404333680868149,0.11491376161575317,0.6518725156784058,0.6421240568161011,0.8309176564216614,0.7522534132003784,-1.2456762790679932,-1.0894218683242798,-0.9769942164421082,-0.9814904928207397,0.016266058968813567,0.013081157821157622,-0.09893608815968669,-0.0928335382684809,-0.008138585559353852,-0.021444496107078978,-0.0009295518895676711,-0.09020140428653811,-0.006131171682086045,-0.00821956045446327,0.1090939599000188,-0.01897976779068747,0.014781646430492401,1.0541707277297974,0.04596453905105591,0.1833706945180893,1.0762503147125244,0.027595415711402893,0.16858632862567902,0.5764666795730591,0.00480256974697113,0.36124664545059204,0.6607944965362549,0.007095828652381897
0.17506109841914114,0.8869820068233913,0.38994605432444207,0.6042401361000815,0.00879600086676871,-0.037893267475755305,0.7958521147641173,-0.00567434422683144,-0.0007774471753840828,0.0007481888913085655,-35.22807440711722,151.00293587779362,-669.6560088539753,-0.043312493711709976,0.27422255277633667,-0.09496230632066727,0.11434036493301392,0.6516605019569397,0.6416635513305664,0.830883264541626,0.750268816947937,-1.246169924736023,-1.089279055595398,-0.9748706221580505,-0.9806146621704102,0.019758685695511067,0.017907039273766735,-0.09176944135134887,-0.08499053500742496,-0.01028379954337469,-0.022991507831920995,-0.002048877192549268,-0.09410012664573665,-0.008132880125027737,-0.006261029405333412,0.1079643510966645,-0.007703324952921858,0.014525018632411957,1.0542817115783691,0.04605384171009064,0.18306788802146912,1.0762747526168823,0.02757181227207184,0.16897700726985931,0.5761457681655884,0.004670381546020508,0.3612586259841919,0.6613079905509949,0.0069873034954071045
0.17502743985147956,0.8869792412390782,0.3899500037628192,0.6043448336127285,0.008701846728880988,-0.03797821151059293,0.7957695994441905,-0.004039028119389165,-0.0003318701175736294,0.0004739326052538573,-34.853211578366675,151.4957341491149,-669.6328890147946,-0.043312493711709976,0.27422255277633667,-0.09496230632066727,0.11434036493301392,0.6516605019569397,0.6416635513305664,0.830883264541626,0.750268816947937,-1.246169924736023,-1.089279055595398,-0.9748706221580505,-0.9806146621704102,0.02321169328761198,0.02253433627207111,-0.08429320010096553,-0.07678172130400399,-0.011202391061117815,-0.02394185720787787,-0.004410997055361329,-0.09558370693510782,-0.010937605660947394,-0.00427553268116404,0.10903671357670064,0.0011426372274747007,0.014621013775467873,1.05433189868927,0.04602311551570892,0.18317446112632751,1.0762789249420166,0.027582615613937378,0.16895152628421783,0.5761545896530151,0.004664868116378784,0.36125603318214417,0.6612638831138611,0.00703074038028717
0.17500832020120305,0.8869801072154975,0.3899508416504636,0.604418613085219,0.008621874394460062,-0.03806779645523442,0.7957101521980912,-0.002294358033181343,0.00010391717030877601,0.00010054651733204523,-34.51927551222602,151.9727731971133,-669.592278772477,-0.043312493711709976,0.27422255277633667,-0.09496230632066727,0.11434036493301392,0.6516605019569397,0.6416635513305664,0.830883264541626,0.750268816947937,-1.246169924736023,-1.089279055595398,-0.9748706221580505,-0.9806146621704102,0.026317919670933235,0.026693049512979183,-0.0758711351539261,-0.06756210577435992,-0.011139650228731236,-0.024114466297922327,-0.007225088709082644,-0.09426109459456758,-0.013962116788444057,-0.0022556782923335208,0.110109537297163,0.007983584795139838,0.014713587239384651,1.054381251335144,0.045995473861694336,0.18327553570270538,1.0762959718704224,0.02759462594985962,0.16895942389965057,0.5761756896972656,0.004649028182029724,0.36128005385398865,0.6612468957901001,0.007063090801239014
0.17500488943784795,0.8869859051623207,0.38994835281986556,0.6044603254746097,0.008557042692654303,-0.038160788717667184,0.795674711268324,-0.00041169160261200766,0.0006957536187846003,-0.0002986596717668988,-34.235823533700916,152.42579472358815,-669.5344930793635,-0.043312493711709976,0.27422255277633667,-0.09496230632066727,0.11434036493301392,0.6516605019569397,0.6416635513305664,0.830883264541626,0.750268816947937,-1.246169924736023,-1.089279055595398,-0.9748706221580505,-0.9806146621704102,0.02892846344321546,0.030275187074463028,-0.06640670547990118,-0.05721696429707998,-0.010429210780093127,-0.023488148409260633,-0.009553887118008435,-0.09051882681711942,-0.016690770762328045,-0.0002336046873747874,0.1093897154070983,0.013537695396021655,0.014802373945713043,1.0544302463531494,0.045971035957336426,0.18337079882621765,1.076326847076416,0.027607440948486328,0.16900165379047394,0.5762097239494324,0.004622995853424072,0.361331582069397,0.6612585186958313,0.007083877921104431
0.1750179682373433,0.8869966335803696,0.3899424378332019,0.6044706308390724,0.00850910336849661,-0.038256207190545344,0.795662814403358,0.0015694559394430208,0.001287410165873304,-0.0007097983996362522,-34.008311335769974,152.8508601181149,-669.4601331171815,-0.042206790298223495,0.2755458652973175,-0.09481915831565857,0.11494811624288559,0.6516492366790771,0.6415001153945923,0.8311882615089417,0.7492353320121765,-1.2467517852783203,-1.088963270187378,-0.9734174013137817,-0.9798216819763184,0.03075421730981454,0.03297993439343782,-0.05608101994143704,-0.04603040152801079,-0.009348025140817435,-0.02206530747744076,-0.01065319028345878,-0.08467285317117108,-0.018630085007775125,0.0016724594328548143,0.10538978221413631,0.01815928375229109,0.01447824016213417,1.054466724395752,0.04609505832195282,0.18297412991523743,1.0762373208999634,0.02757054567337036,0.16913889348506927,0.5758448243141174,0.00456257164478302,0.36112555861473083,0.6614494323730469,0.006923258304595947
0.1750480433854973,0.887008218741907,0.3899333476784002,0.6044510526567812,0.008479198232546904,-0.03835393248960057,0.7956733023056796,0.0036090177784775523,0.0013902193844916866,-0.0010908185762059652,-33.84185792020223,153.2459962761918,-669.3702040007852,-0.042206790298223495,0.2755458652973175,-0.09481915831565857,0.11494811624288559,0.6516492366790771,0.6415001153945923,0.8311882615089417,0.7492353320121765,-1.2467517852783203,-1.088963270187378,-0.9734174013137817,-0.9798216819763184,0.03154529603798632,0.03453331616187451,-0.04508558762929746,-0.034334336927112435,-0.008046711465453018,-0.019845581774477046,-0.010105065178099233,-0.07679612669367197,-0.019466472316200682,0.003346364634086555,0.0972837297687002,0.021791522740446247,0.014559214934706688,1.054512858390808,0.04607899487018585,0.1830572485923767,1.0762922763824463,0.02758529782295227,0.1692458987236023,0.5759020447731018,0.004515513777732849,0.3612287640571594,0.6615138053894043,0.00691850483417511
0.17509465495492826,0.8870235979579708,0.38992133143074503,0.6044039269706717,0.008466443228328376,-0.03845269721433478,0.795704469309074,0.005593388331717186,0.0018455059276512031,-0.001441949718621327,-33.73952696822907,153.60781725667493,-669.266695692504,-0.042206790298223495,0.2755458652973175,-0.09481915831565857,0.11494811624288559,0.6516492366790771,0.6415001153945923,0.8311882615089417,0.7492353320121765,-1.2467517852783203,-1.088963270187378,-0.9734174013137817,-0.9798216819763184,0.03156215449571029,0.03524281353931513,-0.03366967048845848,-0.022347525872716364,-0.006597431593645384,-0.016956893845997995,-0.007816688641525512,-0.06733878052592401,-0.01932632311394171,0.004806623046464457,0.08569349955997305,0.0244177705256471,0.014636879786849022,1.0545587539672852,0.046067386865615845,0.1831352263689041,1.0763593912124634,0.027600958943367004,0.16938216984272003,0.5759708285331726,0.004459097981452942,0.3613552451133728,0.6616034507751465,0.0069017112255096436
0.17515763073082563,0.8870390589430427,0.3899072874901714,0.6043325242416855,0.008468625549092352,-0.038551210879920556,0.7957539108698578,0.007557093107684043,0.0018553182086256115,-0.0016852728688365737,-33.69614355201316,153.93297909772977,-669.1525568649837,-0.041500892490148544,0.2764178514480591,-0.09369193762540817,0.11632105708122253,0.6518651843070984,0.641686201095581,0.8318271040916443,0.7495858073234558,-1.247182846069336,-1.088634967803955,-0.9737443923950195,-0.979396641254425,0.03144640810453775,0.0358393211612961,-0.022227562367200047,-0.010303963309913925,-0.005049824541865436,-0.013678737179983441,-0.004020481187280222,-0.0572194590307978,-0.01867937095310326,0.006169721392796888,0.07241638971746911,0.026191899996600373,0.014469403773546219,1.0545275211334229,0.04615780711174011,0.18292465806007385,1.076219916343689,0.027576059103012085,0.16918213665485382,0.5757719874382019,0.004524648189544678,0.3610737919807434,0.6613724827766418,0.006776630878448486
0.1752357233359237,0.8870551685573229,0.38989223691322056,0.6042391284850018,0.00848556109509043,-0.03865036024483305,0.7958198417440544,0.009371112611766819,0.0019331537136269006,-0.001806069234100427,-33.704235670001296,154.22723376015313,-669.0285633831019,-0.041500892490148544,0.2764178514480591,-0.09369193762540817,0.11632105708122253,0.6518651843070984,0.641686201095581,0.8318271040916443,0.7495858073234558,-1.247182846069336,-1.088634967803955,-0.9737443923950195,-0.979396641254425,0.03166545641424648,0.03682794134666184,-0.011091928442258744,0.0015317075529100027,-0.0034131842144899723,-0.010283686136859718,0.0008249014422490181,-0.047156807878762336,-0.01799955778587621,0.007528137420907702,0.059113738407461286,0.0272156006692955,0.014544082805514336,1.0545670986175537,0.04615575075149536,0.18299633264541626,1.076301097869873,0.027594834566116333,0.1693701148033142,0.5758540630340576,0.004454627633094788,0.36124202609062195,0.6614978313446045,0.006740987300872803
0.17532727381645793,0.8870713379817082,0.3898768999126978,0.6041249574959977,0.008513786966963066,-0.038749137797409336,0.7959014106545468,0.01098605766410965,0.0019403309262377988,-0.0018404400627303197,-33.75974095780979,154.4879221006892,-668.8967638813795,-0.04106152430176735,0.27694353461265564,-0.09254638105630875,0.11755885928869247,0.6520019769668579,0.6418893337249756,0.8326159119606018,0.7500311732292175,-1.2473188638687134,-1.0883663892745972,-0.974936306476593,-0.9788832664489746,0.03232335411815465,0.03828341799403306,-0.0001931654376560979,0.013136822717414655,-0.0016215198294078385,-0.006893302449794809,0.006296844844854548,-0.037214934421968805,-0.01759801801311079,0.008938450791475832,0.04638087010406036,0.02750752608255415,0.014473812654614449,1.054534912109375,0.04620182514190674,0.18290525674819946,1.0762137174606323,0.02758459746837616,0.1691715121269226,0.5757847428321838,0.0045633018016815186,0.36106231808662415,0.6612609624862671,0.0066127777099609375
0.17543126160793848,0.8870896218356423,0.3898621144276096,0.6039911792141117,0.008552451857528356,-0.03884722320535048,0.795997741358608,0.012478534977665712,0.002194062472091751,-0.001774258210585078,-33.853182561962036,154.71784689915432,-668.7577206311331,-0.04106152430176735,0.27694353461265564,-0.09254638105630875,0.11755885928869247,0.6520019769668579,0.6418893337249756,0.8326159119606018,0.7500311732292175,-1.2473188638687134,-1.0883663892745972,-0.974936306476593,-0.9788832664489746,0.033285547521741066,0.04000570302842796,0.010903822906816867,0.024767060317406872,0.0004099171998961388,-0.003495060580010964,0.012185876329542274,-0.027023332982641673,-0.017581863867545504,0.010446264820403266,0.03373879858724736,0.027181311678170825,0.014546174556016922,1.0545679330825806,0.046209052205085754,0.18297173082828522,1.0763062238693237,0.027607738971710205,0.1694050282239914,0.5758772492408752,0.004486590623855591,0.36126741766929626,0.6614165306091309,0.006566181778907776
0.17554656266656146,0.8871113813721526,0.38984854044861217,0.6038382361714438,0.008595952648351304,-0.038939974140954604,0.7961087692955836,0.013836127034757562,0.0026111443812348867,-0.0016288774796913152,-33.97839417513001,154.90179573741455,-668.6160832260082,-0.040637508034706116,0.2774214744567871,-0.09112393856048584,0.11897686123847961,0.6520720720291138,0.6421328186988831,0.8333236575126648,0.7507970929145813,-1.2472200393676758,-1.088058352470398,-0.9762784242630005,-0.9785969257354736,0.034250418016481196,0.041596689898552044,0.022578067055643972,0.03658798812717701,0.002662623845791524,-5.911242294003478e-05,0.018425401823867812,-0.016257768526567982,-0.01778312322182324,0.012049261852029336,0.02013859253453346,0.026509934627160402,0.014485802501440048,1.0545141696929932,0.04623202979564667,0.18289849162101746,1.0762110948562622,0.027597546577453613,0.16913805902004242,0.5758458375930786,0.004605621099472046,0.3610810935497284,0.6611204743385315,0.0064583420753479
0.1756724431298817,0.8871385125564478,0.3898369059185528,0.6036671477923317,0.008643894595282257,-0.03902586146050874,0.7962337847013037,0.01510565559842858,0.0032557421154244537,-0.001396143607124145,-34.11887121111328,155.0365560840363,-668.4739524989716,-0.040637508034706116,0.2774214744567871,-0.09112393856048584,0.11897686123847961,0.6520720720291138,0.6421328186988831,0.8333236575126648,0.7507970929145813,-1.2472200393676758,-1.088058352470398,-0.9762784242630005,-0.9785969257354736,0.034825692399027136,0.042545605905759176,0.03482778386868316,0.048390038478105496,0.004949123958733773,0.0033730493398101287,0.02489436130415141,-0.004916171182195887,-0.017758966235469638,0.013672199775047994,0.004656893944645635,0.025790273955855182,0.014555184170603752,1.054537296295166,0.04624494910240173,0.1829594075679779,1.076309323310852,0.027621760964393616,0.16941289603710175,0.5759426355361938,0.004535257816314697,0.3613196015357971,0.6612986922264099,0.006412222981452942
0.17580827384969505,0.8871726732681072,0.3898277445609736,0.6034783821786301,0.008692323072272384,-0.03910084047752837,0.7963726577655849,0.01629968637760215,0.004099285399128405,-0.0010993629095068513,-34.26995579993299,155.1075798199867,-668.3357040813188,-0.04024181514978409,0.27784547209739685,-0.08944351226091385,0.12053045630455017,0.652134895324707,0.6424110531806946,0.8339351415634155,0.7516230344772339,-1.2470479011535645,-1.087762475013733,-0.9777674674987793,-0.9782357811927795,0.03468111412572438,0.0424173683235948,0.04726768630163734,0.05964008933175783,0.006955179092661719,0.006676607673833878,0.03126904007089158,0.0066829192569978265,-0.016938297830672897,0.015198280131926261,-0.012901178638383453,0.025166572313103368,0.014504224061965942,1.0544663667678833,0.04626138508319855,0.18290309607982635,1.076214075088501,0.027613669633865356,0.16907835006713867,0.5759505033493042,0.004674986004829407,0.36112716794013977,0.6609734892845154,0.006300747394561768
0.17595458997584132,0.8872149800963709,0.38982152438003476,0.6032714805641262,0.008740228791740912,-0.039163162589979116,0.7965258161758388,0.017557935137552105,0.005076819391640619,-0.0007464217126584849,-34.41822053611579,155.1084079788429,-668.2036556712732,-0.04024181514978409,0.27784547209739685,-0.08944351226091385,0.12053045630455017,0.652134895324707,0.6424110531806946,0.8339351415634155,0.7516230344772339,-1.2470479011535645,-1.087762475013733,-0.9777674674987793,-0.9782357811927795,0.03367682142225223,0.041019917707054265,0.05932343987072479,0.06971490997108032,0.008356108214367877,0.00968542729594023,0.03702032268857222,0.01801322383295562,-0.014851979949390068,0.0165124625435525,-0.031801585811733486,0.024603014922598754,0.014570077881217003,1.054476261138916,0.046277180314064026,0.18295803666114807,1.0763137340545654,0.027635663747787476,0.1693924218416214,0.5760465860366821,0.004622414708137512,0.36139729619026184,0.66116863489151,0.006264165043830872
0.17611086964836353,0.8872689695508086,0.38981814302611223,0.6030464983574334,0.008787673644606576,-0.03921131714134473,0.7966932723569309,0.01875356070266565,0.0064787345325223455,-0.00040576247070323035,-34.561413275503135,155.03446447926518,-668.0789360560051,-0.03988630697131157,0.27821505069732666,-0.08751287311315536,0.12221777439117432,0.65217524766922,0.6427313685417175,0.834364652633667,0.7524545192718506,-1.246826171875,-1.0875211954116821,-0.9793014526367188,-0.9777337312698364,0.03189827749206946,0.03845984161731263,0.07045887249743629,0.07813395890769387,0.008939073542643663,0.012251147067309199,0.0415365482491689,0.028457441565201302,-0.011332841378248202,0.017523944807339827,-0.05061561551939384,0.024011800575438072,0.014529228210449219,1.0543978214263916,0.04628744721412659,0.18291740119457245,1.0762231349945068,0.027631208300590515,0.1689923107624054,0.5761027932167053,0.004777818918228149,0.3611966073513031,0.6608197093009949,0.006147310137748718
0.17627722463072912,0.8873323234475157,0.3898174792354738,0.6028048100926642,0.008835883514832884,-0.039245182154396534,0.796873957266347,0.019962597883870226,0.007602467604850283,-7.965487661465431e-05,-34.700310495950134,154.88565945192502,-667.9619570633272,-0.03988630697131157,0.27821505069732666,-0.08751287311315536,0.12221777439117432,0.65217524766922,0.6427313685417175,0.834364652633667,0.7524545192718506,-1.246826171875,-1.0875211954116821,-0.9793014526367188,-0.9777337312698364,0.02960454707035462,0.03508759594533793,0.08034175970921778,0.08470454374112249,0.008669843571215783,0.01429238592168474,0.04428158749302716,0.03742594081228949,-0.006589470084718607,0.018168100882923068,-0.0676835196476833,0.02339866765826641,0.01458951085805893,1.0543981790542603,0.046306103467941284,0.18296411633491516,1.0763275623321533,0.02764977514743805,0.16934195160865784,0.5762012600898743,0.0047454833984375,0.36149492859840393,0.6610345244407654,0.006120935082435608
0.17645315325136177,0.8874068102343051,0.38981908885519806,0.6025451213997172,0.008884693471304396,-0.03926429070053332,0.7970688517155248,0.02111143447591779,0.008938414414734197,0.00019315436691424992,-34.837269995914575,154.65952683399377,-667.8532113451265,-0.03958360105752945,0.2785235643386841,-0.08534020185470581,0.12404143810272217,0.6522017121315002,0.6431113481521606,0.8346077799797058,0.7533316016197205,-1.2465661764144897,-1.0873386859893799,-0.9808387756347656,-0.9770635962486267,0.027129218583913973,0.03137595886699903,0.08891182858123628,0.08955576819420227,0.0076871845871090295,0.01581965924045328,0.04491904290224281,0.04447653972967591,-0.0011373673928966337,0.018400405272591812,-0.08158545225438998,0.022928831592495667,0.014560747891664505,1.0543137788772583,0.046311065554618835,0.18294091522693634,1.0762375593185425,0.027648940682411194,0.16887672245502472,0.5762999653816223,0.004914134740829468,0.36128729581832886,0.6606416702270508,0.0059986412525177
0.17663850950799662,0.8874929926129772,0.38982258931184643,0.6022674009905536,0.00893724593327075,-0.039271405184396375,0.797277780998602,0.022242750796181987,0.010341885440650067,0.0004200547978050473,-34.9731375443703,154.3647835975229,-667.750004024371,-0.03958360105752945,0.2785235643386841,-0.08534020185470581,0.12404143810272217,0.6522017121315002,0.6431113481521606,0.8346077799797058,0.7533316016197205,-1.2465661764144897,-1.0873386859893799,-0.9808387756347656,-0.9770635962486267,0.024777326476937006,0.027784026631059208,0.09635628627146248,0.09307713926968966,0.006246774321923498,0.016933288360753848,0.04337780616460843,0.04941409817484123,0.004362062680204803,0.018194736986776046,-0.09147450725828835,0.022898776314078127,0.014612449333071709,1.054308533668518,0.04633316397666931,0.18297630548477173,1.0763509273529053,0.027664080262184143,0.16926033794879913,0.5764053463935852,0.004898354411125183,0.3616119623184204,0.6608812808990479,0.005978628993034363
0.176832016115964,0.8875918317182145,0.3898273725713448,0.6019734185072723,0.008996444165396873,-0.039269000957820675,0.7974992244302322,0.0232207929560857,0.01186069262848033,0.0005739911398050523,-35.120476004314725,154.01258610430207,-667.6493803977401,-0.03933779150247574,0.27876198291778564,-0.08293281495571136,0.12600308656692505,0.6522508263587952,0.6435791850090027,0.8347240090370178,0.754353940486908,-1.2462658882141113,-1.087178111076355,-0.982380747795105,-0.9762389063835144,0.02275082962815611,0.024649166980998553,0.10302326902805191,0.09580005526710815,0.004647469593520389,0.017800278264959835,0.03985770628987315,0.052345459107781114,0.009284730164930073,0.017550924212623206,-0.09720945197955161,0.023644727879277766,0.014596913009881973,1.0542173385620117,0.04633475840091705,0.1829744428396225,1.0762574672698975,0.02766597270965576,0.16873279213905334,0.5765385627746582,0.005078107118606567,0.361402690410614,0.6604239344596863,0.0058517009019851685
0.1770327504991647,0.8876996325767884,0.38983323232941514,0.6016639521501478,0.00905784562009821,-0.03925307718367562,0.7977328124424867,0.024088125984084163,0.012936103028864387,0.0007031709684390819,-35.286115756297974,153.59192998315717,-667.5544455323798,-0.03924105316400528,0.2788519859313965,-0.081654854118824,0.12703023850917816,0.6523231863975525,0.6438469290733337,0.8351731300354004,0.7545701861381531,-1.2461628913879395,-1.0871127843856812,-0.9838727116584778,-0.9751688838005066,0.02112505279241675,0.02213673878634779,0.10940180342272635,0.09833781848107477,0.0031728988942964667,0.018639325664539817,0.03481838879561804,0.05369080675316462,0.013197614645965137,0.016513891800708787,-0.09940036789843136,0.025508437437012334,0.014617370441555977,1.054160237312317,0.046352922916412354,0.18299449980258942,1.0762684345245361,0.027673959732055664,0.16864241659641266,0.576661229133606,0.0052461177110672,0.361461341381073,0.6603013277053833,0.005716234445571899
0.17724046990830766,0.8878185564766509,0.38984005312777725,0.6013389949034096,0.009126354498379901,-0.03922523369415601,0.7979783856118949,0.024926329097155753,0.01427086798349464,0.0008184958034540557,-35.46243278561562,153.1125628591318,-667.4632468607361,-0.039165474474430084,0.2789153456687927,-0.08034326136112213,0.1280834972858429,0.6523804068565369,0.6441386342048645,0.8351989388465881,0.7551608681678772,-1.245989441871643,-1.0870486497879028,-0.9846842885017395,-0.9746504426002502,0.019875386121699704,0.020252666169228453,0.11622728458211824,0.10144152035503014,0.002065293429206117,0.019728012099264235,0.029005826480185015,0.0541239777353363,0.015946489516868296,0.015193660323177807,-0.09950684099756457,0.0289697376872974,0.014639684930443764,1.0541002750396729,0.04636393487453461,0.1830177903175354,1.0762814283370972,0.027681469917297363,0.168557271361351,0.5767995715141296,0.005347490310668945,0.36152949929237366,0.6601672172546387,0.005640000104904175
0.17745430996894018,0.887949109142073,0.389847733469223,0.6010007041445579,0.009201916885561975,-0.03918385191524972,0.7982343666445718,0.025660807275902364,0.015666319850660138,0.0009216409734924547,-35.664017012184615,152.56938583703067,-667.3768089283708,-0.03911466896533966,0.2789515554904938,-0.07900133728981018,0.12915125489234924,0.6524574160575867,0.6444520354270935,0.8351969122886658,0.7557922601699829,-1.2458115816116333,-1.0869907140731812,-0.985474169254303,-0.9741094708442688,0.018905098988975546,0.018873996659330882,0.12432640207756764,0.10586618533718564,0.0015114151415714697,0.02135464546056254,0.023395492221945677,0.05437317961331839,0.017637088271670164,0.013750572311562015,-0.09960548642475935,0.03465069185904698,0.01466415636241436,1.0540364980697632,0.04637536406517029,0.18304327130317688,1.0762972831726074,0.02768827974796295,0.16846752166748047,0.576945424079895,0.005452737212181091,0.3616026043891907,0.6600251197814941,0.005564510822296143
0.1776735138263031,0.8880892799418789,0.3898557899089842,0.6006519020177149,0.009283017715116956,-0.03912607031921789,0.7984987594266992,0.026304462883548485,0.016820495976705985,0.0009667727713380536,-35.89025761227237,151.95578872527796,-667.2981653665798,-0.039091262966394424,0.2789628803730011,-0.07764650136232376,0.13022886216640472,0.6525489687919617,0.6447839140892029,0.8351659178733826,0.7564471960067749,-1.2456315755844116,-1.086951494216919,-0.986248791217804,-0.97354656457901,0.01804091966273866,0.01776224000380316,0.1340130005013157,0.11189195220441471,0.0016150133758988136,0.02367955261560997,0.018858744918366192,0.05499845612889975,0.018529041067222852,0.01233680079990141,-0.10142671872045349,0.04283111886523621,0.014690807089209557,1.0539683103561401,0.04638630151748657,0.18306942284107208,1.07631516456604,0.027694106101989746,0.16837523877620697,0.5770983099937439,0.0055626630783081055,0.3616775870323181,0.6598761081695557,0.005489572882652283
0.17789721487376198,0.8882369405446778,0.38986424392578917,0.6002941911960187,0.009366255522808209,-0.03904879390296852,0.7987705233473021,0.02684412569506689,0.017719272335869896,0.0010144820165991497,-36.132394724652904,151.26162989497814,-667.2314520025672,-0.03909742087125778,0.2789516746997833,-0.07628464698791504,0.1313103586435318,0.6526488661766052,0.6451363563537598,0.8350946307182312,0.7571153044700623,-1.2454544305801392,-1.0869463682174683,-0.9869970083236694,-0.9729622602462769,0.017042845807920138,0.016599208079649937,0.14467434197487108,0.11900824830727234,0.002372037299452174,0.026636683990311896,0.01573088670587658,0.056346388070853,0.018929129372129965,0.011040190613362488,-0.10534449356035709,0.05288640913599485,0.014720018953084946,1.0538944005966187,0.04639548063278198,0.1830958127975464,1.076331615447998,0.027698710560798645,0.16828083992004395,0.5772544145584106,0.005678281188011169,0.3617546260356903,0.6597181558609009,0.005417287349700928
0.1781245609564328,0.8883934789063581,0.38987280891866816,0.5999296449830279,0.009452962532560115,-0.03895562157983311,0.7990478847461052,0.027281529920499814,0.01878460340163368,0.0010277991454787916,-36.377077083837094,150.49755862787515,-667.1757243463695,-0.039125993847846985,0.27892395853996277,-0.0749218612909317,0.13239657878875732,0.6527575254440308,0.6455098390579224,0.8349928855895996,0.7577976584434509,-1.2452741861343384,-1.0869622230529785,-0.9877129197120667,-0.9723551273345947,0.015663325479517164,0.015074053072286367,0.15501121931228076,0.1261293163470433,0.0036773129942181326,0.029971737533058068,0.013686129256433258,0.05860587883157869,0.019120963478470435,0.009862108831620867,-0.11027428998765051,0.06332594730432628,0.014750439673662186,1.0538177490234375,0.04640333354473114,0.18312151730060577,1.0763474702835083,0.02770198881626129,0.16818557679653168,0.5774145126342773,0.005797386169433594,0.36183181405067444,0.6595536470413208,0.005346029996871948
0.17835372462868762,0.8885583591142425,0.3898812256187196,0.5995621791887281,0.009540204660311424,-0.038848813560103244,0.7993278097667286,0.02749964067057742,0.019785624946129232,0.0010100040061700177,-36.62416474106971,149.67296052687192,-667.1304382485976,-0.03917083144187927,0.278888463973999,-0.0735720619559288,0.13347549736499786,0.6528745889663696,0.6458977460861206,0.8348666429519653,0.7584826350212097,-1.2450950145721436,-1.086998462677002,-0.9883996248245239,-0.971721351146698,0.013721953080947721,0.0129801069967141,0.16361782851428794,0.1320828603350126,0.005358696039656002,0.033359855613603724,0.01198378876206953,0.06180497985243196,0.019315451854140655,0.008721791839130199,-0.1144017555666069,0.07239803737317385,0.014782113954424858,1.0537399053573608,0.04640918970108032,0.1831454187631607,1.0763633251190186,0.0277034193277359,0.16809257864952087,0.5775778889656067,0.005919590592384338,0.36191144585609436,0.6593848466873169,0.005276516079902649
0.17858255905451634,0.8887297742316191,0.389888936304383,0.5991962771689862,0.009623689950349856,-0.038731745631357,0.7996068145650804,0.027460131099446006,0.020569814085193983,0.0009252822796090854,-36.85945264242692,148.80222736782852,-667.0954255463829,-0.039221618324518204,0.2788548469543457,-0.07223890721797943,0.13455042243003845,0.6529990434646606,0.6463009715080261,0.8347219228744507,0.7591617107391357,-1.2449182271957397,-1.0870603322982788,-0.9890545010566711,-0.9710792303085327,0.011158724248181689,0.01027617717621338,0.16948043811926997,0.1360273335003736,0.007218936340597771,0.03651890140782848,0.00984128982680744,0.06577789432441164,0.019624321274164292,0.007483130531038924,-0.1160696313924414,0.0787626826290773,0.014814598485827446,1.0536600351333618,0.046411991119384766,0.18316780030727386,1.0763773918151855,0.02770303189754486,0.16800186038017273,0.5777409076690674,0.006044536828994751,0.3619893491268158,0.6592143177986145,0.005210250616073608
0.17880853032008517,0.8889082392570673,0.3898957776725608,0.5988348749510635,0.009701593996724869,-0.038611577636371845,0.7998823774085146,0.02711655186826034,0.021415803053779214,0.0008209641813361479,-37.06675580542549,147.9132328838925,-667.0671902727127,-0.039266008883714676,0.27883240580558777,-0.07092893868684769,0.1356201171875,0.6531378030776978,0.6467230916023254,0.8345749974250793,0.7598372101783752,-1.2447431087493896,-1.087141752243042,-0.989682137966156,-0.9704208970069885,0.008055747265559448,0.007099159999183156,0.17222481232348685,0.1376585308564937,0.009074476678141598,0.03927774066008869,0.006732054479634451,0.07017611161927298,0.020063270974127495,0.006000604044930563,-0.11437568339229,0.08188850284591284,0.01484735868871212,1.0535801649093628,0.04641181230545044,0.18318893015384674,1.0763899087905884,0.027701884508132935,0.16791602969169617,0.5779039859771729,0.006170347332954407,0.36206668615341187,0.6590423583984375,0.0051467567682266235
0.17902980993141643,0.8890931727334599,0.3899014518389583,0.5984822561224826,0.009772262360644579,-0.03849447080983594,0.8001510280640578,0.026553553359750515,0.022192017167110833,0.0006808999677021532,-37.2421679492892,147.03516625190025,-667.0413188745309,-0.03929143771529198,0.2788287103176117,-0.06964371353387833,0.13668684661388397,0.6532945036888123,0.6471632719039917,0.8344392776489258,0.7605063319206238,-1.2445720434188843,-1.0872366428375244,-0.9902809262275696,-0.9697539806365967,0.004629219336595542,0.0037336254959117556,0.17210540843082422,0.1372013527244649,0.010787335542665194,0.04159320575855843,0.0025329702191891853,0.07453457037353951,0.020576723111039367,0.00416692328930853,-0.10936125718363177,0.08209324932488225,0.014879431575536728,1.0535017251968384,0.046409204602241516,0.18320998549461365,1.0764015913009644,0.027700617909431458,0.1678357571363449,0.5780642628669739,0.006295427680015564,0.3621412515640259,0.6588716506958008,0.0050858259201049805
0.17924479155734543,0.8892852120865221,0.38990607059863375,0.598142935067388,0.00983515133831694,-0.03838716209159836,0.8004090984076058,0.025797795111480726,0.023044722367466797,0.000554251161053454,-37.382155701293925,146.19827876878264,-667.0137626771705,-0.03928405046463013,0.27885541319847107,-0.0683867335319519,0.13774360716342926,0.6534713506698608,0.6476181149482727,0.8343275785446167,0.7611728310585022,-1.2444052696228027,-1.0873316526412964,-0.990847647190094,-0.969072699546814,0.001198756765938091,0.0005525991151197737,0.16981736948282486,0.13525425906100247,0.012287849902495884,0.043529760369360175,-0.002476217469393631,0.07837336821241302,0.02107223390082352,0.001947335680222379,-0.10185570716821322,0.08030931487491166,0.01490982249379158,1.0534288883209229,0.04640538990497589,0.183230459690094,1.0764144659042358,0.027699604630470276,0.1677609086036682,0.5782225728034973,0.006417363882064819,0.362215131521225,0.6587033271789551,0.0050270408391952515
0.1794522598622071,0.8894822819574262,0.38991014717257383,0.5978186864351936,0.009882885236618217,-0.0382931523269013,0.8006552199375011,0.024896196583398256,0.02364838450848783,0.0004891888728097982,-37.477325642120164,145.4154585615684,-666.9843090024265,-0.039230480790138245,0.2789224684238434,-0.06714890152215958,0.13880608975887299,0.6536632180213928,0.6480827927589417,0.8342297673225403,0.7618106603622437,-1.24424409866333,-1.0874320268630981,-0.991371750831604,-0.9683720469474792,-0.0018567257361395621,-0.0020525002925417136,0.16623832045103232,0.13257237476864692,0.013584460397852414,0.04521829292433496,-0.007720663756577642,0.08130266578951828,0.021454004831695232,-0.0006029129420007048,-0.09312083971725446,0.07772404820924955,0.01493835635483265,1.0533599853515625,0.04639890789985657,0.1832517385482788,1.0764267444610596,0.027699291706085205,0.1676919162273407,0.5783758163452148,0.006536349654197693,0.3622838258743286,0.6585391759872437,0.004971235990524292
0.1796516769566069,0.8896829748589561,0.3899150380779583,0.5975116126713264,0.00991364241249485,-0.03821718847195246,0.8008876568672583,0.0239300513279761,0.02408314818358903,0.0005869086461363082,-37.50935009981702,144.71103111786292,-666.9497750101251,-0.039117828011512756,0.2790381908416748,-0.065928615629673,0.13987226784229279,0.6538721323013306,0.6485457420349121,0.8341462016105652,0.7624039649963379,-1.244089961051941,-1.0875164270401,-0.9918416142463684,-0.9676161408424377,-0.004147346201468018,-0.0037346387880384086,0.1621930716688643,0.12986469792719307,0.014754718358016996,0.046805475852418565,-0.012497859547284837,0.08309236157292593,0.021647728249290423,-0.0033388464350079658,-0.08444623125917622,0.07543956252755714,0.014964208006858826,1.0532945394515991,0.04639163613319397,0.18327370285987854,1.076438307762146,0.027699768543243408,0.1676296442747116,0.5785224437713623,0.0066514164209365845,0.362349271774292,0.6583778858184814,0.004916742444038391
0.1798418420012569,0.8898851511221373,0.3899213915437745,0.5972245654080903,0.009924842116698127,-0.038157171407568594,0.8011044540209783,0.022819805358003098,0.02426115158174369,0.0007624158979413487,-37.480821140308606,144.09079220700147,-666.9104445807778,-0.038948167115449905,0.2791995704174042,-0.06472815573215485,0.140930637717247,0.6540858149528503,0.6489956378936768,0.8340669870376587,0.7629212141036987,-1.2439507246017456,-1.0875840187072754,-0.9922477006912231,-0.9668019413948059,-0.005317687047120415,-0.004234737183569633,0.15829932355167134,0.12765580280971411,0.01591585881740667,0.04840253636301941,-0.01616182002956293,0.08367655621554834,0.021612607942934924,-0.006044264935843989,-0.07681316097495333,0.07425228501101008,0.0149866733700037,1.0532349348068237,0.046383947134017944,0.18329685926437378,1.0764484405517578,0.027700096368789673,0.16757173836231232,0.5786595344543457,0.0067636072635650635,0.36240994930267334,0.6582249402999878,0.004863902926445007
0.18002152019364162,0.8900878214003547,0.38992895160594365,0.5969613365590515,0.009922189872190788,-0.0381130989416192,0.8013027545758454,0.021561383086164954,0.024320433386089135,0.0009072074603011515,-37.39603614588182,143.56490761335928,-666.8658956215487,-0.03872625529766083,0.2793986201286316,-0.06357207894325256,0.1419609636068344,0.6543119549751282,0.6494240164756775,0.8340102434158325,0.7633726000785828,-1.2438273429870605,-1.0876234769821167,-0.9926041960716248,-0.9659498929977417,-0.00508770556935834,-0.003405817344956445,0.15490728698105516,0.12622421043268955,0.017182451149169338,0.05004225212383955,-0.018280249676775735,0.08309299602041359,0.021339325776262328,-0.008462962898729456,-0.07069902647862898,0.07458526279022956,0.015005050227046013,1.0531820058822632,0.04637795686721802,0.18332037329673767,1.0764607191085815,0.02770024538040161,0.16751983761787415,0.5787886381149292,0.006871506571769714,0.36246606707572937,0.6580833792686462,0.004812270402908325
0.18018848591355088,0.8902865597280899,0.3899359657901721,0.5967250747437036,0.009908849611796968,-0.038078154571241946,0.80148053876307,0.020035886389111468,0.023848599328224473,0.000841702107412523,-37.28256467000039,143.12041106106037,-666.8197904511987,-0.03872625529766083,0.2793986201286316,-0.06357207894325256,0.1419609636068344,0.6543119549751282,0.6494240164756775,0.8340102434158325,0.7633726000785828,-1.2438273429870605,-1.0876234769821167,-0.9926041960716248,-0.9659498929977417,-0.003310676163521875,-0.0012422188769341484,0.15203015964803712,0.12552705225277205,0.018609735484261883,0.05162596408489742,-0.018718930327539185,0.08136967109958737,0.020829135584282725,-0.010333636513747961,-0.0660283391867155,0.07647057333242241,0.015076113864779472,1.053255558013916,0.046371638774871826,0.1833776980638504,1.076632022857666,0.02769222855567932,0.1678711622953415,0.578948974609375,0.0069036781787872314,0.36277052760124207,0.6583586931228638,0.0048382580280303955
0.18034149806541577,0.8904813752131638,0.38994011020724667,0.596518936788263,0.009900352786549738,-0.038051784982804204,0.801635330263908,0.018361458223786764,0.023377858208872837,0.0004973300489496957,-37.167584728911464,142.76299217234757,-666.771150039172,-0.03820328786969185,0.27983784675598145,-0.06150837242603302,0.1438339650630951,0.6547703146934509,0.6502507328987122,0.8336447477340698,0.7645041346549988,-1.2435334920883179,-1.0876766443252563,-0.9925844669342041,-0.9649646878242493,-5.5930019154801987e-05,0.0020724705337396678,0.14919966827023673,0.12506072061984985,0.020132135630820877,0.05286515595781408,-0.01765101412759509,0.0784354771825819,0.02006688387344846,-0.011427956016447199,-0.06220567493749495,0.07943199331896016,0.015032004565000534,1.0530905723571777,0.04635736346244812,0.18336939811706543,1.0764832496643066,0.02769865095615387,0.16743992269039154,0.5790157914161682,0.007002726197242737,0.3625635504722595,0.6578402519226074,0.0047803521156311035
0.18047960588898473,0.8906685596861764,0.3899384180798289,0.5963423204642715,0.009903485372408793,-0.038030705794527164,0.8017676865635937,0.016572938828275374,0.022462136761509655,-0.00020305529013553425,-37.09677876851441,142.47453028258576,-666.722416805306,-0.03820328786969185,0.27983784675598145,-0.06150837242603302,0.1438339650630951,0.6547703146934509,0.6502507328987122,0.8336447477340698,0.7645041346549988,-1.2435334920883179,-1.0876766443252563,-0.9925844669342041,-0.9649646878242493,0.004370797505789083,0.006169845069805354,0.14558282057927635,0.12396852645468981,0.0215760090781269,0.05335825819230301,-0.015549175839051549,0.07425566208834045,0.01904313780950112,-0.011602621185283182,-0.058220680332148694,0.0824274865472559,0.015093425288796425,1.053192138671875,0.046352073550224304,0.18342018127441406,1.0766584873199463,0.02769005298614502,0.16771022975444794,0.5791833400726318,0.0070126354694366455,0.3627989888191223,0.6580939292907715,0.004784613847732544
0.18060282394194804,0.8908484056861123,0.38992893483533975,0.596197037570687,0.009928678079809258,-0.038016722006654596,0.8018760768294521,0.014786166355597041,0.021581519992310838,-0.0011379893386953555,-37.09531914943137,142.25710974388477,-666.6720584600376,-0.03768843412399292,0.28021228313446045,-0.05991414189338684,0.1453184187412262,0.6554524302482605,0.6511151790618896,0.8340617418289185,0.7653676271438599,-1.2434625625610352,-1.0877162218093872,-0.9932801127433777,-0.963852047920227,0.009525495246494183,0.010598129677355657,0.14053960701748483,0.12155592213954616,0.022795131180481,0.05285791525706001,-0.01309049727705342,0.06914229634524316,0.01781377752485639,-0.010857570362842553,-0.05298945639830959,0.0841734696034378,0.015040826052427292,1.0530202388763428,0.046367838978767395,0.18342256546020508,1.0765080451965332,0.027694523334503174,0.16737332940101624,0.5791792869567871,0.00716690719127655,0.36262521147727966,0.6576652526855469,0.004687145352363586
0.18071070315070936,0.8910159868774123,0.38991073186212155,0.5960811372293202,0.009974800970376174,-0.03800793302238175,0.801962080283331,0.012945505051358275,0.02010974295600043,-0.00218435678618345,-37.18526090941545,142.09464160684573,-666.6225759098007,-0.03768843412399292,0.28021228313446045,-0.05991414189338684,0.1453184187412262,0.6554524302482605,0.6511151790618896,0.8340617418289185,0.7653676271438599,-1.2434625625610352,-1.0877162218093872,-0.9932801127433777,-0.963852047920227,0.01493674068939194,0.014922020793507969,0.13403532765673093,0.1176808792261641,0.023826161923242363,0.05148467944595386,-0.010804155853084828,0.06380762130682455,0.016479030907044535,-0.009359594975409603,-0.04599191627741789,0.08373442881055146,0.015075931325554848,1.053152084350586,0.0463678240776062,0.1834493726491928,1.0766897201538086,0.02768293023109436,0.16754397749900818,0.5793571472167969,0.007138252258300781,0.36277273297309875,0.6579000949859619,0.0046469420194625854
0.18080395246053027,0.8911726827050267,0.3898847673629037,0.5959929538926273,0.010043128415439589,-0.03800750611059986,0.8020267850647036,0.011189917178509035,0.01880349931372205,-0.0031157399061454427,-37.3590655187991,141.99034690131356,-666.5725443919878,-0.037250272929668427,0.28047630190849304,-0.05887211859226227,0.14636699855327606,0.6563289165496826,0.6520474553108215,0.8349396586418152,0.7665271759033203,-1.2434839010238647,-1.0877562761306763,-0.9940792918205261,-0.963575005531311,0.020145441034282747,0.01874930763874228,0.12648266176544956,0.11263445853005068,0.024933580257147293,0.04969345054259084,-0.008642203720718205,0.05906477968032258,0.015077553807047603,-0.007406232460628973,-0.037785506003434124,0.08087749765907509,0.015036117285490036,1.052964687347412,0.04639427363872528,0.1834743618965149,1.0765317678451538,0.02768722176551819,0.16733765602111816,0.579279899597168,0.0072744786739349365,0.3626570701599121,0.6575586795806885,0.0046024322509765625
0.18088325622573403,0.8913156301400653,0.3898527486329352,0.5959311893764488,0.010126540948497803,-0.0380129563033453,0.8020713720423324,0.00951645182445171,0.017153692204634474,-0.00384224759621965,-37.61329267214393,141.93246735902488,-666.5239614954717,-0.037250272929668427,0.28047630190849304,-0.05887211859226227,0.14636699855327606,0.6563289165496826,0.6520474553108215,0.8349396586418152,0.7665271759033203,-1.2434839010238647,-1.0877562761306763,-0.9940792918205261,-0.963575005531311,0.02471484632852894,0.021731538399850626,0.11832335159642748,0.10678574245253264,0.02652460873605652,0.048080636063676754,-0.005894215450205301,0.055567493399988455,0.01353320484003482,-0.005349667883132025,-0.029887723122562784,0.07588965067841724,0.015048012137413025,1.0531177520751953,0.04639960825443268,0.18348021805286407,1.0767134428024292,0.027674555778503418,0.16741980612277985,0.5794612765312195,0.007211029529571533,0.36272650957107544,0.657771110534668,0.004523530602455139
0.1809480530248727,0.8914436299682161,0.38981671099974546,0.5958999007912544,0.010225193646558429,-0.03802157403286321,0.8020929581787433,0.00777561589664133,0.015359979378097854,-0.004324515982765398,-37.93612687305409,141.92257191608846,-666.4778382090518,-0.037250272929668427,0.28047630190849304,-0.05887211859226227,0.14636699855327606,0.6563289165496826,0.6520474553108215,0.8349396586418152,0.7665271759033203,-1.2434839010238647,-1.0877562761306763,-0.9940792918205261,-0.963575005531311,0.02823378495881801,0.023573908797684597,0.10969472261897151,0.10027985785583665,0.028924675049123237,0.047109850029667444,-0.0016043162382838455,0.05366868538309594,0.011711796245515903,-0.0035115212664896117,-0.024042458976696005,0.06911684007159408,0.015049465000629425,1.053276777267456,0.04640872776508331,0.183476984500885,1.076888918876648,0.027662307024002075,0.1674550175666809,0.5796380639076233,0.007136285305023193,0.362754762172699,0.6579645872116089,0.004430651664733887
0.18099639585839375,0.8915538173445063,0.3897787258080506,0.5959018593366326,0.010334468168305464,-0.03802732589244792,0.8020898299394477,0.005801140022524409,0.013222485154824604,-0.004558223003381379,-38.325107440296044,141.94231630453856,-666.4405292314292,-0.03676111251115799,0.28072884678840637,-0.05835960805416107,0.1471179872751236,0.6577563881874084,0.6533951163291931,0.8367120623588562,0.768642783164978,-1.2434606552124023,-1.087795615196228,-0.9950403571128845,-0.9648343920707703,0.03031868877451959,0.024056990058750432,0.10028344392714915,0.09287756734331917,0.03209424238495698,0.046832600167813196,0.004787014382579247,0.053269628152771295,0.00953380012816755,-0.002111490609110977,-0.021347880242677524,0.060643058893668444,0.015018356963992119,1.0529056787490845,0.04643714427947998,0.18352621793746948,1.0765635967254639,0.027672886848449707,0.16736392676830292,0.5793185234069824,0.007310852408409119,0.3626483976840973,0.6575618386268616,0.004529014229774475
0.18102823239561372,0.8916493013550006,0.38974111277927137,0.5959390039320496,0.010452731231448608,-0.03802667835594379,0.80206073070279,0.0038203844663964315,0.011458081259316799,-0.004513563453509839,-38.76614262298654,141.98109363782356,-666.4165983406667,-0.03676111251115799,0.28072884678840637,-0.05835960805416107,0.1471179872751236,0.6577563881874084,0.6533951163291931,0.8367120623588562,0.768642783164978,-1.2434606552124023,-1.087795615196228,-0.9950403571128845,-0.9648343920707703,0.03072458351124467,0.023114149142377485,0.08951902567316605,0.08413801130606025,0.035697441596245744,0.04697572779611746,0.01325714014151616,0.05405767990738483,0.007065960564392078,-0.0012363012263613441,-0.021886733074293598,0.05012197601535742,0.014997376129031181,1.0530638694763184,0.0464545339345932,0.1835036426782608,1.0767101049423218,0.027660906314849854,0.1672949641942978,0.5794692635536194,0.007231771945953369,0.36258554458618164,0.6576962471008301,0.0044231116771698
0.18104254605021125,0.891727501632891,0.38970541060204855,0.5960123307589309,0.010572814644989503,-0.03801443850602373,0.8020052491342318,0.001717638551703704,0.009384033346848675,-0.0042842612667381985,-39.24612203197464,142.0175865410858,-666.4125598709277,-0.03676111251115799,0.28072884678840637,-0.05835960805416107,0.1471179872751236,0.6577563881874084,0.6533951163291931,0.8367120623588562,0.768642783164978,-1.2434606552124023,-1.087795615196228,-0.9950403571128845,-0.9648343920707703,0.02953734618210993,0.02093600207862379,0.0770862484198288,0.07391103671125923,0.03950135680840601,0.04736546801671382,0.02351545317287636,0.05603815004233957,0.004530429083961059,-0.0008559549108786415,-0.02499370497188351,0.036906241122264344,0.01496637612581253,1.0532143115997314,0.046474725008010864,0.18347278237342834,1.0768336057662964,0.027648016810417175,0.16717299818992615,0.5795981287956238,0.007159635424613953,0.3624765872955322,0.6577914357185364,0.004319041967391968
0.1810367574956478,0.8917890511403175,0.3896721594108455,0.5961272311662908,0.010693693571867351,-0.03799141092362114,0.8019193362650854,-0.0006946265476148739,0.007385940891171394,-0.003990142944367836,-39.74331178979444,142.05569275183345,-666.4307342389541,-0.03656250983476639,0.28076133131980896,-0.05938189476728439,0.1465982049703598,0.6591575145721436,0.6544067859649658,0.8389150500297546,0.7700120210647583,-1.2435569763183594,-1.0878393650054932,-0.9957510232925415,-0.9668774604797363,0.02715633528149408,0.01793827735844292,0.06319214785923731,0.06251962702912936,0.04340037629955099,0.04797222887761396,0.03501937199430263,0.059340041036517556,0.0022190024268011386,-0.0008598493461266357,-0.029572570794278448,0.020699767148594523,0.014992296695709229,1.0528895854949951,0.046510741114616394,0.18353664875030518,1.0765893459320068,0.027655288577079773,0.1675005704164505,0.5791898369789124,0.007293820381164551,0.3625468611717224,0.6578266024589539,0.004473567008972168
0.18101021955694901,0.8918390232060776,0.38964207142613994,0.5962826209016183,0.01081094117186123,-0.03795882035182493,0.8018037712053826,-0.003184552643853422,0.005996647891208795,-0.0036105581646661555,-40.24762599469207,142.09732177538564,-666.4726890141117,-0.03656250983476639,0.28076133131980896,-0.05938189476728439,0.1465982049703598,0.6591575145721436,0.6544067859649658,0.8389150500297546,0.7700120210647583,-1.2435569763183594,-1.0878393650054932,-0.9957510232925415,-0.9668774604797363,0.024060379902404158,0.014583036080021636,0.04820961155581671,0.050370479336456636,0.047192087595734566,0.048632579183454344,0.04691708268602067,0.06355330665646958,0.00035865912763371945,-0.0010980760788994138,-0.03429844598611327,0.0019915445121292813,0.01494385115802288,1.0530340671539307,0.04653565585613251,0.18349260091781616,1.0766721963882446,0.027641773223876953,0.16726383566856384,0.5792805552482605,0.00723797082901001,0.3623390197753906,0.6578439474105835,0.004377931356430054
0.18096421172750254,0.8918815621256775,0.3896159711530535,0.5964730239984396,0.010920996209969776,-0.037920683212947136,0.8016624509533934,-0.005520939533576463,0.0051046703519919134,-0.003132032770369886,-40.73926984075283,142.1498046024325,-666.5360195991731,-0.03655395656824112,0.2806849777698517,-0.06094563752412796,0.14547812938690186,0.6599792838096619,0.6548534631729126,0.8400833010673523,0.7705627679824829,-1.2436429262161255,-1.087862491607666,-0.995164155960083,-0.9688021540641785,0.02065808196261199,0.011236845097795406,0.03219604068320496,0.037560341472454864,0.05072397054675997,0.049100195705143616,0.058509098025601655,0.06775943622502116,-0.0009848707403546414,-0.0014277642356819201,-0.03793706190859545,-0.018329764624812915,0.014963924884796143,1.0529205799102783,0.046566128730773926,0.18352332711219788,1.0765994787216187,0.02763959765434265,0.16766312718391418,0.5790039300918579,0.007194951176643372,0.36244648694992065,0.658136785030365,0.004508018493652344
0.18090053933193034,0.8919173021548104,0.3895940244495438,0.5966928704027374,0.011018618156170593,-0.03788045558752311,0.8014993946029855,-0.007640687468664087,0.004288803495944293,-0.0026336044211694443,-41.2010680437637,142.21852143171472,-666.6172883477701,-0.03655395656824112,0.2806849777698517,-0.06094563752412796,0.14547812938690186,0.6599792838096619,0.6548534631729126,0.8400833010673523,0.7705627679824829,-1.2436429262161255,-1.087862491607666,-0.995164155960083,-0.9688021540641785,0.017254227970034494,0.008126997651856021,0.014868606110859398,0.023870830022112877,0.05401798787294822,0.04919717508268316,0.06943740402427323,0.07095508464928602,-0.0019016205994476108,-0.0017428123090439643,-0.039451887938383084,-0.03940592497956345,0.014909999445080757,1.0530660152435303,0.046591103076934814,0.18347784876823425,1.076655387878418,0.02762804925441742,0.16734495759010315,0.5790696144104004,0.0071574002504348755,0.3621703088283539,0.6580977439880371,0.004431366920471191
0.180822608655491,0.8919500845872494,0.3895770996476363,0.5969329011386373,0.01110251973724954,-0.037844333164803845,0.801321191558669,-0.009351681172722337,0.003933891892691221,-0.0020309762288950317,-41.614184312966735,142.31834541096805,-666.7098217244373,-0.0365443155169487,0.2806294858455658,-0.06295080482959747,0.14393150806427002,0.6606783866882324,0.6551473140716553,0.8410758972167969,0.7707812786102295,-1.243704080581665,-1.0878357887268066,-0.9939070343971252,-0.97074294090271,0.014020103730958564,0.005345715771815297,-0.0040489974744568925,0.008996331714257497,0.05700146384633419,0.048701688334586296,0.07918935617788488,0.07217384253611948,-0.0025532483304215414,-0.0019726093382010732,-0.03778537782624781,-0.060318508102818885,0.014920711517333984,1.0529909133911133,0.04661792516708374,0.1834908276796341,1.0766040086746216,0.02762259542942047,0.16786620020866394,0.5787495970726013,0.007059216499328613,0.36234402656555176,0.6585100293159485,0.004583880305290222
0.18073588687343586,0.8919808143759403,0.3895658198030336,0.597181599972389,0.011168366712134855,-0.037814960469106,0.8011363385867108,-0.010406613846615231,0.0036875746429076983,-0.0013535813523235518,-41.96923817732759,142.44989165198598,-666.8078094194742,-0.03651353344321251,0.28063705563545227,-0.06400152295827866,0.14309224486351013,0.6609900593757629,0.6552417874336243,0.8410990834236145,0.7710537314414978,-1.2437514066696167,-1.0877909660339355,-0.9924172163009644,-0.9721382856369019,0.011010246610782363,0.0028980654338469766,-0.024560104109078097,-0.0072626400211534894,0.059321149104941434,0.047270086482135855,0.08679467903120755,0.07056874748554365,-0.003084717066146444,-0.002060877225609746,-0.03173621852508094,-0.08002233357281527,0.014894289895892143,1.0530380010604858,0.04664570093154907,0.1834678053855896,1.0766059160232544,0.02761535346508026,0.16798314452171326,0.5786126255989075,0.0069138407707214355,0.3623030483722687,0.6587121486663818,0.004683822393417358
0.18064435863524658,0.8920094820208543,0.3895599922458131,0.5974297624296967,0.011215112349157626,-0.03779659531795027,0.8009515076461017,-0.010983388582713749,0.0034401173896725368,-0.0006993068664606916,-42.25015935762277,142.61867837801964,-666.9047180295254,-0.03651353344321251,0.28063705563545227,-0.06400152295827866,0.14309224486351013,0.6609900593757629,0.6552417874336243,0.8410990834236145,0.7710537314414978,-1.2437514066696167,-1.0877909660339355,-0.9924172163009644,-0.9721382856369019,0.008244811197342748,0.0007790676111414062,-0.04634676921423617,-0.024897413776180665,0.060501507264407506,0.044579074913588895,0.09107799645097692,0.06570802650488164,-0.003579401326688706,-0.0019455821963272925,-0.020090575253779955,-0.09764512828122929,0.014860706403851509,1.0531805753707886,0.04666532576084137,0.18344643712043762,1.0766453742980957,0.02761562168598175,0.16765324771404266,0.5786624550819397,0.006898641586303711,0.3620220720767975,0.6586427092552185,0.004648134112358093
